(G-CODE GENERATED BY FLATCAM v8.99 - www.flatcam.org - Version Date: 2019/12/15)

(Name: back_copper)
(Type: G-code from Geometry)
(Units: MM)

(Created on Saturday, 07 March 2020 at 20:03)

(TOOL DIAMETER: 0.6 mm)
(Feedrate: 150.0 mm/min)
(Feedrate_Z: 50.0 mm/min)
(Feedrate rapids 76.2 mm/min)

(Z_Cut: -0.1 mm)
(Z_Move: 1.0 mm)
(Z Toolchange: 20.0 mm)
(X,Y Toolchange: 0.0000, 0.0000 mm)
(Z Start: None mm)
(Z End: 20.0 mm)
(Steps per circle: 128)
(Preprocessor Geometry: default)

(X range:   -0.8000 ...   60.8000  mm)
(Y range:   -0.8000 ...   60.8000  mm)

(Spindle Speed: 12000 RPM)
G21
G90
G94




G01 F150.00
G00 Z1.0000

M03 S12000
G00 X-0.7992 Y0.0319
G01 F50.00
G01 Z-0.1000
G01 F150.00
G01 X-0.8000 Y-0.0000
G01 X-0.7986 Y-0.0466
G01 X-0.7955 Y-0.0840
G01 X-0.7902 Y-0.1247
G01 X-0.7846 Y-0.1564
G01 X-0.7741 Y-0.2015
G01 X-0.7633 Y-0.2392
G01 X-0.7507 Y-0.2764
G01 X-0.7362 Y-0.3129
G01 X-0.7203 Y-0.3479
G01 X-0.7020 Y-0.3836
G01 X-0.6831 Y-0.4163
G01 X-0.6610 Y-0.4505
G01 X-0.6416 Y-0.4778
G01 X-0.6149 Y-0.5118
G01 X-0.5877 Y-0.5426
G01 X-0.5657 Y-0.5657
G01 X-0.5317 Y-0.5976
G01 X-0.5018 Y-0.6230
G01 X-0.4778 Y-0.6416
G01 X-0.4383 Y-0.6692
G01 X-0.4049 Y-0.6899
G01 X-0.3706 Y-0.7089
G01 X-0.3353 Y-0.7263
G01 X-0.3028 Y-0.7405
G01 X-0.2625 Y-0.7556
G01 X-0.2252 Y-0.7676
G01 X-0.1872 Y-0.7777
G01 X-0.1564 Y-0.7846
G01 X-0.1101 Y-0.7923
G01 X-0.0711 Y-0.7968
G01 X-0.0319 Y-0.7993
G01 X0.0000 Y-0.8000
G01 X0.0466 Y-0.7986
G01 X0.0840 Y-0.7955
G01 X0.1247 Y-0.7902
G01 X0.1564 Y-0.7846
G01 X0.2015 Y-0.7741
G01 X0.2392 Y-0.7633
G01 X0.2764 Y-0.7507
G01 X0.3129 Y-0.7362
G01 X0.3479 Y-0.7203
G01 X0.3836 Y-0.7020
G01 X0.4163 Y-0.6831
G01 X0.4505 Y-0.6610
G01 X0.4778 Y-0.6416
G01 X0.5118 Y-0.6149
G01 X0.5426 Y-0.5877
G01 X0.5657 Y-0.5657
G01 X0.5976 Y-0.5317
G01 X0.6230 Y-0.5018
G01 X0.6416 Y-0.4778
G01 X0.6692 Y-0.4383
G01 X0.6899 Y-0.4049
G01 X0.7089 Y-0.3706
G01 X0.7263 Y-0.3353
G01 X0.7405 Y-0.3028
G01 X0.7556 Y-0.2625
G01 X0.7676 Y-0.2252
G01 X0.7777 Y-0.1872
G01 X0.7846 Y-0.1564
G01 X0.7923 Y-0.1101
G01 X0.7968 Y-0.0711
G01 X0.7993 Y-0.0319
G01 X0.8000 Y0.0000
G01 X0.7986 Y0.0466
G01 X0.7955 Y0.0840
G01 X0.7902 Y0.1247
G01 X0.7846 Y0.1564
G01 X0.7741 Y0.2015
G01 X0.7633 Y0.2392
G01 X0.7507 Y0.2764
G01 X0.7362 Y0.3129
G01 X0.7203 Y0.3479
G01 X0.7020 Y0.3836
G01 X0.6831 Y0.4163
G01 X0.6610 Y0.4505
G01 X0.6416 Y0.4778
G01 X0.6149 Y0.5118
G01 X0.5877 Y0.5426
G01 X0.5657 Y0.5657
G01 X0.5317 Y0.5976
G01 X0.5018 Y0.6230
G01 X0.4778 Y0.6416
G01 X0.4383 Y0.6692
G01 X0.4049 Y0.6899
G01 X0.3706 Y0.7089
G01 X0.3353 Y0.7263
G01 X0.3028 Y0.7405
G01 X0.2625 Y0.7556
G01 X0.2252 Y0.7676
G01 X0.1872 Y0.7777
G01 X0.1564 Y0.7846
G01 X0.1101 Y0.7923
G01 X0.0711 Y0.7968
G01 X0.0319 Y0.7993
G01 X-0.0000 Y0.8000
G01 X-0.0466 Y0.7986
G01 X-0.0840 Y0.7955
G01 X-0.1247 Y0.7902
G01 X-0.1564 Y0.7846
G01 X-0.2015 Y0.7741
G01 X-0.2392 Y0.7633
G01 X-0.2764 Y0.7507
G01 X-0.3129 Y0.7362
G01 X-0.3479 Y0.7203
G01 X-0.3836 Y0.7020
G01 X-0.4163 Y0.6831
G01 X-0.4505 Y0.6610
G01 X-0.4778 Y0.6416
G01 X-0.5118 Y0.6149
G01 X-0.5426 Y0.5877
G01 X-0.5657 Y0.5657
G01 X-0.5976 Y0.5317
G01 X-0.6230 Y0.5018
G01 X-0.6416 Y0.4778
G01 X-0.6692 Y0.4383
G01 X-0.6899 Y0.4049
G01 X-0.7089 Y0.3706
G01 X-0.7263 Y0.3353
G01 X-0.7405 Y0.3028
G01 X-0.7556 Y0.2625
G01 X-0.7676 Y0.2252
G01 X-0.7777 Y0.1872
G01 X-0.7846 Y0.1564
G01 X-0.7923 Y0.1101
G01 X-0.7968 Y0.0711
G01 X-0.7992 Y0.0319
G00 Z1.0000
G00 X6.7500 Y5.4700
G01 F50.00
G01 Z-0.1000
G01 F150.00
G01 X9.1500 Y5.4700
G01 X9.1778 Y5.4713
G01 X9.1917 Y5.4729
G01 X9.2191 Y5.4781
G01 X9.2459 Y5.4857
G01 X9.2590 Y5.4905
G01 X9.2851 Y5.5021
G01 X9.2981 Y5.5091
G01 X9.3229 Y5.5248
G01 X9.3346 Y5.5336
G01 X9.3569 Y5.5527
G01 X9.3673 Y5.5631
G01 X9.3864 Y5.5854
G01 X9.3952 Y5.5971
G01 X9.4109 Y5.6219
G01 X9.4179 Y5.6349
G01 X9.4295 Y5.6610
G01 X9.4384 Y5.6874
G01 X9.4448 Y5.7146
G01 X9.4487 Y5.7422
G01 X9.4500 Y5.7700
G01 X9.4500 Y7.4798
G01 X9.7203 Y7.7502
G01 X9.7437 Y7.7753
G01 X9.7659 Y7.8015
G01 X9.7814 Y7.8216
G01 X9.7980 Y7.8449
G01 X9.8243 Y7.8864
G01 X9.8409 Y7.9165
G01 X9.8560 Y7.9473
G01 X9.8683 Y7.9754
G01 X9.8767 Y7.9972
G01 X9.8921 Y8.0438
G01 X9.9009 Y8.0770
G01 X9.9067 Y8.1031
G01 X9.9115 Y8.1300
G01 X9.9160 Y8.1641
G01 X9.9189 Y8.1983
G01 X9.9202 Y8.2400
G01 X9.9202 Y10.5013
G01 X9.9527 Y10.5161
G01 X10.0148 Y10.5473
G01 X10.0990 Y10.5950
G01 X10.1583 Y10.6325
G01 X10.2267 Y10.6802
G01 X10.3027 Y10.7394
G01 X10.3670 Y10.7954
G01 X10.4221 Y10.8479
G01 X10.4746 Y10.9030
G01 X10.5387 Y10.9773
G01 X10.5845 Y11.0360
G01 X10.6293 Y11.0995
G01 X10.6818 Y11.1824
G01 X10.7227 Y11.2552
G01 X10.7539 Y11.3173
G01 X10.7877 Y11.3927
G01 X10.8230 Y11.4842
G01 X10.8446 Y11.5495
G01 X10.8672 Y11.6298
G01 X10.8873 Y11.7180
G01 X10.9004 Y11.7933
G01 X10.9110 Y11.8761
G01 X10.9182 Y11.9739
G01 X10.9200 Y12.0500
G01 X10.9182 Y12.1261
G01 X10.9124 Y12.2093
G01 X10.9026 Y12.2921
G01 X10.8858 Y12.3889
G01 X10.8708 Y12.4559
G01 X10.8488 Y12.5364
G01 X10.8181 Y12.6296
G01 X10.7920 Y12.6972
G01 X10.7539 Y12.7827
G01 X10.7227 Y12.8448
G01 X10.6818 Y12.9176
G01 X10.6293 Y13.0005
G01 X10.5845 Y13.0640
G01 X10.5306 Y13.1327
G01 X10.4845 Y13.1861
G01 X10.4272 Y13.2468
G01 X10.3561 Y13.3145
G01 X10.3041 Y13.3594
G01 X10.2385 Y13.4110
G01 X10.1583 Y13.4675
G01 X10.1002 Y13.5043
G01 X10.0278 Y13.5457
G01 X9.9401 Y13.5898
G01 X9.8672 Y13.6220
G01 X9.7996 Y13.6481
G01 X9.7205 Y13.6746
G01 X9.6402 Y13.6972
G01 X9.5520 Y13.7173
G01 X9.4767 Y13.7304
G01 X9.3939 Y13.7410
G01 X9.3108 Y13.7475
G01 X9.2200 Y13.7500
G01 X9.1439 Y13.7482
G01 X9.0607 Y13.7424
G01 X8.9779 Y13.7326
G01 X8.8880 Y13.7173
G01 X8.8141 Y13.7008
G01 X8.7336 Y13.6788
G01 X8.6542 Y13.6530
G01 X8.5728 Y13.6220
G01 X8.4999 Y13.5898
G01 X8.4252 Y13.5527
G01 X8.3410 Y13.5050
G01 X8.2695 Y13.4593
G01 X8.2060 Y13.4145
G01 X8.1373 Y13.3606
G01 X8.0839 Y13.3145
G01 X8.0179 Y13.2521
G01 X7.9654 Y13.1970
G01 X7.9106 Y13.1341
G01 X7.8555 Y13.0640
G01 X7.8107 Y13.0005
G01 X7.7657 Y12.9302
G01 X7.7243 Y12.8578
G01 X7.6861 Y12.7827
G01 X7.6480 Y12.6972
G01 X7.6219 Y12.6296
G01 X7.5954 Y12.5505
G01 X7.5728 Y12.4702
G01 X7.5527 Y12.3820
G01 X7.5396 Y12.3067
G01 X7.5290 Y12.2239
G01 X7.5225 Y12.1408
G01 X7.5200 Y12.0500
G01 X7.5218 Y11.9739
G01 X7.5276 Y11.8907
G01 X7.5374 Y11.8079
G01 X7.5527 Y11.7180
G01 X7.5692 Y11.6441
G01 X7.5912 Y11.5636
G01 X7.6170 Y11.4842
G01 X7.6523 Y11.3927
G01 X7.6861 Y11.3173
G01 X7.7243 Y11.2422
G01 X7.7650 Y11.1710
G01 X7.8107 Y11.0995
G01 X7.8555 Y11.0360
G01 X7.9094 Y10.9673
G01 X7.9555 Y10.9139
G01 X8.0128 Y10.8532
G01 X8.0730 Y10.7954
G01 X8.1359 Y10.7406
G01 X8.2060 Y10.6855
G01 X8.2695 Y10.6407
G01 X8.3398 Y10.5957
G01 X8.4122 Y10.5543
G01 X8.4873 Y10.5161
G01 X8.5198 Y10.5013
G01 X8.5198 Y8.5300
G01 X8.4598 Y8.4700
G01 X6.7500 Y8.4700
G01 X6.7222 Y8.4687
G01 X6.7083 Y8.4671
G01 X6.6809 Y8.4619
G01 X6.6541 Y8.4543
G01 X6.6282 Y8.4441
G01 X6.6149 Y8.4379
G01 X6.5894 Y8.4234
G01 X6.5654 Y8.4064
G01 X6.5431 Y8.3873
G01 X6.5327 Y8.3769
G01 X6.5136 Y8.3546
G01 X6.4966 Y8.3306
G01 X6.4891 Y8.3181
G01 X6.4759 Y8.2918
G01 X6.4705 Y8.2790
G01 X6.4616 Y8.2526
G01 X6.4552 Y8.2254
G01 X6.4529 Y8.2117
G01 X6.4513 Y8.1978
G01 X6.4500 Y8.1700
G01 X6.4500 Y5.7700
G01 X6.4513 Y5.7422
G01 X6.4552 Y5.7146
G01 X6.4616 Y5.6874
G01 X6.4705 Y5.6610
G01 X6.4821 Y5.6349
G01 X6.4966 Y5.6094
G01 X6.5136 Y5.5854
G01 X6.5327 Y5.5631
G01 X6.5431 Y5.5527
G01 X6.5654 Y5.5336
G01 X6.5894 Y5.5166
G01 X6.6149 Y5.5021
G01 X6.6410 Y5.4905
G01 X6.6674 Y5.4816
G01 X6.6946 Y5.4752
G01 X6.7222 Y5.4713
G01 X6.7500 Y5.4700
G00 Z1.0000
G00 X6.3339 Y8.1279
G01 F50.00
G01 Z-0.1000
G01 F150.00
G01 X6.3339 Y5.8121
G01 X6.3733 Y5.6140
G01 X6.4617 Y5.4817
G01 X6.5940 Y5.3933
G01 X6.7921 Y5.3539
G01 X9.1079 Y5.3539
G01 X9.3060 Y5.3933
G01 X9.4383 Y5.4817
G01 X9.5267 Y5.6140
G01 X9.5661 Y5.8121
G01 X9.5661 Y7.2780
G01 X9.5671 Y7.3063
G01 X9.5690 Y7.3271
G01 X9.5719 Y7.3479
G01 X9.5759 Y7.3685
G01 X9.5808 Y7.3888
G01 X9.5887 Y7.4149
G01 X9.5973 Y7.4380
G01 X9.6041 Y7.4538
G01 X9.6132 Y7.4727
G01 X9.6232 Y7.4911
G01 X9.6341 Y7.5090
G01 X9.6459 Y7.5264
G01 X9.6585 Y7.5431
G01 X9.6719 Y7.5592
G01 X9.6861 Y7.5747
G01 X9.7100 Y7.5983
G01 X9.7270 Y7.6135
G01 X9.7465 Y7.6290
G01 X9.7967 Y7.6633
G01 X9.9735 Y7.9279
G01 X10.0356 Y8.2400
G01 X10.0268 Y8.2848
G01 X10.0236 Y8.3055
G01 X10.0209 Y8.3325
G01 X10.0199 Y8.3608
G01 X10.0199 Y10.1915
G01 X10.0209 Y10.2198
G01 X10.0228 Y10.2406
G01 X10.0268 Y10.2675
G01 X10.0310 Y10.2881
G01 X10.0405 Y10.3225
G01 X10.0511 Y10.3515
G01 X10.0638 Y10.3800
G01 X10.0770 Y10.4047
G01 X10.0961 Y10.4348
G01 X10.1123 Y10.4566
G01 X10.1257 Y10.4727
G01 X10.1503 Y10.4986
G01 X10.1718 Y10.5180
G01 X10.2037 Y10.5424
G01 X10.5177 Y10.7523
G01 X10.9155 Y11.3477
G01 X11.0552 Y12.0500
G01 X10.9155 Y12.7523
G01 X10.5177 Y13.3477
G01 X9.9223 Y13.7455
G01 X9.3973 Y13.8499
G01 X9.0427 Y13.8499
G01 X8.5177 Y13.7455
G01 X7.9223 Y13.3477
G01 X7.5245 Y12.7523
G01 X7.3848 Y12.0500
G01 X7.5245 Y11.3477
G01 X7.9223 Y10.7523
G01 X8.2303 Y10.5466
G01 X8.2533 Y10.5300
G01 X8.2743 Y10.5128
G01 X8.2950 Y10.4934
G01 X8.3143 Y10.4727
G01 X8.3351 Y10.4472
G01 X8.3521 Y10.4226
G01 X8.3661 Y10.3992
G01 X8.3762 Y10.3800
G01 X8.3889 Y10.3515
G01 X8.3995 Y10.3225
G01 X8.4090 Y10.2881
G01 X8.4143 Y10.2614
G01 X8.4186 Y10.2260
G01 X8.4200 Y10.1988
G01 X8.4201 Y9.0132
G01 X8.4186 Y8.9787
G01 X8.4143 Y8.9433
G01 X8.4090 Y8.9166
G01 X8.3995 Y8.8822
G01 X8.3889 Y8.8532
G01 X8.3762 Y8.8247
G01 X8.3661 Y8.8054
G01 X8.3521 Y8.7821
G01 X8.3351 Y8.7575
G01 X8.3184 Y8.7366
G01 X8.2950 Y8.7112
G01 X8.2743 Y8.6919
G01 X8.2487 Y8.6711
G01 X8.2241 Y8.6541
G01 X8.2008 Y8.6401
G01 X8.1815 Y8.6300
G01 X8.1530 Y8.6173
G01 X8.1240 Y8.6068
G01 X8.1039 Y8.6008
G01 X8.0691 Y8.5930
G01 X8.0484 Y8.5898
G01 X8.0275 Y8.5876
G01 X7.9930 Y8.5861
G01 X6.7921 Y8.5861
G01 X6.5940 Y8.5467
G01 X6.4617 Y8.4583
G01 X6.3733 Y8.3260
G01 X6.3339 Y8.1279
G00 Z1.0000
G00 X0.4749 Y14.6633
G01 F50.00
G01 Z-0.1000
G01 F150.00
G01 X0.4750 Y0.9673
G01 X0.4764 Y0.9401
G01 X0.4807 Y0.9047
G01 X0.4860 Y0.8781
G01 X0.4913 Y0.8578
G01 X0.5025 Y0.8239
G01 X0.5129 Y0.7988
G01 X0.5289 Y0.7669
G01 X0.5429 Y0.7436
G01 X0.5634 Y0.7144
G01 X0.5754 Y0.6995
G01 X0.5906 Y0.6825
G01 X0.6780 Y0.5949
G01 X0.6981 Y0.5766
G01 X0.7190 Y0.5599
G01 X0.7436 Y0.5429
G01 X0.7669 Y0.5289
G01 X0.7862 Y0.5188
G01 X0.8146 Y0.5061
G01 X0.8378 Y0.4975
G01 X0.8638 Y0.4896
G01 X0.8910 Y0.4832
G01 X0.9193 Y0.4786
G01 X0.9464 Y0.4759
G01 X0.9747 Y0.4749
G01 X16.4279 Y0.4749
G01 X16.4562 Y0.4759
G01 X16.4833 Y0.4786
G01 X16.5116 Y0.4832
G01 X16.5448 Y0.4913
G01 X16.5787 Y0.5025
G01 X16.6164 Y0.5188
G01 X16.6411 Y0.5320
G01 X16.6713 Y0.5511
G01 X16.6931 Y0.5673
G01 X16.7201 Y0.5906
G01 X16.7394 Y0.6098
G01 X16.7627 Y0.6368
G01 X16.7753 Y0.6536
G01 X16.7870 Y0.6709
G01 X16.8010 Y0.6942
G01 X16.8171 Y0.7261
G01 X16.8239 Y0.7420
G01 X16.8324 Y0.7651
G01 X16.8403 Y0.7911
G01 X16.8481 Y0.8259
G01 X16.8521 Y0.8528
G01 X16.8540 Y0.8737
G01 X16.8550 Y0.9020
G01 X16.8540 Y0.9303
G01 X16.8524 Y0.9494
G01 X16.8492 Y0.9719
G01 X16.8303 Y1.0685
G01 X16.8303 Y2.7115
G01 X16.8697 Y2.9096
G01 X16.9581 Y3.0419
G01 X17.0904 Y3.1303
G01 X17.2885 Y3.1697
G01 X18.9315 Y3.1697
G01 X19.1296 Y3.1303
G01 X19.2619 Y3.0419
G01 X19.2822 Y3.0120
G01 X19.2948 Y2.9953
G01 X19.3083 Y2.9792
G01 X19.3276 Y2.9585
G01 X19.3483 Y2.9391
G01 X19.3693 Y2.9219
G01 X19.3862 Y2.9095
G01 X19.4164 Y2.8904
G01 X19.4411 Y2.8772
G01 X19.4695 Y2.8645
G01 X19.4927 Y2.8559
G01 X19.5187 Y2.8480
G01 X19.5459 Y2.8416
G01 X19.5742 Y2.8370
G01 X19.6013 Y2.8343
G01 X19.6296 Y2.8334
G01 X19.6579 Y2.8343
G01 X19.6770 Y2.8360
G01 X19.7132 Y2.8416
G01 X19.7465 Y2.8497
G01 X19.7665 Y2.8559
G01 X19.7896 Y2.8645
G01 X19.8181 Y2.8772
G01 X19.8373 Y2.8873
G01 X19.8542 Y2.8972
G01 X19.8729 Y2.9095
G01 X19.9047 Y2.9339
G01 X19.9343 Y2.9612
G01 X20.3987 Y3.1535
G01 X20.9013 Y3.1535
G01 X21.3657 Y2.9612
G01 X21.6233 Y2.7037
G01 X21.6434 Y2.6855
G01 X21.6597 Y2.6723
G01 X21.6767 Y2.6599
G01 X21.7068 Y2.6409
G01 X21.7315 Y2.6277
G01 X21.7600 Y2.6149
G01 X21.7890 Y2.6044
G01 X21.8234 Y2.5949
G01 X21.8501 Y2.5896
G01 X21.8855 Y2.5852
G01 X21.9200 Y2.5838
G01 X21.9545 Y2.5852
G01 X21.9899 Y2.5896
G01 X22.0166 Y2.5949
G01 X22.0510 Y2.6044
G01 X22.0800 Y2.6149
G01 X22.1085 Y2.6277
G01 X22.1332 Y2.6409
G01 X22.1633 Y2.6599
G01 X22.1952 Y2.6843
G01 X22.2167 Y2.7037
G01 X22.4743 Y2.9612
G01 X22.9387 Y3.1535
G01 X23.4413 Y3.1535
G01 X23.9057 Y2.9612
G01 X24.2612 Y2.6057
G01 X24.4535 Y2.1413
G01 X24.4535 Y1.6387
G01 X24.2583 Y1.1674
G01 X24.2419 Y1.1453
G01 X24.2229 Y1.1152
G01 X24.2097 Y1.0905
G01 X24.1969 Y1.0620
G01 X24.1864 Y1.0330
G01 X24.1769 Y0.9986
G01 X24.1716 Y0.9719
G01 X24.1672 Y0.9365
G01 X24.1660 Y0.9156
G01 X24.1660 Y0.8884
G01 X24.1685 Y0.8546
G01 X24.1716 Y0.8321
G01 X24.1769 Y0.8054
G01 X24.1821 Y0.7851
G01 X24.1933 Y0.7512
G01 X24.2037 Y0.7261
G01 X24.2128 Y0.7072
G01 X24.2297 Y0.6774
G01 X24.2419 Y0.6587
G01 X24.2581 Y0.6368
G01 X24.2716 Y0.6207
G01 X24.2909 Y0.6000
G01 X24.3116 Y0.5807
G01 X24.3326 Y0.5634
G01 X24.3618 Y0.5429
G01 X24.3851 Y0.5289
G01 X24.4170 Y0.5129
G01 X24.4421 Y0.5025
G01 X24.4760 Y0.4913
G01 X24.5092 Y0.4832
G01 X24.5437 Y0.4778
G01 X24.5793 Y0.4752
G01 X26.8745 Y0.4750
G01 X26.9146 Y0.4776
G01 X26.9508 Y0.4832
G01 X26.9840 Y0.4913
G01 X27.0179 Y0.5025
G01 X27.0556 Y0.5188
G01 X27.0917 Y0.5388
G01 X27.1228 Y0.5599
G01 X27.1484 Y0.5807
G01 X27.1743 Y0.6053
G01 X27.1884 Y0.6207
G01 X27.2019 Y0.6368
G01 X27.2145 Y0.6536
G01 X27.2262 Y0.6709
G01 X27.2402 Y0.6942
G01 X27.2563 Y0.7261
G01 X27.2631 Y0.7420
G01 X27.2716 Y0.7651
G01 X27.2779 Y0.7851
G01 X27.2831 Y0.8054
G01 X27.2884 Y0.8321
G01 X27.2913 Y0.8528
G01 X27.2940 Y0.8884
G01 X27.2940 Y0.9156
G01 X27.2928 Y0.9365
G01 X27.2906 Y0.9574
G01 X27.2859 Y0.9856
G01 X27.2795 Y1.0129
G01 X27.2716 Y1.0389
G01 X27.2631 Y1.0620
G01 X27.2563 Y1.0779
G01 X27.2402 Y1.1098
G01 X27.2303 Y1.1266
G01 X27.2181 Y1.1453
G01 X27.2017 Y1.1674
G01 X27.0065 Y1.6387
G01 X27.0065 Y2.1413
G01 X27.1988 Y2.6057
G01 X27.5543 Y2.9612
G01 X28.0187 Y3.1535
G01 X28.5213 Y3.1535
G01 X28.9857 Y2.9612
G01 X29.2433 Y2.7037
G01 X29.2634 Y2.6855
G01 X29.2797 Y2.6723
G01 X29.2967 Y2.6599
G01 X29.3268 Y2.6409
G01 X29.3508 Y2.6280
G01 X29.3800 Y2.6149
G01 X29.4031 Y2.6064
G01 X29.4291 Y2.5985
G01 X29.4639 Y2.5907
G01 X29.4908 Y2.5867
G01 X29.5264 Y2.5840
G01 X29.5536 Y2.5840
G01 X29.5874 Y2.5865
G01 X29.6099 Y2.5896
G01 X29.6366 Y2.5949
G01 X29.6569 Y2.6001
G01 X29.6908 Y2.6113
G01 X29.7159 Y2.6217
G01 X29.7478 Y2.6378
G01 X29.7711 Y2.6518
G01 X29.7957 Y2.6688
G01 X29.8152 Y2.6843
G01 X29.8322 Y2.6994
G01 X30.0943 Y2.9612
G01 X30.5587 Y3.1535
G01 X31.0613 Y3.1535
G01 X31.5257 Y2.9612
G01 X31.7833 Y2.7037
G01 X31.8034 Y2.6855
G01 X31.8197 Y2.6723
G01 X31.8367 Y2.6599
G01 X31.8668 Y2.6409
G01 X31.8908 Y2.6280
G01 X31.9200 Y2.6149
G01 X31.9431 Y2.6064
G01 X31.9691 Y2.5985
G01 X32.0039 Y2.5907
G01 X32.0308 Y2.5867
G01 X32.0664 Y2.5840
G01 X32.0936 Y2.5840
G01 X32.1274 Y2.5865
G01 X32.1499 Y2.5896
G01 X32.1766 Y2.5949
G01 X32.1969 Y2.6001
G01 X32.2308 Y2.6113
G01 X32.2559 Y2.6217
G01 X32.2878 Y2.6378
G01 X32.3111 Y2.6518
G01 X32.3357 Y2.6688
G01 X32.3552 Y2.6843
G01 X32.3722 Y2.6994
G01 X32.6343 Y2.9612
G01 X33.0987 Y3.1535
G01 X33.6013 Y3.1535
G01 X34.0657 Y2.9612
G01 X34.3233 Y2.7037
G01 X34.3434 Y2.6855
G01 X34.3716 Y2.6635
G01 X34.3942 Y2.6484
G01 X34.4252 Y2.6308
G01 X34.4441 Y2.6217
G01 X34.4692 Y2.6113
G01 X34.5031 Y2.6001
G01 X34.5295 Y2.5935
G01 X34.5646 Y2.5874
G01 X34.5917 Y2.5848
G01 X34.6200 Y2.5838
G01 X34.6545 Y2.5852
G01 X34.6899 Y2.5896
G01 X34.7166 Y2.5949
G01 X34.7369 Y2.6001
G01 X34.7708 Y2.6113
G01 X34.7959 Y2.6217
G01 X34.8278 Y2.6378
G01 X34.8511 Y2.6518
G01 X34.8757 Y2.6688
G01 X34.8952 Y2.6843
G01 X34.9122 Y2.6994
G01 X35.1743 Y2.9612
G01 X35.6387 Y3.1535
G01 X36.1413 Y3.1535
G01 X36.6057 Y2.9612
G01 X36.8633 Y2.7037
G01 X36.8834 Y2.6855
G01 X36.9116 Y2.6635
G01 X36.9342 Y2.6484
G01 X36.9652 Y2.6308
G01 X36.9841 Y2.6217
G01 X37.0092 Y2.6113
G01 X37.0431 Y2.6001
G01 X37.0634 Y2.5949
G01 X37.0901 Y2.5896
G01 X37.1255 Y2.5852
G01 X37.1600 Y2.5838
G01 X37.1883 Y2.5848
G01 X37.2154 Y2.5874
G01 X37.2505 Y2.5935
G01 X37.2769 Y2.6001
G01 X37.3108 Y2.6113
G01 X37.3359 Y2.6217
G01 X37.3678 Y2.6378
G01 X37.3911 Y2.6518
G01 X37.4157 Y2.6688
G01 X37.4352 Y2.6843
G01 X37.4522 Y2.6994
G01 X37.7143 Y2.9612
G01 X38.1787 Y3.1535
G01 X38.6813 Y3.1535
G01 X39.1457 Y2.9612
G01 X39.3980 Y2.7089
G01 X39.4187 Y2.6896
G01 X39.4443 Y2.6688
G01 X39.4689 Y2.6518
G01 X39.4922 Y2.6378
G01 X39.5115 Y2.6277
G01 X39.5400 Y2.6149
G01 X39.5631 Y2.6064
G01 X39.5891 Y2.5985
G01 X39.6164 Y2.5921
G01 X39.6508 Y2.5867
G01 X39.6864 Y2.5840
G01 X39.7136 Y2.5840
G01 X39.7474 Y2.5865
G01 X39.7761 Y2.5907
G01 X39.8109 Y2.5985
G01 X39.8369 Y2.6064
G01 X39.8702 Y2.6192
G01 X39.8948 Y2.6308
G01 X39.9246 Y2.6477
G01 X39.9433 Y2.6599
G01 X39.9652 Y2.6761
G01 X39.9922 Y2.6994
G01 X40.2543 Y2.9612
G01 X40.7187 Y3.1535
G01 X41.2213 Y3.1535
G01 X41.6857 Y2.9612
G01 X41.9380 Y2.7089
G01 X41.9587 Y2.6896
G01 X41.9843 Y2.6688
G01 X42.0142 Y2.6484
G01 X42.0452 Y2.6308
G01 X42.0800 Y2.6149
G01 X42.1031 Y2.6064
G01 X42.1231 Y2.6001
G01 X42.1434 Y2.5949
G01 X42.1701 Y2.5896
G01 X42.1908 Y2.5867
G01 X42.2264 Y2.5840
G01 X42.2474 Y2.5839
G01 X42.2683 Y2.5848
G01 X42.2954 Y2.5874
G01 X42.3161 Y2.5907
G01 X42.3366 Y2.5949
G01 X42.3569 Y2.6001
G01 X42.3769 Y2.6064
G01 X42.4000 Y2.6149
G01 X42.4285 Y2.6277
G01 X42.4478 Y2.6378
G01 X42.4646 Y2.6477
G01 X42.4833 Y2.6599
G01 X42.5003 Y2.6723
G01 X42.5213 Y2.6896
G01 X42.5420 Y2.7089
G01 X42.5850 Y2.7519
G01 X42.6084 Y2.7773
G01 X42.6216 Y2.7936
G01 X42.6339 Y2.8105
G01 X42.6530 Y2.8407
G01 X42.6630 Y2.8591
G01 X42.6721 Y2.8780
G01 X42.6789 Y2.8938
G01 X42.6875 Y2.9170
G01 X42.6937 Y2.9370
G01 X42.6990 Y2.9573
G01 X42.7043 Y2.9839
G01 X42.7086 Y3.0193
G01 X42.7101 Y3.0539
G01 X42.7098 Y3.4028
G01 X42.7086 Y3.4237
G01 X42.7064 Y3.4445
G01 X42.7032 Y3.4652
G01 X42.6944 Y3.5100
G01 X42.7565 Y3.8221
G01 X42.9333 Y4.0867
G01 X42.9712 Y4.1121
G01 X42.9881 Y4.1245
G01 X43.0091 Y4.1418
G01 X43.0298 Y4.1611
G01 X54.0061 Y15.1374
G01 X54.0255 Y15.1581
G01 X54.0389 Y15.1742
G01 X54.0515 Y15.1910
G01 X54.0633 Y15.2083
G01 X54.0742 Y15.2262
G01 X54.0842 Y15.2446
G01 X54.1001 Y15.2794
G01 X54.1087 Y15.3025
G01 X54.1149 Y15.3225
G01 X54.1201 Y15.3428
G01 X54.1244 Y15.3633
G01 X54.1276 Y15.3840
G01 X54.1298 Y15.4049
G01 X54.1310 Y15.4258
G01 X54.1311 Y15.4468
G01 X54.1298 Y15.4739
G01 X54.1276 Y15.4948
G01 X54.1230 Y15.5230
G01 X54.1165 Y15.5503
G01 X54.1087 Y15.5763
G01 X54.1001 Y15.5994
G01 X54.0874 Y15.6279
G01 X54.0742 Y15.6526
G01 X54.0633 Y15.6705
G01 X54.0427 Y15.6997
G01 X54.0255 Y15.7207
G01 X54.0061 Y15.7414
G01 X53.9854 Y15.7607
G01 X53.9644 Y15.7780
G01 X53.9353 Y15.7985
G01 X53.9174 Y15.8094
G01 X53.8989 Y15.8194
G01 X53.8744 Y15.8311
G01 X53.8549 Y15.8389
G01 X53.8351 Y15.8459
G01 X53.8150 Y15.8518
G01 X53.7947 Y15.8567
G01 X53.7741 Y15.8607
G01 X53.7533 Y15.8636
G01 X53.7325 Y15.8655
G01 X53.7042 Y15.8665
G01 X53.4187 Y15.8665
G01 X52.9543 Y16.0588
G01 X52.6967 Y16.3163
G01 X52.6766 Y16.3345
G01 X52.6484 Y16.3565
G01 X52.6258 Y16.3716
G01 X52.5948 Y16.3892
G01 X52.5759 Y16.3983
G01 X52.5508 Y16.4087
G01 X52.5169 Y16.4199
G01 X52.4905 Y16.4265
G01 X52.4554 Y16.4326
G01 X52.4283 Y16.4352
G01 X52.4000 Y16.4362
G01 X52.3655 Y16.4348
G01 X52.3301 Y16.4304
G01 X52.3034 Y16.4251
G01 X52.2831 Y16.4199
G01 X52.2492 Y16.4087
G01 X52.2241 Y16.3983
G01 X52.1922 Y16.3822
G01 X52.1689 Y16.3682
G01 X52.1443 Y16.3512
G01 X52.1248 Y16.3357
G01 X52.1078 Y16.3206
G01 X51.8457 Y16.0588
G01 X51.3813 Y15.8665
G01 X50.8787 Y15.8665
G01 X50.4143 Y16.0588
G01 X50.1567 Y16.3163
G01 X50.1366 Y16.3345
G01 X50.1203 Y16.3477
G01 X50.1033 Y16.3601
G01 X50.0732 Y16.3791
G01 X50.0485 Y16.3923
G01 X50.0200 Y16.4051
G01 X49.9910 Y16.4156
G01 X49.9566 Y16.4251
G01 X49.9299 Y16.4304
G01 X49.8945 Y16.4348
G01 X49.8600 Y16.4362
G01 X49.8255 Y16.4348
G01 X49.7901 Y16.4304
G01 X49.7634 Y16.4251
G01 X49.7290 Y16.4156
G01 X49.7000 Y16.4051
G01 X49.6715 Y16.3923
G01 X49.6468 Y16.3791
G01 X49.6167 Y16.3601
G01 X49.5848 Y16.3357
G01 X49.5633 Y16.3163
G01 X49.3057 Y16.0588
G01 X48.8413 Y15.8665
G01 X48.3387 Y15.8665
G01 X47.8743 Y16.0588
G01 X47.6167 Y16.3163
G01 X47.5966 Y16.3345
G01 X47.5803 Y16.3477
G01 X47.5633 Y16.3601
G01 X47.5332 Y16.3791
G01 X47.5085 Y16.3923
G01 X47.4800 Y16.4051
G01 X47.4510 Y16.4156
G01 X47.4166 Y16.4251
G01 X47.3899 Y16.4304
G01 X47.3545 Y16.4348
G01 X47.3200 Y16.4362
G01 X47.2855 Y16.4348
G01 X47.2501 Y16.4304
G01 X47.2234 Y16.4251
G01 X47.1890 Y16.4156
G01 X47.1600 Y16.4051
G01 X47.1315 Y16.3923
G01 X47.1068 Y16.3791
G01 X47.0767 Y16.3601
G01 X47.0448 Y16.3357
G01 X47.0233 Y16.3163
G01 X46.7657 Y16.0588
G01 X46.3013 Y15.8665
G01 X45.7987 Y15.8665
G01 X45.3343 Y16.0588
G01 X45.0767 Y16.3163
G01 X45.0566 Y16.3345
G01 X45.0403 Y16.3477
G01 X45.0233 Y16.3601
G01 X44.9932 Y16.3791
G01 X44.9685 Y16.3923
G01 X44.9400 Y16.4051
G01 X44.9110 Y16.4156
G01 X44.8766 Y16.4251
G01 X44.8499 Y16.4304
G01 X44.8145 Y16.4348
G01 X44.7800 Y16.4362
G01 X44.7455 Y16.4348
G01 X44.7101 Y16.4304
G01 X44.6834 Y16.4251
G01 X44.6490 Y16.4156
G01 X44.6200 Y16.4051
G01 X44.5915 Y16.3923
G01 X44.5668 Y16.3791
G01 X44.5367 Y16.3601
G01 X44.5048 Y16.3357
G01 X44.4833 Y16.3163
G01 X44.2257 Y16.0588
G01 X43.7613 Y15.8665
G01 X43.2587 Y15.8665
G01 X42.7943 Y16.0588
G01 X42.5367 Y16.3163
G01 X42.5166 Y16.3345
G01 X42.5003 Y16.3477
G01 X42.4833 Y16.3601
G01 X42.4532 Y16.3791
G01 X42.4285 Y16.3923
G01 X42.4000 Y16.4051
G01 X42.3710 Y16.4156
G01 X42.3366 Y16.4251
G01 X42.3099 Y16.4304
G01 X42.2745 Y16.4348
G01 X42.2400 Y16.4362
G01 X42.2055 Y16.4348
G01 X42.1701 Y16.4304
G01 X42.1434 Y16.4251
G01 X42.1090 Y16.4156
G01 X42.0800 Y16.4051
G01 X42.0515 Y16.3923
G01 X42.0268 Y16.3791
G01 X41.9967 Y16.3601
G01 X41.9648 Y16.3357
G01 X41.9433 Y16.3163
G01 X41.6857 Y16.0588
G01 X41.2213 Y15.8665
G01 X40.7187 Y15.8665
G01 X40.2543 Y16.0588
G01 X39.9967 Y16.3163
G01 X39.9766 Y16.3345
G01 X39.9603 Y16.3477
G01 X39.9433 Y16.3601
G01 X39.9132 Y16.3791
G01 X39.8885 Y16.3923
G01 X39.8600 Y16.4051
G01 X39.8310 Y16.4156
G01 X39.7966 Y16.4251
G01 X39.7699 Y16.4304
G01 X39.7345 Y16.4348
G01 X39.7000 Y16.4362
G01 X39.6655 Y16.4348
G01 X39.6301 Y16.4304
G01 X39.6034 Y16.4251
G01 X39.5690 Y16.4156
G01 X39.5400 Y16.4051
G01 X39.5115 Y16.3923
G01 X39.4868 Y16.3791
G01 X39.4567 Y16.3601
G01 X39.4248 Y16.3357
G01 X39.4033 Y16.3163
G01 X39.1457 Y16.0588
G01 X38.6813 Y15.8665
G01 X38.1787 Y15.8665
G01 X37.7143 Y16.0588
G01 X37.4522 Y16.3206
G01 X37.4252 Y16.3439
G01 X37.4033 Y16.3601
G01 X37.3858 Y16.3716
G01 X37.3548 Y16.3892
G01 X37.3302 Y16.4008
G01 X37.2969 Y16.4136
G01 X37.2769 Y16.4199
G01 X37.2566 Y16.4251
G01 X37.2299 Y16.4304
G01 X37.1945 Y16.4348
G01 X37.1600 Y16.4362
G01 X37.1255 Y16.4348
G01 X37.1046 Y16.4326
G01 X37.0839 Y16.4293
G01 X37.0491 Y16.4215
G01 X37.0290 Y16.4156
G01 X37.0092 Y16.4087
G01 X36.9715 Y16.3923
G01 X36.9354 Y16.3723
G01 X36.9043 Y16.3512
G01 X36.8787 Y16.3304
G01 X36.8580 Y16.3111
G01 X36.8099 Y16.2628
G01 X36.7916 Y16.2427
G01 X36.7784 Y16.2264
G01 X36.7661 Y16.2095
G01 X36.7470 Y16.1793
G01 X36.7338 Y16.1546
G01 X36.7175 Y16.1169
G01 X36.7063 Y16.0830
G01 X36.6982 Y16.0498
G01 X36.6936 Y16.0215
G01 X36.6909 Y15.9944
G01 X36.6899 Y15.9661
G01 X36.6899 Y13.4408
G01 X36.6909 Y13.4125
G01 X36.6936 Y13.3855
G01 X36.6968 Y13.3648
G01 X36.7056 Y13.3200
G01 X36.6435 Y13.0079
G01 X36.4667 Y12.7433
G01 X36.4165 Y12.7090
G01 X36.3970 Y12.6935
G01 X36.3800 Y12.6783
G01 X36.2211 Y12.5198
G01 X36.2018 Y12.4991
G01 X36.1845 Y12.4781
G01 X36.1721 Y12.4612
G01 X36.1467 Y12.4233
G01 X35.8821 Y12.2465
G01 X35.5700 Y12.1844
G01 X35.5252 Y12.1932
G01 X35.5045 Y12.1964
G01 X35.4775 Y12.1991
G01 X35.4492 Y12.2001
G01 X15.1208 Y12.2001
G01 X15.0925 Y12.1991
G01 X15.0655 Y12.1964
G01 X15.0448 Y12.1932
G01 X15.0000 Y12.1844
G01 X14.6879 Y12.2465
G01 X14.4233 Y12.4233
G01 X14.3979 Y12.4612
G01 X14.3855 Y12.4781
G01 X14.3682 Y12.4991
G01 X14.3489 Y12.5198
G01 X11.9285 Y14.9401
G01 X11.9083 Y14.9584
G01 X11.8802 Y14.9803
G01 X11.8629 Y14.9921
G01 X11.8450 Y15.0030
G01 X11.8210 Y15.0158
G01 X11.7918 Y15.0289
G01 X11.7628 Y15.0395
G01 X11.7284 Y15.0490
G01 X11.7017 Y15.0543
G01 X11.6663 Y15.0586
G01 X11.6318 Y15.0601
G01 X1.2959 Y15.0601
G01 X1.2676 Y15.0591
G01 X1.2405 Y15.0564
G01 X1.2198 Y15.0532
G01 X1.1750 Y15.0444
G01 X0.9719 Y15.0845
G01 X0.9512 Y15.0875
G01 X0.9303 Y15.0894
G01 X0.9094 Y15.0902
G01 X0.8884 Y15.0901
G01 X0.8675 Y15.0889
G01 X0.8466 Y15.0867
G01 X0.8259 Y15.0835
G01 X0.8054 Y15.0792
G01 X0.7851 Y15.0740
G01 X0.7651 Y15.0678
G01 X0.7420 Y15.0592
G01 X0.7261 Y15.0524
G01 X0.7072 Y15.0433
G01 X0.6888 Y15.0333
G01 X0.6587 Y15.0142
G01 X0.6268 Y14.9898
G01 X0.6098 Y14.9747
G01 X0.5949 Y14.9600
G01 X0.5807 Y14.9445
G01 X0.5673 Y14.9284
G01 X0.5547 Y14.9117
G01 X0.5429 Y14.8944
G01 X0.5320 Y14.8765
G01 X0.5220 Y14.8580
G01 X0.5061 Y14.8233
G01 X0.4975 Y14.8002
G01 X0.4913 Y14.7802
G01 X0.4832 Y14.7469
G01 X0.4778 Y14.7124
G01 X0.4759 Y14.6916
G01 X0.4749 Y14.6633
G00 Z1.0000
G00 X0.4749 Y15.8526
G01 F50.00
G01 Z-0.1000
G01 F150.00
G01 X0.4761 Y15.8183
G01 X0.4788 Y15.7858
G01 X0.4836 Y15.7500
G01 X0.4883 Y15.7231
G01 X0.4941 Y15.6970
G01 X0.5029 Y15.6638
G01 X0.5133 Y15.6311
G01 X0.5267 Y15.5954
G01 X0.5390 Y15.5673
G01 X0.5541 Y15.5365
G01 X0.5707 Y15.5064
G01 X0.5888 Y15.4772
G01 X0.6083 Y15.4489
G01 X0.6291 Y15.4215
G01 X0.6513 Y15.3953
G01 X0.6748 Y15.3702
G01 X0.6994 Y15.3462
G01 X0.7252 Y15.3235
G01 X0.7639 Y15.2933
G01 X0.7922 Y15.2738
G01 X0.8214 Y15.2557
G01 X0.8515 Y15.2391
G01 X0.8823 Y15.2240
G01 X0.9104 Y15.2117
G01 X0.9461 Y15.1983
G01 X0.9788 Y15.1879
G01 X1.0120 Y15.1791
G01 X1.0381 Y15.1733
G01 X1.0650 Y15.1685
G01 X1.0991 Y15.1640
G01 X1.1333 Y15.1611
G01 X1.1750 Y15.1598
G01 X11.8500 Y15.1598
G01 X14.5049 Y12.5049
G01 X14.5244 Y12.4862
G01 X14.5615 Y12.4541
G01 X14.5816 Y12.4386
G01 X14.6049 Y12.4220
G01 X14.6338 Y12.4033
G01 X14.6635 Y12.3860
G01 X14.7073 Y12.3640
G01 X14.7354 Y12.3517
G01 X14.7711 Y12.3383
G01 X14.8227 Y12.3227
G01 X14.8706 Y12.3119
G01 X14.9241 Y12.3040
G01 X14.9583 Y12.3011
G01 X15.0000 Y12.2998
G01 X35.5700 Y12.2998
G01 X35.5970 Y12.3004
G01 X35.6442 Y12.3038
G01 X35.6800 Y12.3085
G01 X35.7069 Y12.3133
G01 X35.7330 Y12.3191
G01 X35.7662 Y12.3279
G01 X35.8128 Y12.3433
G01 X35.8447 Y12.3560
G01 X35.8753 Y12.3699
G01 X35.9236 Y12.3957
G01 X35.9651 Y12.4220
G01 X35.9884 Y12.4386
G01 X36.0184 Y12.4623
G01 X36.0456 Y12.4862
G01 X36.0651 Y12.5049
G01 X36.3851 Y12.8249
G01 X36.4038 Y12.8444
G01 X36.4265 Y12.8702
G01 X36.4514 Y12.9016
G01 X36.4680 Y12.9249
G01 X36.4943 Y12.9664
G01 X36.5109 Y12.9965
G01 X36.5260 Y13.0273
G01 X36.5383 Y13.0554
G01 X36.5517 Y13.0911
G01 X36.5621 Y13.1238
G01 X36.5752 Y13.1762
G01 X36.5836 Y13.2246
G01 X36.5889 Y13.2783
G01 X36.5902 Y13.3200
G01 X36.5902 Y16.2008
G01 X36.6324 Y16.2341
G01 X36.6659 Y16.2630
G01 X36.7075 Y16.3021
G01 X36.7570 Y16.3541
G01 X36.7941 Y16.3976
G01 X36.8289 Y16.4428
G01 X36.8533 Y16.4775
G01 X36.8842 Y16.5255
G01 X36.9127 Y16.5750
G01 X36.9390 Y16.6266
G01 X36.9664 Y16.6881
G01 X36.9880 Y16.7450
G01 X37.0013 Y16.7852
G01 X37.0169 Y16.8401
G01 X37.0312 Y16.9027
G01 X37.0420 Y16.9666
G01 X37.0486 Y17.0233
G01 X37.0517 Y17.0656
G01 X37.0535 Y17.1226
G01 X37.0525 Y17.1797
G01 X37.0474 Y17.2496
G01 X37.0398 Y17.3080
G01 X37.0312 Y17.3573
G01 X37.0204 Y17.4056
G01 X37.0055 Y17.4607
G01 X36.9830 Y17.5289
G01 X36.9664 Y17.5719
G01 X36.9390 Y17.6334
G01 X36.9196 Y17.6720
G01 X36.8918 Y17.7218
G01 X36.8533 Y17.7825
G01 X36.8237 Y17.8244
G01 X36.7859 Y17.8724
G01 X36.7570 Y17.9059
G01 X36.7179 Y17.9475
G01 X36.6659 Y17.9970
G01 X36.6224 Y18.0341
G01 X36.5844 Y18.0637
G01 X36.5425 Y18.0933
G01 X36.4945 Y18.1242
G01 X36.4320 Y18.1596
G01 X36.3808 Y18.1849
G01 X36.3319 Y18.2064
G01 X36.2889 Y18.2230
G01 X36.2348 Y18.2413
G01 X36.1656 Y18.2604
G01 X36.1173 Y18.2712
G01 X36.0680 Y18.2798
G01 X35.9967 Y18.2886
G01 X35.9397 Y18.2925
G01 X35.8900 Y18.2936
G01 X35.8403 Y18.2925
G01 X35.7833 Y18.2886
G01 X35.7120 Y18.2798
G01 X35.6627 Y18.2712
G01 X35.6144 Y18.2604
G01 X35.5593 Y18.2455
G01 X35.5050 Y18.2280
G01 X35.4379 Y18.2021
G01 X35.3866 Y18.1790
G01 X35.3350 Y18.1527
G01 X35.2867 Y18.1250
G01 X35.2497 Y18.1015
G01 X35.1910 Y18.0602
G01 X35.1476 Y18.0259
G01 X35.1141 Y17.9970
G01 X35.0672 Y17.9528
G01 X35.0328 Y17.9168
G01 X34.9859 Y17.8624
G01 X34.9563 Y17.8244
G01 X34.9267 Y17.7825
G01 X34.8958 Y17.7345
G01 X34.8673 Y17.6850
G01 X34.8410 Y17.6334
G01 X34.8179 Y17.5821
G01 X34.7920 Y17.5150
G01 X34.7745 Y17.4607
G01 X34.7596 Y17.4056
G01 X34.7488 Y17.3573
G01 X34.7402 Y17.3080
G01 X34.7328 Y17.2514
G01 X34.7283 Y17.1944
G01 X34.7264 Y17.1300
G01 X34.7275 Y17.0803
G01 X34.7328 Y17.0086
G01 X34.7402 Y16.9520
G01 X34.7503 Y16.8958
G01 X34.7631 Y16.8401
G01 X34.7787 Y16.7852
G01 X34.7970 Y16.7311
G01 X34.8136 Y16.6881
G01 X34.8351 Y16.6392
G01 X34.8604 Y16.5880
G01 X34.8958 Y16.5255
G01 X34.9267 Y16.4775
G01 X34.9563 Y16.4356
G01 X34.9941 Y16.3876
G01 X35.0230 Y16.3541
G01 X35.0672 Y16.3072
G01 X35.1032 Y16.2728
G01 X35.1462 Y16.2353
G01 X35.1898 Y16.2008
G01 X35.1898 Y13.7002
G01 X15.2900 Y13.7002
G01 X12.6351 Y16.3551
G01 X12.6156 Y16.3738
G01 X12.5785 Y16.4059
G01 X12.5511 Y16.4267
G01 X12.5062 Y16.4567
G01 X12.4635 Y16.4809
G01 X12.4453 Y16.4901
G01 X12.4147 Y16.5040
G01 X12.3689 Y16.5217
G01 X12.3173 Y16.5373
G01 X12.2838 Y16.5452
G01 X12.2500 Y16.5515
G01 X12.2159 Y16.5560
G01 X12.1817 Y16.5589
G01 X12.1400 Y16.5602
G01 X1.8752 Y16.5602
G01 X1.8752 Y48.1650
G01 X1.8900 Y48.1798
G01 X5.1687 Y48.1798
G01 X5.5986 Y47.7499
G01 X5.6290 Y47.7213
G01 X5.6552 Y47.6991
G01 X5.6825 Y47.6783
G01 X5.7274 Y47.6483
G01 X5.7701 Y47.6241
G01 X5.8010 Y47.6090
G01 X5.8291 Y47.5967
G01 X5.8509 Y47.5883
G01 X5.8834 Y47.5772
G01 X5.9164 Y47.5677
G01 X5.9568 Y47.5583
G01 X5.9837 Y47.5535
G01 X6.0177 Y47.5490
G01 X6.0520 Y47.5461
G01 X6.0937 Y47.5448
G01 X9.5608 Y47.5448
G01 X9.5941 Y47.5026
G01 X9.6230 Y47.4691
G01 X9.6621 Y47.4275
G01 X9.7141 Y47.3780
G01 X9.7576 Y47.3409
G01 X9.8028 Y47.3061
G01 X9.8375 Y47.2817
G01 X9.8855 Y47.2508
G01 X9.9350 Y47.2223
G01 X9.9866 Y47.1960
G01 X10.0481 Y47.1686
G01 X10.1050 Y47.1470
G01 X10.1593 Y47.1295
G01 X10.2144 Y47.1146
G01 X10.2702 Y47.1024
G01 X10.3120 Y47.0952
G01 X10.3686 Y47.0878
G01 X10.4256 Y47.0833
G01 X10.4900 Y47.0814
G01 X10.5544 Y47.0833
G01 X10.6096 Y47.0876
G01 X10.6680 Y47.0952
G01 X10.7173 Y47.1038
G01 X10.7656 Y47.1146
G01 X10.8207 Y47.1295
G01 X10.8750 Y47.1470
G01 X10.9319 Y47.1686
G01 X10.9808 Y47.1901
G01 X11.0320 Y47.2154
G01 X11.0818 Y47.2432
G01 X11.1303 Y47.2735
G01 X11.1844 Y47.3113
G01 X11.2224 Y47.3409
G01 X11.2659 Y47.3780
G01 X11.3128 Y47.4222
G01 X11.3570 Y47.4691
G01 X11.3941 Y47.5126
G01 X11.4236 Y47.5506
G01 X11.4615 Y47.6047
G01 X11.4918 Y47.6532
G01 X11.5196 Y47.7030
G01 X11.5449 Y47.7542
G01 X11.5664 Y47.8031
G01 X11.5880 Y47.8600
G01 X11.6055 Y47.9143
G01 X11.6204 Y47.9694
G01 X11.6312 Y48.0177
G01 X11.6398 Y48.0670
G01 X11.6472 Y48.1236
G01 X11.6517 Y48.1806
G01 X11.6536 Y48.2450
G01 X11.6517 Y48.3094
G01 X11.6474 Y48.3646
G01 X11.6420 Y48.4084
G01 X11.6326 Y48.4648
G01 X11.6169 Y48.5349
G01 X11.6013 Y48.5898
G01 X11.5830 Y48.6439
G01 X11.5664 Y48.6869
G01 X11.5390 Y48.7484
G01 X11.5127 Y48.8000
G01 X11.4850 Y48.8483
G01 X11.4533 Y48.8975
G01 X11.4236 Y48.9394
G01 X11.3859 Y48.9874
G01 X11.3570 Y49.0209
G01 X11.3128 Y49.0678
G01 X11.2768 Y49.1022
G01 X11.2224 Y49.1491
G01 X11.1844 Y49.1786
G01 X11.1425 Y49.2083
G01 X11.0945 Y49.2392
G01 X11.0450 Y49.2677
G01 X10.9934 Y49.2940
G01 X10.9421 Y49.3171
G01 X10.8750 Y49.3430
G01 X10.8207 Y49.3605
G01 X10.7656 Y49.3754
G01 X10.7173 Y49.3862
G01 X10.6534 Y49.3970
G01 X10.6114 Y49.4022
G01 X10.5544 Y49.4067
G01 X10.4900 Y49.4086
G01 X10.4256 Y49.4067
G01 X10.3704 Y49.4024
G01 X10.3266 Y49.3970
G01 X10.2627 Y49.3862
G01 X10.2001 Y49.3719
G01 X10.1593 Y49.3605
G01 X10.1050 Y49.3430
G01 X10.0481 Y49.3214
G01 X9.9866 Y49.2940
G01 X9.9480 Y49.2746
G01 X9.8982 Y49.2468
G01 X9.8375 Y49.2083
G01 X9.7910 Y49.1752
G01 X9.7476 Y49.1409
G01 X9.7141 Y49.1120
G01 X9.6672 Y49.0678
G01 X9.6230 Y49.0209
G01 X9.5953 Y48.9888
G01 X9.5608 Y48.9452
G01 X6.3837 Y48.9452
G01 X5.9538 Y49.3751
G01 X5.9234 Y49.4037
G01 X5.8971 Y49.4259
G01 X5.8771 Y49.4414
G01 X5.8415 Y49.4662
G01 X5.7952 Y49.4940
G01 X5.7640 Y49.5101
G01 X5.7233 Y49.5283
G01 X5.6876 Y49.5417
G01 X5.6359 Y49.5573
G01 X5.5956 Y49.5667
G01 X5.5541 Y49.5736
G01 X5.5004 Y49.5789
G01 X5.4587 Y49.5802
G01 X1.6000 Y49.5802
G01 X1.5730 Y49.5796
G01 X1.5258 Y49.5762
G01 X1.4900 Y49.5715
G01 X1.4631 Y49.5667
G01 X1.4227 Y49.5573
G01 X1.3711 Y49.5417
G01 X1.3253 Y49.5240
G01 X1.2947 Y49.5101
G01 X1.2765 Y49.5009
G01 X1.2350 Y49.4775
G01 X1.2172 Y49.4662
G01 X1.1889 Y49.4467
G01 X1.1516 Y49.4177
G01 X1.1353 Y49.4037
G01 X1.1102 Y49.3803
G01 X0.6799 Y48.9501
G01 X0.6612 Y48.9306
G01 X0.6385 Y48.9048
G01 X0.6136 Y48.8734
G01 X0.5970 Y48.8501
G01 X0.5783 Y48.8213
G01 X0.5610 Y48.7915
G01 X0.5449 Y48.7603
G01 X0.5310 Y48.7297
G01 X0.5183 Y48.6978
G01 X0.5072 Y48.6653
G01 X0.4941 Y48.6180
G01 X0.4883 Y48.5919
G01 X0.4814 Y48.5505
G01 X0.4775 Y48.5163
G01 X0.4754 Y48.4820
G01 X0.4748 Y48.4550
G01 X0.4749 Y15.8526
G00 Z1.0000
G00 X1.9749 Y21.0521
G01 F50.00
G01 Z-0.1000
G01 F150.00
G01 X1.9749 Y17.0870
G01 X1.9759 Y17.0587
G01 X1.9786 Y17.0316
G01 X1.9832 Y17.0034
G01 X1.9896 Y16.9761
G01 X1.9975 Y16.9501
G01 X2.0061 Y16.9270
G01 X2.0188 Y16.8985
G01 X2.0289 Y16.8792
G01 X2.0429 Y16.8559
G01 X2.0600 Y16.8313
G01 X2.0754 Y16.8118
G01 X2.0906 Y16.7948
G01 X2.1098 Y16.7756
G01 X2.1254 Y16.7616
G01 X2.1463 Y16.7449
G01 X2.1709 Y16.7279
G01 X2.1942 Y16.7139
G01 X2.2135 Y16.7038
G01 X2.2420 Y16.6911
G01 X2.2651 Y16.6825
G01 X2.2911 Y16.6746
G01 X2.3184 Y16.6682
G01 X2.3466 Y16.6636
G01 X2.3737 Y16.6609
G01 X2.4020 Y16.6599
G01 X12.0192 Y16.6599
G01 X12.0475 Y16.6609
G01 X12.0745 Y16.6636
G01 X12.0952 Y16.6668
G01 X12.1400 Y16.6756
G01 X12.4521 Y16.6135
G01 X12.7167 Y16.4367
G01 X12.7421 Y16.3988
G01 X12.7545 Y16.3819
G01 X12.7718 Y16.3609
G01 X12.7911 Y16.3402
G01 X15.2160 Y13.9156
G01 X15.2431 Y13.8923
G01 X15.2598 Y13.8797
G01 X15.2771 Y13.8679
G01 X15.3005 Y13.8539
G01 X15.3197 Y13.8438
G01 X15.3380 Y13.8353
G01 X15.3575 Y13.8275
G01 X15.3773 Y13.8205
G01 X15.4116 Y13.8110
G01 X15.4322 Y13.8068
G01 X15.4529 Y13.8036
G01 X15.4799 Y13.8009
G01 X15.5082 Y13.7999
G01 X34.6630 Y13.7999
G01 X34.6913 Y13.8009
G01 X34.7104 Y13.8026
G01 X34.7466 Y13.8082
G01 X34.7799 Y13.8163
G01 X34.8138 Y13.8275
G01 X34.8389 Y13.8379
G01 X34.8708 Y13.8539
G01 X34.8941 Y13.8679
G01 X34.9233 Y13.8884
G01 X34.9443 Y13.9057
G01 X34.9701 Y13.9303
G01 X34.9884 Y13.9504
G01 X35.0016 Y13.9667
G01 X35.0139 Y13.9837
G01 X35.0330 Y14.0138
G01 X35.0458 Y14.0378
G01 X35.0589 Y14.0670
G01 X35.0695 Y14.0960
G01 X35.0790 Y14.1304
G01 X35.0843 Y14.1571
G01 X35.0886 Y14.1925
G01 X35.0901 Y14.2270
G01 X35.0901 Y15.9661
G01 X35.0886 Y16.0007
G01 X35.0843 Y16.0361
G01 X35.0790 Y16.0627
G01 X35.0737 Y16.0830
G01 X35.0675 Y16.1030
G01 X35.0547 Y16.1363
G01 X35.0430 Y16.1609
G01 X35.0330 Y16.1793
G01 X35.0221 Y16.1972
G01 X35.0016 Y16.2264
G01 X34.9896 Y16.2413
G01 X34.9744 Y16.2583
G01 X34.9220 Y16.3111
G01 X34.9013 Y16.3304
G01 X34.8757 Y16.3512
G01 X34.8458 Y16.3716
G01 X34.8278 Y16.3822
G01 X34.8085 Y16.3923
G01 X34.7708 Y16.4087
G01 X34.7369 Y16.4199
G01 X34.7036 Y16.4279
G01 X34.6692 Y16.4333
G01 X34.6483 Y16.4352
G01 X34.6274 Y16.4361
G01 X34.6064 Y16.4360
G01 X34.5855 Y16.4348
G01 X34.5646 Y16.4326
G01 X34.5439 Y16.4293
G01 X34.5091 Y16.4215
G01 X34.4890 Y16.4156
G01 X34.4692 Y16.4087
G01 X34.4315 Y16.3923
G01 X34.4068 Y16.3791
G01 X34.3767 Y16.3601
G01 X34.3548 Y16.3439
G01 X34.3278 Y16.3206
G01 X34.0657 Y16.0588
G01 X33.6013 Y15.8665
G01 X33.0987 Y15.8665
G01 X32.6343 Y16.0588
G01 X32.3767 Y16.3163
G01 X32.3566 Y16.3345
G01 X32.3403 Y16.3477
G01 X32.3233 Y16.3601
G01 X32.2932 Y16.3791
G01 X32.2685 Y16.3923
G01 X32.2400 Y16.4051
G01 X32.2110 Y16.4156
G01 X32.1766 Y16.4251
G01 X32.1499 Y16.4304
G01 X32.1145 Y16.4348
G01 X32.0800 Y16.4362
G01 X32.0455 Y16.4348
G01 X32.0101 Y16.4304
G01 X31.9834 Y16.4251
G01 X31.9490 Y16.4156
G01 X31.9200 Y16.4051
G01 X31.8915 Y16.3923
G01 X31.8668 Y16.3791
G01 X31.8367 Y16.3601
G01 X31.8048 Y16.3357
G01 X31.7833 Y16.3163
G01 X31.5257 Y16.0588
G01 X31.0613 Y15.8665
G01 X30.5587 Y15.8665
G01 X30.0943 Y16.0588
G01 X29.8367 Y16.3163
G01 X29.8166 Y16.3345
G01 X29.8003 Y16.3477
G01 X29.7833 Y16.3601
G01 X29.7532 Y16.3791
G01 X29.7285 Y16.3923
G01 X29.7000 Y16.4051
G01 X29.6710 Y16.4156
G01 X29.6366 Y16.4251
G01 X29.6099 Y16.4304
G01 X29.5745 Y16.4348
G01 X29.5400 Y16.4362
G01 X29.5055 Y16.4348
G01 X29.4701 Y16.4304
G01 X29.4434 Y16.4251
G01 X29.4090 Y16.4156
G01 X29.3800 Y16.4051
G01 X29.3515 Y16.3923
G01 X29.3268 Y16.3791
G01 X29.2967 Y16.3601
G01 X29.2648 Y16.3357
G01 X29.2433 Y16.3163
G01 X28.9857 Y16.0588
G01 X28.5213 Y15.8665
G01 X28.0187 Y15.8665
G01 X27.5543 Y16.0588
G01 X27.2967 Y16.3163
G01 X27.2766 Y16.3345
G01 X27.2603 Y16.3477
G01 X27.2433 Y16.3601
G01 X27.2132 Y16.3791
G01 X27.1885 Y16.3923
G01 X27.1600 Y16.4051
G01 X27.1310 Y16.4156
G01 X27.0966 Y16.4251
G01 X27.0699 Y16.4304
G01 X27.0345 Y16.4348
G01 X27.0000 Y16.4362
G01 X26.9655 Y16.4348
G01 X26.9301 Y16.4304
G01 X26.9034 Y16.4251
G01 X26.8690 Y16.4156
G01 X26.8400 Y16.4051
G01 X26.8115 Y16.3923
G01 X26.7868 Y16.3791
G01 X26.7567 Y16.3601
G01 X26.7248 Y16.3357
G01 X26.7033 Y16.3163
G01 X26.4457 Y16.0588
G01 X25.9813 Y15.8665
G01 X25.4787 Y15.8665
G01 X25.0143 Y16.0588
G01 X24.7567 Y16.3163
G01 X24.7366 Y16.3345
G01 X24.7203 Y16.3477
G01 X24.7033 Y16.3601
G01 X24.6732 Y16.3791
G01 X24.6485 Y16.3923
G01 X24.6200 Y16.4051
G01 X24.5910 Y16.4156
G01 X24.5566 Y16.4251
G01 X24.5299 Y16.4304
G01 X24.4945 Y16.4348
G01 X24.4600 Y16.4362
G01 X24.4255 Y16.4348
G01 X24.3901 Y16.4304
G01 X24.3634 Y16.4251
G01 X24.3290 Y16.4156
G01 X24.3000 Y16.4051
G01 X24.2715 Y16.3923
G01 X24.2468 Y16.3791
G01 X24.2167 Y16.3601
G01 X24.1848 Y16.3357
G01 X24.1633 Y16.3163
G01 X23.9057 Y16.0588
G01 X23.4413 Y15.8665
G01 X22.9387 Y15.8665
G01 X22.4743 Y16.0588
G01 X22.1188 Y16.4143
G01 X21.9265 Y16.8787
G01 X21.9265 Y17.3813
G01 X22.1188 Y17.8457
G01 X22.4743 Y18.2012
G01 X22.9387 Y18.3935
G01 X23.4413 Y18.3935
G01 X23.9057 Y18.2012
G01 X24.1633 Y17.9437
G01 X24.1834 Y17.9255
G01 X24.1997 Y17.9123
G01 X24.2167 Y17.8999
G01 X24.2468 Y17.8809
G01 X24.2715 Y17.8677
G01 X24.3000 Y17.8549
G01 X24.3290 Y17.8444
G01 X24.3634 Y17.8349
G01 X24.3901 Y17.8296
G01 X24.4255 Y17.8252
G01 X24.4600 Y17.8238
G01 X24.4945 Y17.8252
G01 X24.5299 Y17.8296
G01 X24.5566 Y17.8349
G01 X24.5910 Y17.8444
G01 X24.6200 Y17.8549
G01 X24.6485 Y17.8677
G01 X24.6732 Y17.8809
G01 X24.7033 Y17.8999
G01 X24.7352 Y17.9243
G01 X24.7567 Y17.9437
G01 X25.0143 Y18.2012
G01 X25.4787 Y18.3935
G01 X25.9813 Y18.3935
G01 X26.4457 Y18.2012
G01 X26.7033 Y17.9437
G01 X26.7234 Y17.9255
G01 X26.7397 Y17.9123
G01 X26.7567 Y17.8999
G01 X26.7868 Y17.8809
G01 X26.8115 Y17.8677
G01 X26.8400 Y17.8549
G01 X26.8690 Y17.8444
G01 X26.9034 Y17.8349
G01 X26.9301 Y17.8296
G01 X26.9655 Y17.8252
G01 X27.0000 Y17.8238
G01 X27.0345 Y17.8252
G01 X27.0699 Y17.8296
G01 X27.0966 Y17.8349
G01 X27.1310 Y17.8444
G01 X27.1600 Y17.8549
G01 X27.1885 Y17.8677
G01 X27.2132 Y17.8809
G01 X27.2433 Y17.8999
G01 X27.2752 Y17.9243
G01 X27.2967 Y17.9437
G01 X27.5543 Y18.2012
G01 X28.0187 Y18.3935
G01 X28.5213 Y18.3935
G01 X28.9857 Y18.2012
G01 X29.2433 Y17.9437
G01 X29.2634 Y17.9255
G01 X29.2797 Y17.9123
G01 X29.2967 Y17.8999
G01 X29.3268 Y17.8809
G01 X29.3515 Y17.8677
G01 X29.3800 Y17.8549
G01 X29.4090 Y17.8444
G01 X29.4434 Y17.8349
G01 X29.4701 Y17.8296
G01 X29.5055 Y17.8252
G01 X29.5400 Y17.8238
G01 X29.5745 Y17.8252
G01 X29.6099 Y17.8296
G01 X29.6366 Y17.8349
G01 X29.6710 Y17.8444
G01 X29.7000 Y17.8549
G01 X29.7285 Y17.8677
G01 X29.7532 Y17.8809
G01 X29.7833 Y17.8999
G01 X29.8152 Y17.9243
G01 X29.8367 Y17.9437
G01 X30.0943 Y18.2012
G01 X30.5587 Y18.3935
G01 X31.0613 Y18.3935
G01 X31.5257 Y18.2012
G01 X31.7833 Y17.9437
G01 X31.8034 Y17.9255
G01 X31.8197 Y17.9123
G01 X31.8367 Y17.8999
G01 X31.8668 Y17.8809
G01 X31.8915 Y17.8677
G01 X31.9200 Y17.8549
G01 X31.9490 Y17.8444
G01 X31.9834 Y17.8349
G01 X32.0101 Y17.8296
G01 X32.0455 Y17.8252
G01 X32.0800 Y17.8238
G01 X32.1145 Y17.8252
G01 X32.1499 Y17.8296
G01 X32.1766 Y17.8349
G01 X32.2110 Y17.8444
G01 X32.2400 Y17.8549
G01 X32.2685 Y17.8677
G01 X32.2932 Y17.8809
G01 X32.3233 Y17.8999
G01 X32.3552 Y17.9243
G01 X32.3767 Y17.9437
G01 X32.6343 Y18.2012
G01 X33.0987 Y18.3935
G01 X33.6013 Y18.3935
G01 X34.0657 Y18.2012
G01 X34.3233 Y17.9437
G01 X34.3434 Y17.9255
G01 X34.3597 Y17.9123
G01 X34.3767 Y17.8999
G01 X34.4068 Y17.8809
G01 X34.4315 Y17.8677
G01 X34.4600 Y17.8549
G01 X34.4890 Y17.8444
G01 X34.5234 Y17.8349
G01 X34.5501 Y17.8296
G01 X34.5855 Y17.8252
G01 X34.6200 Y17.8238
G01 X34.6545 Y17.8252
G01 X34.6899 Y17.8296
G01 X34.7166 Y17.8349
G01 X34.7510 Y17.8444
G01 X34.7800 Y17.8549
G01 X34.8085 Y17.8677
G01 X34.8332 Y17.8809
G01 X34.8633 Y17.8999
G01 X34.8952 Y17.9243
G01 X34.9167 Y17.9437
G01 X35.1743 Y18.2012
G01 X35.6387 Y18.3935
G01 X36.1413 Y18.3935
G01 X36.6057 Y18.2012
G01 X36.8678 Y17.9394
G01 X36.8834 Y17.9255
G01 X36.9043 Y17.9088
G01 X36.9289 Y17.8918
G01 X36.9522 Y17.8778
G01 X36.9841 Y17.8617
G01 X37.0092 Y17.8513
G01 X37.0431 Y17.8401
G01 X37.0634 Y17.8349
G01 X37.0901 Y17.8296
G01 X37.1108 Y17.8267
G01 X37.1464 Y17.8240
G01 X37.1674 Y17.8239
G01 X37.1945 Y17.8252
G01 X37.2299 Y17.8296
G01 X37.2566 Y17.8349
G01 X37.2910 Y17.8444
G01 X37.3200 Y17.8549
G01 X37.3485 Y17.8677
G01 X37.3732 Y17.8809
G01 X37.4033 Y17.8999
G01 X37.4352 Y17.9243
G01 X37.4567 Y17.9437
G01 X37.7143 Y18.2012
G01 X38.1787 Y18.3935
G01 X38.7655 Y18.3935
G01 X38.7938 Y18.3945
G01 X38.8129 Y18.3962
G01 X38.8354 Y18.3993
G01 X38.8560 Y18.4033
G01 X38.8764 Y18.4082
G01 X38.8965 Y18.4141
G01 X38.9162 Y18.4211
G01 X38.9540 Y18.4374
G01 X38.9732 Y18.4475
G01 X38.9966 Y18.4615
G01 X39.0212 Y18.4785
G01 X39.0420 Y18.4952
G01 X39.0622 Y18.5135
G01 X39.0769 Y18.5284
G01 X39.1002 Y18.5554
G01 X39.1164 Y18.5773
G01 X39.1355 Y18.6074
G01 X39.1483 Y18.6314
G01 X39.1614 Y18.6606
G01 X39.1700 Y18.6837
G01 X39.1779 Y18.7097
G01 X39.1843 Y18.7370
G01 X39.1889 Y18.7652
G01 X39.1916 Y18.7923
G01 X39.1924 Y18.8132
G01 X39.1923 Y18.8342
G01 X39.1911 Y18.8551
G01 X39.1889 Y18.8760
G01 X39.1857 Y18.8967
G01 X39.1814 Y18.9172
G01 X39.1762 Y18.9375
G01 X39.1700 Y18.9575
G01 X39.1614 Y18.9806
G01 X39.1546 Y18.9965
G01 X39.1455 Y19.0154
G01 X39.1287 Y19.0452
G01 X39.1164 Y19.0639
G01 X39.1040 Y19.0809
G01 X39.0921 Y19.0958
G01 X39.0769 Y19.1128
G01 X38.1751 Y20.0150
G01 X38.1544 Y20.0343
G01 X38.1288 Y20.0551
G01 X38.1042 Y20.0721
G01 X38.0808 Y20.0861
G01 X38.0616 Y20.0962
G01 X38.0331 Y20.1089
G01 X38.0041 Y20.1195
G01 X37.9697 Y20.1290
G01 X37.9430 Y20.1343
G01 X37.9076 Y20.1386
G01 X37.8731 Y20.1401
G01 X30.9308 Y20.1401
G01 X30.9025 Y20.1391
G01 X30.8755 Y20.1364
G01 X30.8548 Y20.1332
G01 X30.8100 Y20.1244
G01 X30.4979 Y20.1865
G01 X30.2333 Y20.3633
G01 X30.2079 Y20.4012
G01 X30.1955 Y20.4181
G01 X30.1782 Y20.4391
G01 X30.1589 Y20.4598
G01 X27.6192 Y22.9992
G01 X27.6036 Y23.0131
G01 X27.5873 Y23.0263
G01 X27.5581 Y23.0469
G01 X27.5348 Y23.0608
G01 X27.5155 Y23.0710
G01 X27.4972 Y23.0794
G01 X27.4639 Y23.0923
G01 X27.4439 Y23.0985
G01 X27.4236 Y23.1037
G01 X27.3969 Y23.1090
G01 X27.3762 Y23.1120
G01 X27.3553 Y23.1139
G01 X27.3270 Y23.1148
G01 X27.2987 Y23.1139
G01 X27.2716 Y23.1112
G01 X27.2434 Y23.1066
G01 X27.2161 Y23.1001
G01 X27.1901 Y23.0923
G01 X27.1568 Y23.0794
G01 X27.1322 Y23.0678
G01 X27.1024 Y23.0510
G01 X27.0837 Y23.0387
G01 X27.0618 Y23.0225
G01 X27.0348 Y22.9992
G01 X27.0156 Y22.9800
G01 X26.9923 Y22.9529
G01 X26.9761 Y22.9311
G01 X26.9646 Y22.9136
G01 X26.9470 Y22.8825
G01 X26.9311 Y22.8478
G01 X26.9205 Y22.8187
G01 X26.9146 Y22.7986
G01 X26.9097 Y22.7783
G01 X26.9036 Y22.7431
G01 X26.9009 Y22.7161
G01 X26.8999 Y22.6878
G01 X26.8999 Y22.6221
G01 X26.6107 Y21.9238
G01 X26.0762 Y21.3893
G01 X25.3779 Y21.1001
G01 X24.6221 Y21.1001
G01 X23.9238 Y21.3893
G01 X23.3893 Y21.9238
G01 X23.1001 Y22.6221
G01 X23.0998 Y22.7994
G01 X23.0974 Y22.8332
G01 X23.0918 Y22.8694
G01 X23.0854 Y22.8967
G01 X23.0795 Y22.9168
G01 X23.0725 Y22.9365
G01 X23.0647 Y22.9560
G01 X23.0562 Y22.9743
G01 X23.0461 Y22.9935
G01 X23.0362 Y23.0104
G01 X23.0239 Y23.0291
G01 X23.0116 Y23.0460
G01 X22.9943 Y23.0670
G01 X22.9750 Y23.0877
G01 X22.9543 Y23.1071
G01 X22.9333 Y23.1243
G01 X22.9163 Y23.1367
G01 X22.8988 Y23.1482
G01 X22.8678 Y23.1658
G01 X22.8489 Y23.1749
G01 X22.8238 Y23.1853
G01 X22.7899 Y23.1965
G01 X22.7696 Y23.2017
G01 X22.7429 Y23.2070
G01 X22.7222 Y23.2100
G01 X22.7013 Y23.2119
G01 X22.6730 Y23.2128
G01 X22.6447 Y23.2119
G01 X22.6256 Y23.2102
G01 X22.5894 Y23.2046
G01 X22.5561 Y23.1965
G01 X22.5361 Y23.1903
G01 X22.5130 Y23.1817
G01 X22.4782 Y23.1658
G01 X22.4598 Y23.1558
G01 X22.4419 Y23.1449
G01 X22.4127 Y23.1243
G01 X22.3978 Y23.1123
G01 X22.3808 Y23.0972
G01 X21.0131 Y21.7298
G01 X20.9938 Y21.7091
G01 X20.9765 Y21.6881
G01 X20.9641 Y21.6712
G01 X20.9387 Y21.6333
G01 X20.6741 Y21.4565
G01 X20.3620 Y21.3944
G01 X20.3172 Y21.4032
G01 X20.2965 Y21.4064
G01 X20.2695 Y21.4091
G01 X20.2412 Y21.4101
G01 X2.9908 Y21.4101
G01 X2.9625 Y21.4091
G01 X2.9355 Y21.4064
G01 X2.9148 Y21.4032
G01 X2.8700 Y21.3944
G01 X2.4781 Y21.4723
G01 X2.4574 Y21.4755
G01 X2.4365 Y21.4777
G01 X2.4156 Y21.4789
G01 X2.3946 Y21.4790
G01 X2.3546 Y21.4765
G01 X2.3321 Y21.4733
G01 X2.3115 Y21.4694
G01 X2.2911 Y21.4644
G01 X2.2710 Y21.4585
G01 X2.2512 Y21.4516
G01 X2.2318 Y21.4437
G01 X2.2135 Y21.4352
G01 X2.1942 Y21.4251
G01 X2.1774 Y21.4153
G01 X2.1587 Y21.4030
G01 X2.1268 Y21.3786
G01 X2.1000 Y21.3540
G01 X2.0807 Y21.3333
G01 X2.0673 Y21.3172
G01 X2.0547 Y21.3005
G01 X2.0429 Y21.2831
G01 X2.0320 Y21.2652
G01 X2.0220 Y21.2468
G01 X2.0061 Y21.2121
G01 X1.9975 Y21.1890
G01 X1.9913 Y21.1689
G01 X1.9832 Y21.1357
G01 X1.9778 Y21.1012
G01 X1.9759 Y21.0804
G01 X1.9749 Y21.0521
G00 Z1.0000
G00 X1.9749 Y22.3976
G01 F50.00
G01 Z-0.1000
G01 F150.00
G01 X1.9761 Y22.3633
G01 X1.9788 Y22.3308
G01 X1.9836 Y22.2950
G01 X1.9883 Y22.2681
G01 X1.9941 Y22.2420
G01 X2.0029 Y22.2088
G01 X2.0134 Y22.1761
G01 X2.0267 Y22.1404
G01 X2.0390 Y22.1123
G01 X2.0541 Y22.0814
G01 X2.0707 Y22.0514
G01 X2.0888 Y22.0221
G01 X2.1083 Y21.9938
G01 X2.1292 Y21.9665
G01 X2.1513 Y21.9403
G01 X2.1799 Y21.9099
G01 X2.3749 Y21.7149
G01 X2.3944 Y21.6962
G01 X2.4202 Y21.6735
G01 X2.4516 Y21.6486
G01 X2.4749 Y21.6320
G01 X2.5038 Y21.6133
G01 X2.5465 Y21.5891
G01 X2.5773 Y21.5740
G01 X2.6054 Y21.5617
G01 X2.6272 Y21.5533
G01 X2.6597 Y21.5422
G01 X2.7070 Y21.5291
G01 X2.7331 Y21.5233
G01 X2.7600 Y21.5185
G01 X2.7941 Y21.5140
G01 X2.8430 Y21.5104
G01 X2.8700 Y21.5098
G01 X20.3620 Y21.5098
G01 X20.4037 Y21.5111
G01 X20.4362 Y21.5138
G01 X20.4574 Y21.5164
G01 X20.4914 Y21.5219
G01 X20.5393 Y21.5327
G01 X20.5909 Y21.5483
G01 X20.6266 Y21.5617
G01 X20.6547 Y21.5740
G01 X20.6985 Y21.5960
G01 X20.7270 Y21.6125
G01 X20.7571 Y21.6320
G01 X20.7804 Y21.6486
G01 X20.8005 Y21.6641
G01 X20.8376 Y21.6962
G01 X20.8571 Y21.7149
G01 X24.0420 Y24.8998
G01 X25.8600 Y24.8998
G01 X30.3149 Y20.4449
G01 X30.3344 Y20.4262
G01 X30.3602 Y20.4035
G01 X30.3989 Y20.3733
G01 X30.4272 Y20.3538
G01 X30.4564 Y20.3357
G01 X30.5047 Y20.3099
G01 X30.5454 Y20.2917
G01 X30.5811 Y20.2783
G01 X30.6138 Y20.2679
G01 X30.6470 Y20.2591
G01 X30.6731 Y20.2533
G01 X30.7000 Y20.2485
G01 X30.7341 Y20.2440
G01 X30.7683 Y20.2411
G01 X30.8100 Y20.2398
G01 X38.0913 Y20.2398
G01 X40.2698 Y18.0613
G01 X40.2698 Y18.0592
G01 X40.2276 Y18.0259
G01 X40.1941 Y17.9970
G01 X40.1525 Y17.9579
G01 X40.1030 Y17.9059
G01 X40.0659 Y17.8624
G01 X40.0311 Y17.8172
G01 X40.0067 Y17.7825
G01 X39.9758 Y17.7345
G01 X39.9473 Y17.6850
G01 X39.9210 Y17.6334
G01 X39.8936 Y17.5719
G01 X39.8720 Y17.5150
G01 X39.8545 Y17.4607
G01 X39.8396 Y17.4056
G01 X39.8274 Y17.3498
G01 X39.8202 Y17.3080
G01 X39.8128 Y17.2514
G01 X39.8083 Y17.1944
G01 X39.8065 Y17.1374
G01 X39.8075 Y17.0803
G01 X39.8126 Y17.0104
G01 X39.8202 Y16.9520
G01 X39.8303 Y16.8958
G01 X39.8431 Y16.8401
G01 X39.8545 Y16.7993
G01 X39.8720 Y16.7450
G01 X39.8936 Y16.6881
G01 X39.9210 Y16.6266
G01 X39.9473 Y16.5750
G01 X39.9758 Y16.5255
G01 X39.9985 Y16.4897
G01 X40.0311 Y16.4428
G01 X40.0659 Y16.3976
G01 X40.1030 Y16.3541
G01 X40.1472 Y16.3072
G01 X40.1941 Y16.2630
G01 X40.2376 Y16.2259
G01 X40.2756 Y16.1963
G01 X40.3175 Y16.1667
G01 X40.3782 Y16.1282
G01 X40.4280 Y16.1004
G01 X40.4666 Y16.0810
G01 X40.5179 Y16.0579
G01 X40.5850 Y16.0320
G01 X40.6252 Y16.0187
G01 X40.6801 Y16.0031
G01 X40.7427 Y15.9888
G01 X40.8066 Y15.9780
G01 X40.8486 Y15.9728
G01 X40.9056 Y15.9683
G01 X40.9700 Y15.9664
G01 X41.0344 Y15.9683
G01 X41.0896 Y15.9726
G01 X41.1334 Y15.9780
G01 X41.1973 Y15.9888
G01 X41.2599 Y16.0031
G01 X41.3007 Y16.0145
G01 X41.3550 Y16.0320
G01 X41.4119 Y16.0536
G01 X41.4734 Y16.0810
G01 X41.5120 Y16.1004
G01 X41.5618 Y16.1282
G01 X41.6225 Y16.1667
G01 X41.6690 Y16.1998
G01 X41.7124 Y16.2341
G01 X41.7459 Y16.2630
G01 X41.7928 Y16.3072
G01 X41.8370 Y16.3541
G01 X41.8647 Y16.3862
G01 X41.9002 Y16.4310
G01 X41.9333 Y16.4775
G01 X41.9718 Y16.5382
G01 X41.9996 Y16.5880
G01 X42.0190 Y16.6266
G01 X42.0464 Y16.6881
G01 X42.0680 Y16.7450
G01 X42.0813 Y16.7852
G01 X42.0969 Y16.8401
G01 X42.1112 Y16.9027
G01 X42.1220 Y16.9666
G01 X42.1286 Y17.0233
G01 X42.1325 Y17.0803
G01 X42.1336 Y17.1300
G01 X42.1325 Y17.1797
G01 X42.1286 Y17.2367
G01 X42.1220 Y17.2934
G01 X42.1112 Y17.3573
G01 X42.0969 Y17.4199
G01 X42.0813 Y17.4748
G01 X42.0680 Y17.5150
G01 X42.0478 Y17.5685
G01 X42.0190 Y17.6334
G01 X41.9996 Y17.6720
G01 X41.9718 Y17.7218
G01 X41.9333 Y17.7825
G01 X41.9037 Y17.8244
G01 X41.8741 Y17.8624
G01 X41.8272 Y17.9168
G01 X41.7928 Y17.9528
G01 X41.7568 Y17.9872
G01 X41.7138 Y18.0247
G01 X41.6702 Y18.0592
G01 X41.6702 Y18.3513
G01 X41.6696 Y18.3783
G01 X41.6662 Y18.4255
G01 X41.6615 Y18.4613
G01 X41.6567 Y18.4882
G01 X41.6473 Y18.5286
G01 X41.6378 Y18.5616
G01 X41.6267 Y18.5941
G01 X41.6183 Y18.6159
G01 X41.6060 Y18.6440
G01 X41.5909 Y18.6749
G01 X41.5743 Y18.7049
G01 X41.5562 Y18.7342
G01 X41.5314 Y18.7697
G01 X41.5159 Y18.7898
G01 X41.4937 Y18.8160
G01 X41.4651 Y18.8464
G01 X38.8764 Y21.4351
G01 X38.8460 Y21.4637
G01 X38.8043 Y21.4979
G01 X38.7764 Y21.5180
G01 X38.7349 Y21.5443
G01 X38.6866 Y21.5701
G01 X38.6459 Y21.5883
G01 X38.6102 Y21.6017
G01 X38.5586 Y21.6173
G01 X38.5182 Y21.6267
G01 X38.4768 Y21.6336
G01 X38.4426 Y21.6375
G01 X38.3887 Y21.6401
G01 X31.1000 Y21.6402
G01 X26.6398 Y26.1003
G01 X26.5998 Y26.1365
G01 X26.5611 Y26.1667
G01 X26.5328 Y26.1862
G01 X26.5036 Y26.2043
G01 X26.4560 Y26.2297
G01 X26.4146 Y26.2483
G01 X26.3928 Y26.2567
G01 X26.3603 Y26.2678
G01 X26.3130 Y26.2809
G01 X26.2869 Y26.2867
G01 X26.2600 Y26.2915
G01 X26.2113 Y26.2975
G01 X26.1770 Y26.2996
G01 X26.1500 Y26.3002
G01 X23.7520 Y26.3002
G01 X23.7250 Y26.2996
G01 X23.6778 Y26.2962
G01 X23.6420 Y26.2915
G01 X23.6151 Y26.2867
G01 X23.5890 Y26.2809
G01 X23.5558 Y26.2721
G01 X23.5231 Y26.2617
G01 X23.4874 Y26.2483
G01 X23.4467 Y26.2301
G01 X23.4155 Y26.2140
G01 X23.3870 Y26.1975
G01 X23.3692 Y26.1862
G01 X23.3336 Y26.1614
G01 X23.3135 Y26.1459
G01 X23.2873 Y26.1237
G01 X23.2569 Y26.0951
G01 X20.0720 Y22.9102
G01 X3.3752 Y22.9102
G01 X3.3752 Y44.5850
G01 X3.7950 Y45.0048
G01 X9.5608 Y45.0048
G01 X9.5941 Y44.9626
G01 X9.6328 Y44.9182
G01 X9.6672 Y44.8822
G01 X9.7032 Y44.8478
G01 X9.7576 Y44.8009
G01 X9.7956 Y44.7713
G01 X9.8375 Y44.7417
G01 X9.8982 Y44.7032
G01 X9.9480 Y44.6754
G01 X9.9866 Y44.6560
G01 X10.0515 Y44.6272
G01 X10.0911 Y44.6120
G01 X10.1452 Y44.5937
G01 X10.2144 Y44.5746
G01 X10.2627 Y44.5638
G01 X10.3120 Y44.5552
G01 X10.3833 Y44.5464
G01 X10.4403 Y44.5425
G01 X10.4900 Y44.5414
G01 X10.5397 Y44.5425
G01 X10.5967 Y44.5464
G01 X10.6680 Y44.5552
G01 X10.7173 Y44.5638
G01 X10.7656 Y44.5746
G01 X10.8348 Y44.5937
G01 X10.8889 Y44.6120
G01 X10.9319 Y44.6286
G01 X10.9808 Y44.6501
G01 X11.0320 Y44.6754
G01 X11.0933 Y44.7100
G01 X11.1425 Y44.7417
G01 X11.1844 Y44.7713
G01 X11.2324 Y44.8091
G01 X11.2659 Y44.8380
G01 X11.3179 Y44.8875
G01 X11.3472 Y44.9182
G01 X11.3847 Y44.9612
G01 X11.4236 Y45.0106
G01 X11.4533 Y45.0525
G01 X11.4918 Y45.1132
G01 X11.5196 Y45.1630
G01 X11.5449 Y45.2142
G01 X11.5664 Y45.2631
G01 X11.5830 Y45.3061
G01 X11.6013 Y45.3602
G01 X11.6169 Y45.4151
G01 X11.6326 Y45.4852
G01 X11.6420 Y45.5416
G01 X11.6486 Y45.5983
G01 X11.6525 Y45.6553
G01 X11.6536 Y45.7050
G01 X11.6525 Y45.7547
G01 X11.6486 Y45.8117
G01 X11.6398 Y45.8830
G01 X11.6312 Y45.9323
G01 X11.6204 Y45.9806
G01 X11.6055 Y46.0357
G01 X11.5880 Y46.0900
G01 X11.5621 Y46.1571
G01 X11.5390 Y46.2084
G01 X11.5127 Y46.2600
G01 X11.4850 Y46.3083
G01 X11.4615 Y46.3453
G01 X11.4202 Y46.4040
G01 X11.3859 Y46.4474
G01 X11.3472 Y46.4918
G01 X11.3128 Y46.5278
G01 X11.2659 Y46.5720
G01 X11.2338 Y46.5997
G01 X11.1890 Y46.6352
G01 X11.1425 Y46.6683
G01 X11.0945 Y46.6992
G01 X11.0320 Y46.7346
G01 X10.9808 Y46.7599
G01 X10.9319 Y46.7814
G01 X10.8889 Y46.7980
G01 X10.8348 Y46.8163
G01 X10.7656 Y46.8354
G01 X10.7173 Y46.8462
G01 X10.6534 Y46.8570
G01 X10.6114 Y46.8622
G01 X10.5544 Y46.8667
G01 X10.4900 Y46.8686
G01 X10.4256 Y46.8667
G01 X10.3704 Y46.8624
G01 X10.3266 Y46.8570
G01 X10.2627 Y46.8462
G01 X10.2001 Y46.8319
G01 X10.1593 Y46.8205
G01 X10.1050 Y46.8030
G01 X10.0481 Y46.7814
G01 X9.9866 Y46.7540
G01 X9.9480 Y46.7346
G01 X9.8982 Y46.7068
G01 X9.8375 Y46.6683
G01 X9.7910 Y46.6352
G01 X9.7476 Y46.6009
G01 X9.7141 Y46.5720
G01 X9.6672 Y46.5278
G01 X9.6230 Y46.4809
G01 X9.5953 Y46.4488
G01 X9.5608 Y46.4052
G01 X3.5050 Y46.4052
G01 X3.4633 Y46.4039
G01 X3.4308 Y46.4012
G01 X3.3950 Y46.3965
G01 X3.3681 Y46.3917
G01 X3.3277 Y46.3823
G01 X3.2761 Y46.3667
G01 X3.2303 Y46.3490
G01 X3.1997 Y46.3351
G01 X3.1815 Y46.3259
G01 X3.1400 Y46.3025
G01 X3.1222 Y46.2912
G01 X3.0939 Y46.2717
G01 X3.0566 Y46.2427
G01 X3.0294 Y46.2188
G01 X3.0099 Y46.2001
G01 X2.1799 Y45.3701
G01 X2.1612 Y45.3506
G01 X2.1385 Y45.3249
G01 X2.1136 Y45.2934
G01 X2.0888 Y45.2579
G01 X2.0707 Y45.2286
G01 X2.0541 Y45.1986
G01 X2.0390 Y45.1677
G01 X2.0267 Y45.1396
G01 X2.0134 Y45.1039
G01 X1.9977 Y45.0523
G01 X1.9883 Y45.0119
G01 X1.9836 Y44.9850
G01 X1.9776 Y44.9363
G01 X1.9754 Y44.9020
G01 X1.9748 Y44.8750
G01 X1.9749 Y22.3976
G00 Z1.0000
G00 X3.4749 Y24.7076
G01 F50.00
G01 Z-0.1000
G01 F150.00
G01 X3.4761 Y24.6733
G01 X3.4788 Y24.6408
G01 X3.4836 Y24.6050
G01 X3.4883 Y24.5781
G01 X3.4941 Y24.5520
G01 X3.5029 Y24.5188
G01 X3.5134 Y24.4860
G01 X3.5268 Y24.4504
G01 X3.5390 Y24.4223
G01 X3.5541 Y24.3914
G01 X3.5707 Y24.3614
G01 X3.5888 Y24.3321
G01 X3.6083 Y24.3038
G01 X3.6292 Y24.2765
G01 X3.6513 Y24.2503
G01 X3.6748 Y24.2251
G01 X3.6994 Y24.2012
G01 X3.7252 Y24.1784
G01 X3.7639 Y24.1483
G01 X3.7922 Y24.1288
G01 X3.8214 Y24.1107
G01 X3.8515 Y24.0941
G01 X3.8824 Y24.0789
G01 X3.9105 Y24.0667
G01 X3.9461 Y24.0533
G01 X3.9788 Y24.0429
G01 X4.0121 Y24.0341
G01 X4.0381 Y24.0283
G01 X4.0796 Y24.0214
G01 X4.1137 Y24.0175
G01 X4.1480 Y24.0153
G01 X4.1750 Y24.0148
G01 X20.7456 Y24.0148
G01 X20.7726 Y24.0153
G01 X20.8069 Y24.0175
G01 X20.8556 Y24.0235
G01 X20.8825 Y24.0283
G01 X20.9229 Y24.0376
G01 X20.9746 Y24.0533
G01 X21.0102 Y24.0667
G01 X21.0383 Y24.0789
G01 X21.0822 Y24.1010
G01 X21.1107 Y24.1175
G01 X21.1407 Y24.1369
G01 X21.1640 Y24.1535
G01 X21.1841 Y24.1691
G01 X21.2213 Y24.2012
G01 X21.2408 Y24.2199
G01 X23.6107 Y26.5898
G01 X27.9786 Y26.5898
G01 X31.2736 Y23.2949
G01 X31.2931 Y23.2762
G01 X31.3302 Y23.2441
G01 X31.3503 Y23.2285
G01 X31.3736 Y23.2120
G01 X31.4151 Y23.1857
G01 X31.4634 Y23.1599
G01 X31.5041 Y23.1417
G01 X31.5259 Y23.1333
G01 X31.5584 Y23.1222
G01 X31.6057 Y23.1091
G01 X31.6318 Y23.1033
G01 X31.6587 Y23.0985
G01 X31.7074 Y23.0925
G01 X31.7417 Y23.0904
G01 X31.7687 Y23.0898
G01 X51.4400 Y23.0898
G01 X51.4817 Y23.0911
G01 X51.5142 Y23.0938
G01 X51.5354 Y23.0964
G01 X51.5694 Y23.1019
G01 X51.6172 Y23.1126
G01 X51.6689 Y23.1283
G01 X51.7046 Y23.1417
G01 X51.7327 Y23.1539
G01 X51.7765 Y23.1760
G01 X51.8050 Y23.1925
G01 X51.8351 Y23.2120
G01 X51.8584 Y23.2285
G01 X51.8784 Y23.2441
G01 X51.9156 Y23.2762
G01 X51.9351 Y23.2949
G01 X54.1703 Y25.5302
G01 X54.1937 Y25.5553
G01 X54.2159 Y25.5815
G01 X54.2367 Y25.6089
G01 X54.2562 Y25.6372
G01 X54.2743 Y25.6664
G01 X54.2909 Y25.6965
G01 X54.3060 Y25.7273
G01 X54.3183 Y25.7554
G01 X54.3317 Y25.7911
G01 X54.3421 Y25.8238
G01 X54.3509 Y25.8570
G01 X54.3567 Y25.8831
G01 X54.3615 Y25.9100
G01 X54.3660 Y25.9441
G01 X54.3689 Y25.9783
G01 X54.3702 Y26.0200
G01 X54.3702 Y29.8300
G01 X54.3689 Y29.8717
G01 X54.3662 Y29.9042
G01 X54.3615 Y29.9400
G01 X54.3567 Y29.9669
G01 X54.3509 Y29.9930
G01 X54.3421 Y30.0262
G01 X54.3267 Y30.0728
G01 X54.3140 Y30.1047
G01 X54.3001 Y30.1353
G01 X54.2743 Y30.1836
G01 X54.2480 Y30.2251
G01 X54.2314 Y30.2484
G01 X54.2077 Y30.2784
G01 X54.1937 Y30.2947
G01 X54.1703 Y30.3198
G01 X52.8951 Y31.5951
G01 X52.8647 Y31.6237
G01 X52.8385 Y31.6459
G01 X52.8184 Y31.6614
G01 X52.7828 Y31.6862
G01 X52.7365 Y31.7140
G01 X52.7053 Y31.7301
G01 X52.6646 Y31.7483
G01 X52.6428 Y31.7567
G01 X52.6103 Y31.7678
G01 X52.5773 Y31.7773
G01 X52.5294 Y31.7881
G01 X52.4954 Y31.7936
G01 X52.4613 Y31.7975
G01 X52.4270 Y31.7996
G01 X52.4000 Y31.8002
G01 X46.0500 Y31.8002
G01 X46.0230 Y31.7996
G01 X45.9758 Y31.7962
G01 X45.9400 Y31.7915
G01 X45.9131 Y31.7867
G01 X45.8870 Y31.7809
G01 X45.8538 Y31.7721
G01 X45.8211 Y31.7617
G01 X45.7753 Y31.7440
G01 X45.7447 Y31.7301
G01 X45.7265 Y31.7209
G01 X45.6850 Y31.6975
G01 X45.6549 Y31.6780
G01 X45.6316 Y31.6614
G01 X45.6115 Y31.6459
G01 X45.5853 Y31.6237
G01 X45.5549 Y31.5951
G01 X45.5263 Y31.5647
G01 X45.4921 Y31.5230
G01 X45.4720 Y31.4951
G01 X45.4457 Y31.4536
G01 X45.4203 Y31.4060
G01 X45.4060 Y31.3747
G01 X45.3883 Y31.3289
G01 X45.3779 Y31.2962
G01 X45.3691 Y31.2630
G01 X45.3633 Y31.2369
G01 X45.3585 Y31.2100
G01 X45.3540 Y31.1759
G01 X45.3504 Y31.1270
G01 X45.3498 Y31.1000
G01 X45.3498 Y28.2643
G01 X45.3339 Y28.2529
G01 X45.2945 Y28.2222
G01 X45.2387 Y28.1741
G01 X45.1963 Y28.1333
G01 X45.1659 Y28.1013
G01 X45.1271 Y28.0569
G01 X45.0871 Y28.0061
G01 X45.0482 Y27.9505
G01 X45.0246 Y27.9132
G01 X44.9952 Y27.8621
G01 X44.9681 Y27.8090
G01 X44.9400 Y27.7458
G01 X44.9178 Y27.6873
G01 X44.9039 Y27.6454
G01 X44.8878 Y27.5887
G01 X44.8731 Y27.5244
G01 X44.8620 Y27.4588
G01 X44.8566 Y27.4149
G01 X44.8519 Y27.3562
G01 X44.8500 Y27.2900
G01 X44.8519 Y27.2238
G01 X44.8564 Y27.1668
G01 X44.8642 Y27.1067
G01 X44.8731 Y27.0556
G01 X44.8843 Y27.0056
G01 X44.9039 Y26.9346
G01 X44.9178 Y26.8927
G01 X44.9386 Y26.8376
G01 X44.9684 Y26.7703
G01 X44.9952 Y26.7179
G01 X45.0238 Y26.6680
G01 X45.0482 Y26.6295
G01 X45.0818 Y26.5811
G01 X45.1259 Y26.5245
G01 X45.1560 Y26.4896
G01 X45.1963 Y26.4467
G01 X45.2496 Y26.3960
G01 X45.2831 Y26.3671
G01 X45.3293 Y26.3306
G01 X45.3895 Y26.2882
G01 X45.4268 Y26.2646
G01 X45.4779 Y26.2352
G01 X45.5310 Y26.2081
G01 X45.5840 Y26.1842
G01 X45.6527 Y26.1578
G01 X45.6946 Y26.1439
G01 X45.7513 Y26.1278
G01 X45.8156 Y26.1131
G01 X45.8667 Y26.1042
G01 X45.9251 Y26.0966
G01 X45.9838 Y26.0919
G01 X46.0500 Y26.0900
G01 X46.1015 Y26.0912
G01 X46.1603 Y26.0951
G01 X46.2188 Y26.1020
G01 X46.2844 Y26.1131
G01 X46.3344 Y26.1243
G01 X46.3913 Y26.1396
G01 X46.4473 Y26.1578
G01 X46.5058 Y26.1800
G01 X46.5690 Y26.2081
G01 X46.6221 Y26.2352
G01 X46.6720 Y26.2638
G01 X46.7228 Y26.2964
G01 X46.7661 Y26.3271
G01 X46.8155 Y26.3659
G01 X46.8613 Y26.4059
G01 X46.8985 Y26.4415
G01 X46.9440 Y26.4896
G01 X46.9822 Y26.5345
G01 X47.0129 Y26.5739
G01 X47.0518 Y26.6295
G01 X47.0830 Y26.6794
G01 X47.1117 Y26.7309
G01 X47.1379 Y26.7836
G01 X47.1600 Y26.8342
G01 X47.1822 Y26.8927
G01 X47.2004 Y26.9487
G01 X47.2157 Y27.0056
G01 X47.2269 Y27.0556
G01 X47.2358 Y27.1067
G01 X47.2449 Y27.1797
G01 X47.2481 Y27.2238
G01 X47.2499 Y27.2826
G01 X47.2481 Y27.3562
G01 X47.2436 Y27.4132
G01 X47.2380 Y27.4588
G01 X47.2269 Y27.5244
G01 X47.2157 Y27.5744
G01 X47.2004 Y27.6313
G01 X47.1773 Y27.7012
G01 X47.1600 Y27.7458
G01 X47.1379 Y27.7964
G01 X47.1048 Y27.8621
G01 X47.0762 Y27.9120
G01 X47.0518 Y27.9505
G01 X47.0129 Y28.0061
G01 X46.9741 Y28.0555
G01 X46.9440 Y28.0904
G01 X46.8985 Y28.1385
G01 X46.8613 Y28.1741
G01 X46.8169 Y28.2129
G01 X46.7707 Y28.2494
G01 X46.7502 Y28.2643
G01 X46.7502 Y30.3998
G01 X52.1100 Y30.3998
G01 X52.9698 Y29.5400
G01 X52.9698 Y26.3100
G01 X51.1500 Y24.4902
G01 X32.0587 Y24.4902
G01 X28.7638 Y27.7851
G01 X28.7443 Y27.8038
G01 X28.7185 Y27.8265
G01 X28.6916 Y27.8479
G01 X28.6515 Y27.8762
G01 X28.6223 Y27.8943
G01 X28.5922 Y27.9109
G01 X28.5613 Y27.9260
G01 X28.5332 Y27.9383
G01 X28.4976 Y27.9517
G01 X28.4648 Y27.9621
G01 X28.4316 Y27.9709
G01 X28.4056 Y27.9767
G01 X28.3787 Y27.9815
G01 X28.3446 Y27.9860
G01 X28.3104 Y27.9889
G01 X28.2760 Y27.9901
G01 X23.3207 Y27.9902
G01 X23.2937 Y27.9896
G01 X23.2594 Y27.9875
G01 X23.2107 Y27.9815
G01 X23.1838 Y27.9767
G01 X23.1577 Y27.9709
G01 X23.1104 Y27.9578
G01 X23.0779 Y27.9467
G01 X23.0561 Y27.9383
G01 X23.0280 Y27.9260
G01 X22.9971 Y27.9109
G01 X22.9556 Y27.8875
G01 X22.9256 Y27.8680
G01 X22.8977 Y27.8479
G01 X22.8708 Y27.8265
G01 X22.8308 Y27.7903
G01 X20.4556 Y25.4152
G01 X4.8752 Y25.4152
G01 X4.8752 Y38.4163
G01 X6.3837 Y39.9248
G01 X9.5608 Y39.9248
G01 X9.5941 Y39.8826
G01 X9.6230 Y39.8491
G01 X9.6621 Y39.8075
G01 X9.7032 Y39.7678
G01 X9.7462 Y39.7303
G01 X9.7956 Y39.6914
G01 X9.8375 Y39.6617
G01 X9.8982 Y39.6232
G01 X9.9480 Y39.5954
G01 X9.9992 Y39.5701
G01 X10.0515 Y39.5472
G01 X10.1050 Y39.5270
G01 X10.1452 Y39.5137
G01 X10.2001 Y39.4981
G01 X10.2627 Y39.4838
G01 X10.3120 Y39.4752
G01 X10.3686 Y39.4678
G01 X10.4256 Y39.4633
G01 X10.4974 Y39.4615
G01 X10.5397 Y39.4625
G01 X10.5967 Y39.4664
G01 X10.6680 Y39.4752
G01 X10.7173 Y39.4838
G01 X10.7656 Y39.4946
G01 X10.8348 Y39.5137
G01 X10.8889 Y39.5320
G01 X10.9319 Y39.5486
G01 X10.9808 Y39.5701
G01 X11.0320 Y39.5954
G01 X11.0933 Y39.6300
G01 X11.1303 Y39.6535
G01 X11.1772 Y39.6861
G01 X11.2338 Y39.7303
G01 X11.2768 Y39.7678
G01 X11.3128 Y39.8022
G01 X11.3472 Y39.8382
G01 X11.3847 Y39.8812
G01 X11.4289 Y39.9378
G01 X11.4615 Y39.9847
G01 X11.4918 Y40.0332
G01 X11.5196 Y40.0830
G01 X11.5390 Y40.1216
G01 X11.5664 Y40.1831
G01 X11.5830 Y40.2261
G01 X11.6013 Y40.2802
G01 X11.6169 Y40.3351
G01 X11.6326 Y40.4052
G01 X11.6420 Y40.4616
G01 X11.6486 Y40.5183
G01 X11.6525 Y40.5753
G01 X11.6536 Y40.6250
G01 X11.6525 Y40.6747
G01 X11.6486 Y40.7317
G01 X11.6398 Y40.8030
G01 X11.6312 Y40.8523
G01 X11.6204 Y40.9006
G01 X11.6055 Y40.9557
G01 X11.5880 Y41.0100
G01 X11.5621 Y41.0771
G01 X11.5390 Y41.1284
G01 X11.5127 Y41.1800
G01 X11.4850 Y41.2283
G01 X11.4615 Y41.2653
G01 X11.4202 Y41.3240
G01 X11.3859 Y41.3674
G01 X11.3570 Y41.4009
G01 X11.3128 Y41.4478
G01 X11.2768 Y41.4822
G01 X11.2338 Y41.5197
G01 X11.1890 Y41.5552
G01 X11.1303 Y41.5965
G01 X11.0945 Y41.6192
G01 X11.0450 Y41.6477
G01 X10.9934 Y41.6740
G01 X10.9421 Y41.6971
G01 X10.8750 Y41.7230
G01 X10.8207 Y41.7405
G01 X10.7656 Y41.7554
G01 X10.7173 Y41.7662
G01 X10.6680 Y41.7748
G01 X10.6114 Y41.7822
G01 X10.5544 Y41.7867
G01 X10.4826 Y41.7885
G01 X10.4256 Y41.7867
G01 X10.3704 Y41.7824
G01 X10.3120 Y41.7748
G01 X10.2627 Y41.7662
G01 X10.2001 Y41.7519
G01 X10.1452 Y41.7363
G01 X10.0911 Y41.7180
G01 X10.0379 Y41.6971
G01 X9.9866 Y41.6740
G01 X9.9350 Y41.6477
G01 X9.8867 Y41.6200
G01 X9.8375 Y41.5883
G01 X9.7956 Y41.5586
G01 X9.7462 Y41.5197
G01 X9.7032 Y41.4822
G01 X9.6621 Y41.4425
G01 X9.6230 Y41.4009
G01 X9.5953 Y41.3688
G01 X9.5608 Y41.3252
G01 X6.0863 Y41.3251
G01 X6.0520 Y41.3239
G01 X6.0195 Y41.3212
G01 X5.9837 Y41.3165
G01 X5.9568 Y41.3117
G01 X5.9307 Y41.3059
G01 X5.8975 Y41.2971
G01 X5.8648 Y41.2867
G01 X5.8291 Y41.2733
G01 X5.8010 Y41.2610
G01 X5.7701 Y41.2459
G01 X5.7401 Y41.2293
G01 X5.7108 Y41.2112
G01 X5.6825 Y41.1917
G01 X5.6552 Y41.1709
G01 X5.6290 Y41.1487
G01 X5.6038 Y41.1253
G01 X3.6799 Y39.2015
G01 X3.6513 Y39.1711
G01 X3.6292 Y39.1448
G01 X3.6083 Y39.1175
G01 X3.5888 Y39.0892
G01 X3.5707 Y39.0600
G01 X3.5541 Y39.0299
G01 X3.5390 Y38.9990
G01 X3.5268 Y38.9709
G01 X3.5134 Y38.9353
G01 X3.5029 Y38.9025
G01 X3.4941 Y38.8693
G01 X3.4883 Y38.8433
G01 X3.4836 Y38.8164
G01 X3.4790 Y38.7823
G01 X3.4761 Y38.7481
G01 X3.4748 Y38.7063
G01 X3.4749 Y24.7076
G00 Z1.0000
G00 X7.5219 Y27.3661
G01 F50.00
G01 Z-0.1000
G01 F150.00
G01 X7.5200 Y27.2900
G01 X7.5225 Y27.1992
G01 X7.5288 Y27.1178
G01 X7.5396 Y27.0333
G01 X7.5527 Y26.9580
G01 X7.5728 Y26.8698
G01 X7.5954 Y26.7895
G01 X7.6219 Y26.7104
G01 X7.6480 Y26.6428
G01 X7.6861 Y26.5573
G01 X7.7243 Y26.4822
G01 X7.7650 Y26.4110
G01 X7.8107 Y26.3395
G01 X7.8555 Y26.2760
G01 X7.9094 Y26.2073
G01 X7.9654 Y26.1430
G01 X8.0179 Y26.0879
G01 X8.0839 Y26.0255
G01 X8.1473 Y25.9713
G01 X8.2060 Y25.9255
G01 X8.2817 Y25.8725
G01 X8.3524 Y25.8282
G01 X8.4252 Y25.7873
G01 X8.4999 Y25.7502
G01 X8.5728 Y25.7180
G01 X8.6542 Y25.6870
G01 X8.7336 Y25.6612
G01 X8.8141 Y25.6392
G01 X8.8880 Y25.6227
G01 X8.9779 Y25.6074
G01 X9.0607 Y25.5976
G01 X9.1439 Y25.5918
G01 X9.2200 Y25.5900
G01 X9.3108 Y25.5925
G01 X9.3922 Y25.5988
G01 X9.4767 Y25.6096
G01 X9.5520 Y25.6227
G01 X9.6402 Y25.6428
G01 X9.7205 Y25.6654
G01 X9.7996 Y25.6919
G01 X9.8672 Y25.7180
G01 X9.9527 Y25.7561
G01 X10.0278 Y25.7943
G01 X10.0990 Y25.8350
G01 X10.1705 Y25.8807
G01 X10.2340 Y25.9255
G01 X10.3027 Y25.9794
G01 X10.3670 Y26.0354
G01 X10.4221 Y26.0879
G01 X10.4845 Y26.1539
G01 X10.5387 Y26.2173
G01 X10.5845 Y26.2760
G01 X10.6375 Y26.3517
G01 X10.6818 Y26.4224
G01 X10.7227 Y26.4952
G01 X10.7598 Y26.5699
G01 X10.7920 Y26.6428
G01 X10.8230 Y26.7242
G01 X10.8488 Y26.8036
G01 X10.8708 Y26.8841
G01 X10.8873 Y26.9580
G01 X10.9026 Y27.0479
G01 X10.9124 Y27.1307
G01 X10.9182 Y27.2139
G01 X10.9200 Y27.2900
G01 X10.9175 Y27.3808
G01 X10.9112 Y27.4622
G01 X10.9004 Y27.5467
G01 X10.8873 Y27.6220
G01 X10.8672 Y27.7102
G01 X10.8446 Y27.7905
G01 X10.8181 Y27.8696
G01 X10.7920 Y27.9372
G01 X10.7539 Y28.0227
G01 X10.7157 Y28.0978
G01 X10.6750 Y28.1690
G01 X10.6293 Y28.2405
G01 X10.5845 Y28.3040
G01 X10.5306 Y28.3727
G01 X10.4746 Y28.4370
G01 X10.4221 Y28.4921
G01 X10.3561 Y28.5545
G01 X10.2927 Y28.6087
G01 X10.2340 Y28.6545
G01 X10.1583 Y28.7075
G01 X10.0876 Y28.7518
G01 X10.0148 Y28.7927
G01 X9.9401 Y28.8298
G01 X9.8672 Y28.8620
G01 X9.7858 Y28.8930
G01 X9.7064 Y28.9188
G01 X9.6259 Y28.9408
G01 X9.5520 Y28.9573
G01 X9.4621 Y28.9726
G01 X9.3793 Y28.9824
G01 X9.2961 Y28.9882
G01 X9.2200 Y28.9900
G01 X9.1292 Y28.9875
G01 X9.0478 Y28.9812
G01 X8.9633 Y28.9704
G01 X8.8880 Y28.9573
G01 X8.7998 Y28.9372
G01 X8.7195 Y28.9146
G01 X8.6404 Y28.8881
G01 X8.5728 Y28.8620
G01 X8.4873 Y28.8239
G01 X8.4122 Y28.7857
G01 X8.3410 Y28.7450
G01 X8.2695 Y28.6993
G01 X8.2060 Y28.6545
G01 X8.1373 Y28.6006
G01 X8.0730 Y28.5446
G01 X8.0179 Y28.4921
G01 X7.9555 Y28.4261
G01 X7.9013 Y28.3627
G01 X7.8555 Y28.3040
G01 X7.8025 Y28.2283
G01 X7.7582 Y28.1576
G01 X7.7173 Y28.0848
G01 X7.6802 Y28.0101
G01 X7.6480 Y27.9372
G01 X7.6170 Y27.8558
G01 X7.5912 Y27.7764
G01 X7.5692 Y27.6959
G01 X7.5527 Y27.6220
G01 X7.5374 Y27.5321
G01 X7.5276 Y27.4493
G01 X7.5219 Y27.3661
G00 Z1.0000
G00 X12.8017 Y27.3562
G01 F50.00
G01 Z-0.1000
G01 F150.00
G01 X12.8000 Y27.2900
G01 X12.8023 Y27.2090
G01 X12.8078 Y27.1374
G01 X12.8174 Y27.0626
G01 X12.8289 Y26.9971
G01 X12.8468 Y26.9184
G01 X12.8668 Y26.8476
G01 X12.8902 Y26.7778
G01 X12.9128 Y26.7194
G01 X12.9469 Y26.6428
G01 X12.9807 Y26.5765
G01 X13.0165 Y26.5138
G01 X13.0570 Y26.4506
G01 X13.0961 Y26.3952
G01 X13.1440 Y26.3342
G01 X13.1936 Y26.2773
G01 X13.2393 Y26.2293
G01 X13.2982 Y26.1737
G01 X13.3542 Y26.1259
G01 X13.4052 Y26.0862
G01 X13.4728 Y26.0388
G01 X13.5352 Y25.9997
G01 X13.5994 Y25.9637
G01 X13.6654 Y25.9309
G01 X13.7294 Y25.9028
G01 X13.8016 Y25.8753
G01 X13.8716 Y25.8525
G01 X13.9427 Y25.8333
G01 X14.0071 Y25.8189
G01 X14.0872 Y25.8052
G01 X14.1603 Y25.7966
G01 X14.2338 Y25.7915
G01 X14.3000 Y25.7900
G01 X14.3810 Y25.7923
G01 X14.4526 Y25.7978
G01 X14.5274 Y25.8074
G01 X14.5929 Y25.8189
G01 X14.6716 Y25.8368
G01 X14.7424 Y25.8568
G01 X14.8122 Y25.8802
G01 X14.8706 Y25.9028
G01 X14.9472 Y25.9369
G01 X15.0135 Y25.9707
G01 X15.0762 Y26.0065
G01 X15.1394 Y26.0470
G01 X15.1948 Y26.0862
G01 X15.2558 Y26.1340
G01 X15.3127 Y26.1836
G01 X15.3607 Y26.2293
G01 X15.4163 Y26.2882
G01 X15.4641 Y26.3442
G01 X15.5039 Y26.3952
G01 X15.5512 Y26.4628
G01 X15.5903 Y26.5252
G01 X15.6263 Y26.5894
G01 X15.6591 Y26.6554
G01 X15.6872 Y26.7194
G01 X15.7147 Y26.7916
G01 X15.7375 Y26.8616
G01 X15.7567 Y26.9327
G01 X15.7711 Y26.9971
G01 X15.7848 Y27.0772
G01 X15.7934 Y27.1503
G01 X15.7985 Y27.2238
G01 X15.8000 Y27.2900
G01 X15.7977 Y27.3710
G01 X15.7922 Y27.4426
G01 X15.7826 Y27.5174
G01 X15.7711 Y27.5829
G01 X15.7532 Y27.6616
G01 X15.7332 Y27.7324
G01 X15.7098 Y27.8022
G01 X15.6872 Y27.8606
G01 X15.6531 Y27.9372
G01 X15.6193 Y28.0035
G01 X15.5835 Y28.0662
G01 X15.5430 Y28.1294
G01 X15.5039 Y28.1848
G01 X15.4560 Y28.2458
G01 X15.4064 Y28.3027
G01 X15.3607 Y28.3507
G01 X15.3018 Y28.4063
G01 X15.2458 Y28.4541
G01 X15.1948 Y28.4938
G01 X15.1272 Y28.5412
G01 X15.0648 Y28.5803
G01 X15.0006 Y28.6163
G01 X14.9346 Y28.6491
G01 X14.8706 Y28.6772
G01 X14.7984 Y28.7047
G01 X14.7284 Y28.7275
G01 X14.6573 Y28.7467
G01 X14.5929 Y28.7611
G01 X14.5128 Y28.7748
G01 X14.4397 Y28.7834
G01 X14.3662 Y28.7885
G01 X14.3000 Y28.7900
G01 X14.2190 Y28.7877
G01 X14.1474 Y28.7822
G01 X14.0726 Y28.7726
G01 X14.0071 Y28.7611
G01 X13.9284 Y28.7432
G01 X13.8576 Y28.7232
G01 X13.7878 Y28.6998
G01 X13.7294 Y28.6772
G01 X13.6528 Y28.6431
G01 X13.5865 Y28.6093
G01 X13.5238 Y28.5735
G01 X13.4606 Y28.5330
G01 X13.4052 Y28.4938
G01 X13.3442 Y28.4460
G01 X13.2873 Y28.3964
G01 X13.2393 Y28.3507
G01 X13.1837 Y28.2918
G01 X13.1359 Y28.2358
G01 X13.0961 Y28.1848
G01 X13.0488 Y28.1172
G01 X13.0097 Y28.0548
G01 X12.9737 Y27.9906
G01 X12.9409 Y27.9246
G01 X12.9128 Y27.8606
G01 X12.8853 Y27.7884
G01 X12.8625 Y27.7184
G01 X12.8433 Y27.6473
G01 X12.8289 Y27.5829
G01 X12.8152 Y27.5028
G01 X12.8066 Y27.4297
G01 X12.8017 Y27.3562
G00 Z1.0000
G00 X12.1664 Y34.3814
G01 F50.00
G01 Z-0.1000
G01 F150.00
G01 X13.2060 Y34.3814
G01 X13.2466 Y34.3486
G01 X13.2699 Y34.3320
G01 X13.2988 Y34.3133
G01 X13.3415 Y34.2891
G01 X13.3723 Y34.2740
G01 X13.4004 Y34.2617
G01 X13.4222 Y34.2533
G01 X13.4547 Y34.2422
G01 X13.4877 Y34.2327
G01 X13.5212 Y34.2248
G01 X13.5696 Y34.2164
G01 X13.6037 Y34.2125
G01 X13.6380 Y34.2104
G01 X13.6650 Y34.2098
G01 X16.7835 Y34.2098
G01 X16.8273 Y34.1326
G01 X16.8670 Y34.0706
G01 X16.9062 Y34.0152
G01 X16.9540 Y33.9542
G01 X16.9937 Y33.9082
G01 X17.0493 Y33.8493
G01 X17.1082 Y33.7937
G01 X17.1642 Y33.7459
G01 X17.2152 Y33.7061
G01 X17.2828 Y33.6588
G01 X17.3326 Y33.6273
G01 X17.3965 Y33.5907
G01 X17.4754 Y33.5509
G01 X17.5394 Y33.5228
G01 X17.5978 Y33.5002
G01 X17.6816 Y33.4725
G01 X17.7527 Y33.4533
G01 X17.8171 Y33.4389
G01 X17.8972 Y33.4252
G01 X17.9557 Y33.4180
G01 X18.0290 Y33.4123
G01 X18.1174 Y33.4101
G01 X18.1762 Y33.4115
G01 X18.2497 Y33.4166
G01 X18.3228 Y33.4252
G01 X18.4029 Y33.4389
G01 X18.4673 Y33.4533
G01 X18.5384 Y33.4725
G01 X18.6084 Y33.4953
G01 X18.6806 Y33.5228
G01 X18.7446 Y33.5509
G01 X18.8106 Y33.5837
G01 X18.8748 Y33.6197
G01 X18.9372 Y33.6588
G01 X19.0048 Y33.7061
G01 X19.0558 Y33.7459
G01 X19.1118 Y33.7937
G01 X19.1707 Y33.8493
G01 X19.2164 Y33.8973
G01 X19.2648 Y33.9528
G01 X19.3139 Y34.0152
G01 X19.3530 Y34.0706
G01 X19.3927 Y34.1326
G01 X19.4293 Y34.1965
G01 X19.4631 Y34.2628
G01 X19.4972 Y34.3394
G01 X19.5198 Y34.3978
G01 X19.5432 Y34.4676
G01 X19.5632 Y34.5384
G01 X19.5811 Y34.6171
G01 X19.5926 Y34.6826
G01 X19.6020 Y34.7557
G01 X19.6077 Y34.8290
G01 X19.6100 Y34.9100
G01 X19.6085 Y34.9762
G01 X19.6034 Y35.0497
G01 X19.5926 Y35.1374
G01 X19.5811 Y35.2029
G01 X19.5667 Y35.2673
G01 X19.5432 Y35.3524
G01 X19.5198 Y35.4222
G01 X19.4929 Y35.4908
G01 X19.4631 Y35.5572
G01 X19.4293 Y35.6235
G01 X19.3935 Y35.6862
G01 X19.3612 Y35.7372
G01 X19.3104 Y35.8094
G01 X19.2660 Y35.8658
G01 X19.2263 Y35.9118
G01 X19.1654 Y35.9758
G01 X19.1118 Y36.0263
G01 X19.0558 Y36.0741
G01 X19.0048 Y36.1139
G01 X18.9494 Y36.1530
G01 X18.8748 Y36.2003
G01 X18.8106 Y36.2363
G01 X18.7572 Y36.2631
G01 X18.6806 Y36.2972
G01 X18.6222 Y36.3198
G01 X18.5384 Y36.3475
G01 X18.4816 Y36.3632
G01 X18.4098 Y36.3797
G01 X18.3228 Y36.3948
G01 X18.2643 Y36.4020
G01 X18.1910 Y36.4077
G01 X18.1026 Y36.4099
G01 X18.0290 Y36.4077
G01 X17.9557 Y36.4020
G01 X17.8826 Y36.3926
G01 X17.8171 Y36.3811
G01 X17.7527 Y36.3667
G01 X17.6816 Y36.3475
G01 X17.5978 Y36.3198
G01 X17.5394 Y36.2972
G01 X17.4628 Y36.2631
G01 X17.4094 Y36.2363
G01 X17.3452 Y36.2003
G01 X17.2706 Y36.1530
G01 X17.2152 Y36.1139
G01 X17.1542 Y36.0660
G01 X17.1082 Y36.0263
G01 X17.0546 Y35.9758
G01 X16.9937 Y35.9118
G01 X16.9459 Y35.8558
G01 X16.9062 Y35.8048
G01 X16.8670 Y35.7494
G01 X16.8273 Y35.6874
G01 X16.7835 Y35.6102
G01 X14.1936 Y35.6102
G01 X14.1936 Y36.4086
G01 X14.1923 Y36.4364
G01 X14.1907 Y36.4503
G01 X14.1884 Y36.4640
G01 X14.1820 Y36.4912
G01 X14.1731 Y36.5176
G01 X14.1615 Y36.5437
G01 X14.1545 Y36.5567
G01 X14.1388 Y36.5815
G01 X14.1207 Y36.6046
G01 X14.1005 Y36.6259
G01 X14.0896 Y36.6357
G01 X14.0664 Y36.6538
G01 X14.0417 Y36.6695
G01 X14.0287 Y36.6765
G01 X14.0026 Y36.6881
G01 X13.9895 Y36.6929
G01 X13.9627 Y36.7005
G01 X13.9353 Y36.7057
G01 X13.9075 Y36.7083
G01 X13.8936 Y36.7086
G01 X12.1664 Y36.7086
G01 X12.1386 Y36.7073
G01 X12.1110 Y36.7034
G01 X12.0838 Y36.6970
G01 X12.0574 Y36.6881
G01 X12.0446 Y36.6827
G01 X12.0183 Y36.6695
G01 X11.9935 Y36.6538
G01 X11.9818 Y36.6450
G01 X11.9595 Y36.6259
G01 X11.9393 Y36.6046
G01 X11.9300 Y36.5932
G01 X11.9130 Y36.5692
G01 X11.8985 Y36.5437
G01 X11.8923 Y36.5304
G01 X11.8821 Y36.5045
G01 X11.8745 Y36.4777
G01 X11.8693 Y36.4503
G01 X11.8677 Y36.4364
G01 X11.8664 Y36.4086
G01 X11.8664 Y34.6814
G01 X11.8677 Y34.6536
G01 X11.8716 Y34.6260
G01 X11.8780 Y34.5988
G01 X11.8869 Y34.5724
G01 X11.8986 Y34.5463
G01 X11.9130 Y34.5207
G01 X11.9300 Y34.4968
G01 X11.9491 Y34.4745
G01 X11.9704 Y34.4543
G01 X11.9935 Y34.4362
G01 X12.0183 Y34.4205
G01 X12.0446 Y34.4073
G01 X12.0705 Y34.3971
G01 X12.0973 Y34.3895
G01 X12.1247 Y34.3843
G01 X12.1525 Y34.3817
G01 X12.1664 Y34.3814
G00 Z1.0000
G00 X9.3277 Y35.5947
G01 F50.00
G01 Z-0.1000
G01 F150.00
G01 X9.3265 Y35.5376
G01 X9.3275 Y35.4953
G01 X9.3314 Y35.4383
G01 X9.3380 Y35.3816
G01 X9.3488 Y35.3177
G01 X9.3631 Y35.2551
G01 X9.3745 Y35.2143
G01 X9.3920 Y35.1600
G01 X9.4136 Y35.1031
G01 X9.4410 Y35.0416
G01 X9.4673 Y34.9900
G01 X9.4950 Y34.9417
G01 X9.5185 Y34.9047
G01 X9.5564 Y34.8506
G01 X9.5941 Y34.8026
G01 X9.6328 Y34.7582
G01 X9.6725 Y34.7171
G01 X9.7141 Y34.6780
G01 X9.7462 Y34.6503
G01 X9.7898 Y34.6158
G01 X9.7898 Y31.1487
G01 X9.7911 Y31.1070
G01 X9.7938 Y31.0745
G01 X9.7985 Y31.0387
G01 X9.8033 Y31.0118
G01 X9.8091 Y30.9857
G01 X9.8179 Y30.9525
G01 X9.8333 Y30.9059
G01 X9.8417 Y30.8841
G01 X9.8540 Y30.8560
G01 X9.8691 Y30.8251
G01 X9.8925 Y30.7837
G01 X9.9120 Y30.7536
G01 X9.9321 Y30.7257
G01 X9.9523 Y30.7002
G01 X9.9663 Y30.6840
G01 X9.9949 Y30.6536
G01 X10.0631 Y30.5862
G01 X10.0888 Y30.5635
G01 X10.1203 Y30.5386
G01 X10.1558 Y30.5138
G01 X10.1851 Y30.4957
G01 X10.2334 Y30.4699
G01 X10.2741 Y30.4517
G01 X10.3098 Y30.4383
G01 X10.3614 Y30.4227
G01 X10.4018 Y30.4133
G01 X10.4432 Y30.4064
G01 X10.4970 Y30.4011
G01 X10.5387 Y30.3998
G01 X18.1000 Y30.3998
G01 X18.1417 Y30.4011
G01 X18.1742 Y30.4038
G01 X18.2100 Y30.4085
G01 X18.2369 Y30.4133
G01 X18.2630 Y30.4191
G01 X18.2962 Y30.4279
G01 X18.3428 Y30.4433
G01 X18.3747 Y30.4560
G01 X18.4053 Y30.4699
G01 X18.4536 Y30.4957
G01 X18.4951 Y30.5220
G01 X18.5184 Y30.5386
G01 X18.5484 Y30.5623
G01 X18.5647 Y30.5763
G01 X18.5898 Y30.5997
G01 X23.5572 Y35.5669
G01 X23.6284 Y35.5468
G01 X23.7146 Y35.5275
G01 X23.7726 Y35.5174
G01 X23.8457 Y35.5080
G01 X23.9190 Y35.5023
G01 X24.0074 Y35.5001
G01 X24.0662 Y35.5015
G01 X24.1397 Y35.5066
G01 X24.2274 Y35.5174
G01 X24.2998 Y35.5303
G01 X24.3573 Y35.5433
G01 X24.4284 Y35.5625
G01 X24.4984 Y35.5853
G01 X24.5808 Y35.6171
G01 X24.6472 Y35.6469
G01 X24.7006 Y35.6737
G01 X24.7762 Y35.7165
G01 X24.8272 Y35.7488
G01 X24.8876 Y35.7909
G01 X24.9558 Y35.8440
G01 X25.0127 Y35.8936
G01 X25.0607 Y35.9393
G01 X25.1163 Y35.9982
G01 X25.1548 Y36.0428
G01 X25.2004 Y36.1006
G01 X25.2430 Y36.1606
G01 X25.2903 Y36.2352
G01 X25.3263 Y36.2994
G01 X25.3531 Y36.3528
G01 X25.3829 Y36.4192
G01 X25.4098 Y36.4878
G01 X25.4332 Y36.5576
G01 X25.4567 Y36.6427
G01 X25.4711 Y36.7071
G01 X25.4848 Y36.7872
G01 X25.4934 Y36.8603
G01 X25.4977 Y36.9190
G01 X25.4999 Y36.9926
G01 X25.4985 Y37.0662
G01 X25.4922 Y37.1526
G01 X25.4826 Y37.2274
G01 X25.4711 Y37.2929
G01 X25.4567 Y37.3573
G01 X25.4332 Y37.4424
G01 X25.4098 Y37.5122
G01 X25.3872 Y37.5706
G01 X25.3591 Y37.6346
G01 X25.3193 Y37.7135
G01 X25.2835 Y37.7762
G01 X25.2512 Y37.8272
G01 X25.2091 Y37.8876
G01 X25.1560 Y37.9558
G01 X25.1163 Y38.0018
G01 X25.0658 Y38.0554
G01 X25.0127 Y38.1064
G01 X24.9458 Y38.1641
G01 X24.8948 Y38.2039
G01 X24.8394 Y38.2430
G01 X24.7774 Y38.2827
G01 X24.7135 Y38.3193
G01 X24.6346 Y38.3591
G01 X24.5672 Y38.3886
G01 X24.5122 Y38.4098
G01 X24.4424 Y38.4332
G01 X24.3573 Y38.4567
G01 X24.2929 Y38.4711
G01 X24.2274 Y38.4826
G01 X24.1543 Y38.4920
G01 X24.0662 Y38.4985
G01 X23.9926 Y38.4999
G01 X23.9338 Y38.4985
G01 X23.8603 Y38.4934
G01 X23.7726 Y38.4826
G01 X23.7002 Y38.4697
G01 X23.6427 Y38.4567
G01 X23.5716 Y38.4375
G01 X23.5016 Y38.4147
G01 X23.4192 Y38.3829
G01 X23.3528 Y38.3531
G01 X23.2994 Y38.3263
G01 X23.2238 Y38.2835
G01 X23.1606 Y38.2430
G01 X23.1052 Y38.2039
G01 X23.0442 Y38.1560
G01 X22.9982 Y38.1163
G01 X22.9446 Y38.0658
G01 X22.8837 Y38.0018
G01 X22.8452 Y37.9572
G01 X22.7996 Y37.8994
G01 X22.7488 Y37.8272
G01 X22.7173 Y37.7774
G01 X22.6807 Y37.7135
G01 X22.6469 Y37.6472
G01 X22.6171 Y37.5808
G01 X22.5853 Y37.4984
G01 X22.5668 Y37.4424
G01 X22.5468 Y37.3716
G01 X22.5289 Y37.2929
G01 X22.5174 Y37.2274
G01 X22.5066 Y37.1397
G01 X22.5023 Y37.0810
G01 X22.5001 Y37.0074
G01 X22.5015 Y36.9338
G01 X22.5066 Y36.8603
G01 X22.5174 Y36.7726
G01 X22.5289 Y36.7071
G01 X22.5433 Y36.6427
G01 X22.5669 Y36.5572
G01 X17.8100 Y31.8002
G01 X11.1902 Y31.8002
G01 X11.1902 Y34.6158
G01 X11.2324 Y34.6491
G01 X11.2768 Y34.6878
G01 X11.3128 Y34.7222
G01 X11.3472 Y34.7582
G01 X11.3847 Y34.8012
G01 X11.4202 Y34.8460
G01 X11.4615 Y34.9047
G01 X11.4842 Y34.9405
G01 X11.5127 Y34.9900
G01 X11.5390 Y35.0416
G01 X11.5621 Y35.0929
G01 X11.5880 Y35.1600
G01 X11.6055 Y35.2143
G01 X11.6204 Y35.2694
G01 X11.6312 Y35.3177
G01 X11.6398 Y35.3670
G01 X11.6472 Y35.4236
G01 X11.6517 Y35.4806
G01 X11.6535 Y35.5524
G01 X11.6517 Y35.6094
G01 X11.6474 Y35.6646
G01 X11.6398 Y35.7230
G01 X11.6312 Y35.7723
G01 X11.6204 Y35.8206
G01 X11.6055 Y35.8757
G01 X11.5830 Y35.9439
G01 X11.5664 Y35.9869
G01 X11.5390 Y36.0484
G01 X11.5127 Y36.1000
G01 X11.4850 Y36.1483
G01 X11.4615 Y36.1853
G01 X11.4289 Y36.2322
G01 X11.3859 Y36.2874
G01 X11.3472 Y36.3318
G01 X11.3128 Y36.3678
G01 X11.2768 Y36.4022
G01 X11.2338 Y36.4397
G01 X11.1772 Y36.4839
G01 X11.1303 Y36.5165
G01 X11.0818 Y36.5468
G01 X11.0320 Y36.5746
G01 X10.9934 Y36.5940
G01 X10.9319 Y36.6214
G01 X10.8889 Y36.6380
G01 X10.8207 Y36.6605
G01 X10.7799 Y36.6719
G01 X10.7242 Y36.6847
G01 X10.6534 Y36.6970
G01 X10.6114 Y36.7022
G01 X10.5544 Y36.7067
G01 X10.4900 Y36.7086
G01 X10.4403 Y36.7075
G01 X10.3704 Y36.7024
G01 X10.3120 Y36.6948
G01 X10.2627 Y36.6862
G01 X10.2144 Y36.6754
G01 X10.1593 Y36.6605
G01 X10.0911 Y36.6380
G01 X10.0481 Y36.6214
G01 X9.9866 Y36.5940
G01 X9.9480 Y36.5746
G01 X9.8982 Y36.5468
G01 X9.8375 Y36.5083
G01 X9.7956 Y36.4787
G01 X9.7476 Y36.4409
G01 X9.7032 Y36.4022
G01 X9.6672 Y36.3678
G01 X9.6328 Y36.3318
G01 X9.5953 Y36.2888
G01 X9.5511 Y36.2322
G01 X9.5185 Y36.1853
G01 X9.4882 Y36.1368
G01 X9.4604 Y36.0870
G01 X9.4410 Y36.0484
G01 X9.4136 Y35.9869
G01 X9.3970 Y35.9439
G01 X9.3745 Y35.8757
G01 X9.3596 Y35.8206
G01 X9.3488 Y35.7723
G01 X9.3402 Y35.7230
G01 X9.3328 Y35.6664
G01 X9.3277 Y35.5947
G00 Z1.0000
G00 X11.8677 Y38.1347
G01 F50.00
G01 Z-0.1000
G01 F150.00
G01 X11.8664 Y38.0850
G01 X11.8675 Y38.0353
G01 X11.8714 Y37.9783
G01 X11.8780 Y37.9216
G01 X11.8888 Y37.8577
G01 X11.8996 Y37.8094
G01 X11.9145 Y37.7543
G01 X11.9320 Y37.7000
G01 X11.9536 Y37.6431
G01 X11.9751 Y37.5942
G01 X12.0004 Y37.5430
G01 X12.0282 Y37.4932
G01 X12.0585 Y37.4447
G01 X12.0964 Y37.3906
G01 X12.1341 Y37.3426
G01 X12.1630 Y37.3091
G01 X12.2072 Y37.2622
G01 X12.2432 Y37.2278
G01 X12.2862 Y37.1903
G01 X12.3310 Y37.1548
G01 X12.3775 Y37.1217
G01 X12.4255 Y37.0908
G01 X12.4880 Y37.0554
G01 X12.5392 Y37.0301
G01 X12.5881 Y37.0086
G01 X12.6450 Y36.9870
G01 X12.6993 Y36.9695
G01 X12.7544 Y36.9546
G01 X12.8027 Y36.9438
G01 X12.8666 Y36.9330
G01 X12.9233 Y36.9264
G01 X12.9656 Y36.9233
G01 X13.0226 Y36.9215
G01 X13.0797 Y36.9225
G01 X13.1496 Y36.9276
G01 X13.2080 Y36.9352
G01 X13.2573 Y36.9438
G01 X13.3056 Y36.9546
G01 X13.3607 Y36.9695
G01 X13.4289 Y36.9920
G01 X13.4821 Y37.0129
G01 X13.5334 Y37.0360
G01 X13.5720 Y37.0554
G01 X13.6218 Y37.0832
G01 X13.6825 Y37.1217
G01 X13.7290 Y37.1548
G01 X13.7724 Y37.1891
G01 X13.8059 Y37.2180
G01 X13.8528 Y37.2622
G01 X13.8970 Y37.3091
G01 X13.9247 Y37.3412
G01 X13.9592 Y37.3848
G01 X20.0850 Y37.3848
G01 X20.1120 Y37.3854
G01 X20.1463 Y37.3875
G01 X20.1804 Y37.3914
G01 X20.2144 Y37.3969
G01 X20.2480 Y37.4041
G01 X20.2953 Y37.4172
G01 X20.3278 Y37.4283
G01 X20.3496 Y37.4367
G01 X20.3903 Y37.4549
G01 X20.4215 Y37.4710
G01 X20.4500 Y37.4875
G01 X20.4678 Y37.4988
G01 X20.5034 Y37.5236
G01 X20.5235 Y37.5391
G01 X20.5497 Y37.5613
G01 X20.5801 Y37.5899
G01 X21.5572 Y38.5669
G01 X21.6284 Y38.5468
G01 X21.7146 Y38.5275
G01 X21.7726 Y38.5174
G01 X21.8457 Y38.5080
G01 X21.9190 Y38.5023
G01 X22.0074 Y38.5001
G01 X22.0662 Y38.5015
G01 X22.1397 Y38.5066
G01 X22.2274 Y38.5174
G01 X22.2998 Y38.5303
G01 X22.3573 Y38.5433
G01 X22.4284 Y38.5625
G01 X22.4984 Y38.5853
G01 X22.5808 Y38.6171
G01 X22.6472 Y38.6469
G01 X22.7006 Y38.6737
G01 X22.7762 Y38.7165
G01 X22.8394 Y38.7570
G01 X22.8994 Y38.7996
G01 X22.9558 Y38.8440
G01 X23.0018 Y38.8837
G01 X23.0607 Y38.9393
G01 X23.1163 Y38.9982
G01 X23.1548 Y39.0428
G01 X23.2004 Y39.1006
G01 X23.2430 Y39.1606
G01 X23.2903 Y39.2352
G01 X23.3263 Y39.2994
G01 X23.3531 Y39.3528
G01 X23.3829 Y39.4192
G01 X23.4147 Y39.5016
G01 X23.4375 Y39.5716
G01 X23.4532 Y39.6284
G01 X23.4697 Y39.7002
G01 X23.4826 Y39.7726
G01 X23.4934 Y39.8603
G01 X23.4977 Y39.9190
G01 X23.4999 Y39.9926
G01 X23.4977 Y40.0810
G01 X23.4922 Y40.1526
G01 X23.4848 Y40.2128
G01 X23.4725 Y40.2854
G01 X23.4567 Y40.3573
G01 X23.4375 Y40.4284
G01 X23.4147 Y40.4984
G01 X23.3872 Y40.5706
G01 X23.3591 Y40.6346
G01 X23.3263 Y40.7006
G01 X23.2903 Y40.7648
G01 X23.2512 Y40.8272
G01 X23.2039 Y40.8948
G01 X23.1560 Y40.9558
G01 X23.1064 Y41.0127
G01 X23.0607 Y41.0607
G01 X23.0127 Y41.1064
G01 X22.9572 Y41.1548
G01 X22.8948 Y41.2039
G01 X22.8394 Y41.2430
G01 X22.7774 Y41.2827
G01 X22.7135 Y41.3193
G01 X22.6472 Y41.3531
G01 X22.5706 Y41.3872
G01 X22.4984 Y41.4147
G01 X22.4284 Y41.4375
G01 X22.3573 Y41.4567
G01 X22.2929 Y41.4711
G01 X22.2274 Y41.4826
G01 X22.1543 Y41.4920
G01 X22.0810 Y41.4977
G01 X22.0000 Y41.5000
G01 X21.9190 Y41.4977
G01 X21.8474 Y41.4922
G01 X21.7872 Y41.4848
G01 X21.7146 Y41.4725
G01 X21.6427 Y41.4567
G01 X21.5716 Y41.4375
G01 X21.5016 Y41.4147
G01 X21.4294 Y41.3872
G01 X21.3654 Y41.3591
G01 X21.2994 Y41.3263
G01 X21.2352 Y41.2903
G01 X21.1728 Y41.2512
G01 X21.1052 Y41.2039
G01 X21.0542 Y41.1641
G01 X20.9982 Y41.1163
G01 X20.9446 Y41.0658
G01 X20.8837 Y41.0018
G01 X20.8359 Y40.9458
G01 X20.7909 Y40.8876
G01 X20.7570 Y40.8394
G01 X20.7173 Y40.7774
G01 X20.6807 Y40.7135
G01 X20.6469 Y40.6472
G01 X20.6128 Y40.5706
G01 X20.5853 Y40.4984
G01 X20.5625 Y40.4284
G01 X20.5468 Y40.3716
G01 X20.5303 Y40.2998
G01 X20.5174 Y40.2274
G01 X20.5080 Y40.1543
G01 X20.5015 Y40.0662
G01 X20.5001 Y39.9926
G01 X20.5015 Y39.9338
G01 X20.5066 Y39.8603
G01 X20.5152 Y39.7872
G01 X20.5289 Y39.7071
G01 X20.5468 Y39.6284
G01 X20.5669 Y39.5572
G01 X19.7950 Y38.7852
G01 X13.9592 Y38.7852
G01 X13.9259 Y38.8274
G01 X13.8970 Y38.8609
G01 X13.8528 Y38.9078
G01 X13.8059 Y38.9520
G01 X13.7738 Y38.9797
G01 X13.7290 Y39.0152
G01 X13.6825 Y39.0483
G01 X13.6218 Y39.0868
G01 X13.5720 Y39.1146
G01 X13.5334 Y39.1340
G01 X13.4821 Y39.1571
G01 X13.4289 Y39.1780
G01 X13.3607 Y39.2005
G01 X13.3056 Y39.2154
G01 X13.2573 Y39.2262
G01 X13.2080 Y39.2348
G01 X13.1367 Y39.2436
G01 X13.0797 Y39.2475
G01 X13.0300 Y39.2486
G01 X12.9803 Y39.2475
G01 X12.9233 Y39.2436
G01 X12.8666 Y39.2370
G01 X12.8102 Y39.2276
G01 X12.7401 Y39.2119
G01 X12.6852 Y39.1963
G01 X12.6311 Y39.1780
G01 X12.5881 Y39.1614
G01 X12.5266 Y39.1340
G01 X12.4750 Y39.1077
G01 X12.4267 Y39.0800
G01 X12.3775 Y39.0483
G01 X12.3356 Y39.0186
G01 X12.2876 Y38.9809
G01 X12.2541 Y38.9520
G01 X12.2072 Y38.9078
G01 X12.1728 Y38.8718
G01 X12.1353 Y38.8288
G01 X12.0998 Y38.7840
G01 X12.0585 Y38.7253
G01 X12.0282 Y38.6768
G01 X12.0004 Y38.6270
G01 X11.9751 Y38.5758
G01 X11.9536 Y38.5269
G01 X11.9370 Y38.4839
G01 X11.9187 Y38.4298
G01 X11.9031 Y38.3749
G01 X11.8903 Y38.3192
G01 X11.8802 Y38.2630
G01 X11.8728 Y38.2064
G01 X11.8677 Y38.1347
G00 Z1.0000
G00 X11.8677 Y40.6747
G01 F50.00
G01 Z-0.1000
G01 F150.00
G01 X11.8664 Y40.6250
G01 X11.8675 Y40.5753
G01 X11.8714 Y40.5183
G01 X11.8780 Y40.4616
G01 X11.8888 Y40.3977
G01 X11.8996 Y40.3494
G01 X11.9145 Y40.2943
G01 X11.9320 Y40.2400
G01 X11.9579 Y40.1729
G01 X11.9810 Y40.1216
G01 X12.0073 Y40.0700
G01 X12.0350 Y40.0217
G01 X12.0667 Y39.9725
G01 X12.0964 Y39.9306
G01 X12.1353 Y39.8812
G01 X12.1728 Y39.8382
G01 X12.2072 Y39.8022
G01 X12.2541 Y39.7580
G01 X12.2976 Y39.7209
G01 X12.3356 Y39.6914
G01 X12.3775 Y39.6617
G01 X12.4255 Y39.6308
G01 X12.4750 Y39.6023
G01 X12.5266 Y39.5760
G01 X12.5779 Y39.5529
G01 X12.6311 Y39.5320
G01 X12.6852 Y39.5137
G01 X12.7401 Y39.4981
G01 X12.8027 Y39.4838
G01 X12.8520 Y39.4752
G01 X12.9086 Y39.4678
G01 X12.9803 Y39.4625
G01 X13.0300 Y39.4614
G01 X13.0797 Y39.4625
G01 X13.1496 Y39.4676
G01 X13.2080 Y39.4752
G01 X13.2573 Y39.4838
G01 X13.3056 Y39.4946
G01 X13.3607 Y39.5095
G01 X13.4289 Y39.5320
G01 X13.4821 Y39.5529
G01 X13.5334 Y39.5760
G01 X13.5720 Y39.5954
G01 X13.6218 Y39.6232
G01 X13.6825 Y39.6617
G01 X13.7290 Y39.6948
G01 X13.7724 Y39.7291
G01 X13.8059 Y39.7580
G01 X13.8528 Y39.8022
G01 X13.8970 Y39.8491
G01 X13.9247 Y39.8812
G01 X13.9592 Y39.9248
G01 X19.2210 Y39.9248
G01 X19.2480 Y39.9254
G01 X19.2823 Y39.9275
G01 X19.3310 Y39.9335
G01 X19.3579 Y39.9383
G01 X19.3840 Y39.9441
G01 X19.4313 Y39.9572
G01 X19.4638 Y39.9683
G01 X19.4957 Y39.9810
G01 X19.5263 Y39.9949
G01 X19.5445 Y40.0041
G01 X19.5746 Y40.0207
G01 X19.6038 Y40.0388
G01 X19.6394 Y40.0636
G01 X19.6595 Y40.0791
G01 X19.6857 Y40.1013
G01 X19.7161 Y40.1299
G01 X21.1860 Y41.5998
G01 X22.8140 Y41.5998
G01 X24.2839 Y40.1299
G01 X24.3034 Y40.1112
G01 X24.3405 Y40.0791
G01 X24.3679 Y40.0583
G01 X24.4128 Y40.0283
G01 X24.4425 Y40.0110
G01 X24.4737 Y39.9949
G01 X24.5144 Y39.9767
G01 X24.5501 Y39.9633
G01 X24.6017 Y39.9477
G01 X24.6421 Y39.9383
G01 X24.6836 Y39.9314
G01 X24.7373 Y39.9261
G01 X24.7790 Y39.9248
G01 X29.3350 Y39.9248
G01 X30.2998 Y38.9600
G01 X30.2998 Y26.6800
G01 X30.3004 Y26.6530
G01 X30.3025 Y26.6187
G01 X30.3064 Y26.5846
G01 X30.3119 Y26.5506
G01 X30.3227 Y26.5027
G01 X30.3383 Y26.4511
G01 X30.3560 Y26.4053
G01 X30.3699 Y26.3747
G01 X30.3791 Y26.3565
G01 X30.4025 Y26.3150
G01 X30.4138 Y26.2972
G01 X30.4333 Y26.2689
G01 X30.4623 Y26.2316
G01 X30.4763 Y26.2153
G01 X30.4997 Y26.1902
G01 X31.8949 Y24.7949
G01 X31.9144 Y24.7762
G01 X31.9402 Y24.7535
G01 X31.9716 Y24.7286
G01 X31.9949 Y24.7120
G01 X32.0238 Y24.6933
G01 X32.0535 Y24.6760
G01 X32.0847 Y24.6599
G01 X32.1153 Y24.6460
G01 X32.1472 Y24.6333
G01 X32.1797 Y24.6222
G01 X32.2127 Y24.6127
G01 X32.2606 Y24.6019
G01 X32.3140 Y24.5940
G01 X32.3483 Y24.5911
G01 X32.3826 Y24.5899
G01 X34.3100 Y24.5898
G01 X34.3517 Y24.5911
G01 X34.3842 Y24.5938
G01 X34.4200 Y24.5985
G01 X34.4469 Y24.6033
G01 X34.4730 Y24.6091
G01 X34.5062 Y24.6179
G01 X34.5528 Y24.6333
G01 X34.5847 Y24.6460
G01 X34.6200 Y24.6623
G01 X34.6553 Y24.6460
G01 X34.6872 Y24.6333
G01 X34.7197 Y24.6222
G01 X34.7527 Y24.6127
G01 X34.7931 Y24.6033
G01 X34.8200 Y24.5985
G01 X34.8540 Y24.5940
G01 X34.9030 Y24.5904
G01 X34.9300 Y24.5898
G01 X36.8500 Y24.5898
G01 X36.8917 Y24.5911
G01 X36.9242 Y24.5938
G01 X36.9600 Y24.5985
G01 X36.9869 Y24.6033
G01 X37.0130 Y24.6091
G01 X37.0462 Y24.6179
G01 X37.0928 Y24.6333
G01 X37.1247 Y24.6460
G01 X37.1600 Y24.6623
G01 X37.1953 Y24.6460
G01 X37.2272 Y24.6333
G01 X37.2597 Y24.6222
G01 X37.2927 Y24.6127
G01 X37.3331 Y24.6033
G01 X37.3600 Y24.5985
G01 X37.3940 Y24.5940
G01 X37.4430 Y24.5904
G01 X37.4700 Y24.5898
G01 X39.3900 Y24.5898
G01 X39.4317 Y24.5911
G01 X39.4642 Y24.5938
G01 X39.5000 Y24.5985
G01 X39.5269 Y24.6033
G01 X39.5530 Y24.6091
G01 X39.5862 Y24.6179
G01 X39.6328 Y24.6333
G01 X39.6647 Y24.6460
G01 X39.7000 Y24.6623
G01 X39.7353 Y24.6460
G01 X39.7672 Y24.6333
G01 X39.7997 Y24.6222
G01 X39.8327 Y24.6127
G01 X39.8731 Y24.6033
G01 X39.9000 Y24.5985
G01 X39.9340 Y24.5940
G01 X39.9830 Y24.5904
G01 X40.0100 Y24.5898
G01 X41.9300 Y24.5898
G01 X41.9717 Y24.5911
G01 X42.0042 Y24.5938
G01 X42.0400 Y24.5985
G01 X42.0669 Y24.6033
G01 X42.0930 Y24.6091
G01 X42.1262 Y24.6179
G01 X42.1728 Y24.6333
G01 X42.2047 Y24.6460
G01 X42.2400 Y24.6623
G01 X42.2753 Y24.6460
G01 X42.3072 Y24.6333
G01 X42.3397 Y24.6222
G01 X42.3727 Y24.6127
G01 X42.4131 Y24.6033
G01 X42.4400 Y24.5985
G01 X42.4740 Y24.5940
G01 X42.5230 Y24.5904
G01 X42.5500 Y24.5898
G01 X44.4700 Y24.5898
G01 X44.5117 Y24.5911
G01 X44.5442 Y24.5938
G01 X44.5800 Y24.5985
G01 X44.6069 Y24.6033
G01 X44.6330 Y24.6091
G01 X44.6662 Y24.6179
G01 X44.7128 Y24.6333
G01 X44.7447 Y24.6460
G01 X44.7800 Y24.6623
G01 X44.8153 Y24.6460
G01 X44.8472 Y24.6333
G01 X44.8938 Y24.6179
G01 X44.9270 Y24.6091
G01 X44.9531 Y24.6033
G01 X44.9800 Y24.5985
G01 X45.0140 Y24.5940
G01 X45.0483 Y24.5911
G01 X45.0826 Y24.5899
G01 X47.8628 Y24.5898
G01 X47.9045 Y24.5911
G01 X47.9370 Y24.5938
G01 X47.9582 Y24.5964
G01 X47.9997 Y24.6033
G01 X48.0400 Y24.6127
G01 X48.0917 Y24.6283
G01 X48.1375 Y24.6460
G01 X48.1681 Y24.6599
G01 X48.1863 Y24.6691
G01 X48.2278 Y24.6925
G01 X48.2456 Y24.7038
G01 X48.2739 Y24.7233
G01 X48.3112 Y24.7523
G01 X48.3384 Y24.7762
G01 X48.3579 Y24.7949
G01 X49.0851 Y25.5221
G01 X49.1137 Y25.5525
G01 X49.1479 Y25.5942
G01 X49.1680 Y25.6221
G01 X49.1943 Y25.6636
G01 X49.2109 Y25.6937
G01 X49.2260 Y25.7245
G01 X49.2383 Y25.7526
G01 X49.2467 Y25.7744
G01 X49.2578 Y25.8069
G01 X49.2673 Y25.8400
G01 X49.2767 Y25.8803
G01 X49.2815 Y25.9072
G01 X49.2860 Y25.9413
G01 X49.2896 Y25.9902
G01 X49.2902 Y26.0172
G01 X49.2902 Y26.3157
G01 X49.3107 Y26.3306
G01 X49.3555 Y26.3659
G01 X49.4013 Y26.4059
G01 X49.4385 Y26.4415
G01 X49.4840 Y26.4896
G01 X49.5222 Y26.5345
G01 X49.5529 Y26.5739
G01 X49.5918 Y26.6295
G01 X49.6154 Y26.6668
G01 X49.6448 Y26.7179
G01 X49.6779 Y26.7836
G01 X49.7000 Y26.8342
G01 X49.7173 Y26.8788
G01 X49.7361 Y26.9346
G01 X49.7557 Y27.0056
G01 X49.7669 Y27.0556
G01 X49.7758 Y27.1067
G01 X49.7834 Y27.1651
G01 X49.7881 Y27.2238
G01 X49.7899 Y27.2974
G01 X49.7881 Y27.3562
G01 X49.7836 Y27.4132
G01 X49.7780 Y27.4588
G01 X49.7669 Y27.5244
G01 X49.7522 Y27.5887
G01 X49.7404 Y27.6313
G01 X49.7222 Y27.6873
G01 X49.7000 Y27.7458
G01 X49.6719 Y27.8090
G01 X49.6448 Y27.8621
G01 X49.6162 Y27.9120
G01 X49.5918 Y27.9505
G01 X49.5529 Y28.0061
G01 X49.5129 Y28.0569
G01 X49.4840 Y28.0904
G01 X49.4437 Y28.1333
G01 X49.4013 Y28.1741
G01 X49.3455 Y28.2222
G01 X49.3061 Y28.2529
G01 X49.2628 Y28.2836
G01 X49.2132 Y28.3154
G01 X49.1621 Y28.3448
G01 X49.0964 Y28.3779
G01 X49.0458 Y28.4000
G01 X49.0012 Y28.4173
G01 X48.9454 Y28.4361
G01 X48.8887 Y28.4522
G01 X48.8244 Y28.4669
G01 X48.7588 Y28.4780
G01 X48.7149 Y28.4834
G01 X48.6562 Y28.4881
G01 X48.5900 Y28.4900
G01 X48.5238 Y28.4881
G01 X48.4668 Y28.4836
G01 X48.4212 Y28.4780
G01 X48.3556 Y28.4669
G01 X48.3056 Y28.4557
G01 X48.2487 Y28.4404
G01 X48.1788 Y28.4173
G01 X48.1342 Y28.4000
G01 X48.0836 Y28.3779
G01 X48.0179 Y28.3448
G01 X47.9680 Y28.3162
G01 X47.9295 Y28.2918
G01 X47.8739 Y28.2529
G01 X47.8245 Y28.2141
G01 X47.7896 Y28.1840
G01 X47.7415 Y28.1385
G01 X47.6960 Y28.0904
G01 X47.6578 Y28.0455
G01 X47.6271 Y28.0061
G01 X47.5882 Y27.9505
G01 X47.5646 Y27.9132
G01 X47.5352 Y27.8621
G01 X47.5021 Y27.7964
G01 X47.4800 Y27.7458
G01 X47.4627 Y27.7012
G01 X47.4396 Y27.6313
G01 X47.4243 Y27.5744
G01 X47.4131 Y27.5244
G01 X47.4042 Y27.4733
G01 X47.3966 Y27.4149
G01 X47.3912 Y27.3415
G01 X47.3900 Y27.2900
G01 X47.3912 Y27.2385
G01 X47.3951 Y27.1797
G01 X47.4020 Y27.1212
G01 X47.4146 Y27.0487
G01 X47.4278 Y26.9913
G01 X47.4439 Y26.9346
G01 X47.4578 Y26.8927
G01 X47.4786 Y26.8376
G01 X47.5084 Y26.7703
G01 X47.5352 Y26.7179
G01 X47.5638 Y26.6680
G01 X47.5882 Y26.6295
G01 X47.6218 Y26.5811
G01 X47.6659 Y26.5245
G01 X47.7059 Y26.4787
G01 X47.7415 Y26.4415
G01 X47.7787 Y26.4059
G01 X47.8231 Y26.3671
G01 X47.8693 Y26.3306
G01 X47.8898 Y26.3157
G01 X47.8898 Y26.3072
G01 X47.5728 Y25.9902
G01 X45.3800 Y25.9902
G01 X45.2698 Y26.1003
G01 X45.2298 Y26.1365
G01 X45.1984 Y26.1614
G01 X45.1751 Y26.1780
G01 X45.1336 Y26.2043
G01 X45.1035 Y26.2209
G01 X45.0727 Y26.2360
G01 X45.0446 Y26.2483
G01 X45.0228 Y26.2567
G01 X44.9762 Y26.2721
G01 X44.9430 Y26.2809
G01 X44.9169 Y26.2867
G01 X44.8900 Y26.2914
G01 X44.8559 Y26.2960
G01 X44.8217 Y26.2989
G01 X44.7800 Y26.3002
G01 X44.7383 Y26.2989
G01 X44.7058 Y26.2962
G01 X44.6700 Y26.2914
G01 X44.6431 Y26.2867
G01 X44.6170 Y26.2809
G01 X44.5838 Y26.2721
G01 X44.5372 Y26.2567
G01 X44.5154 Y26.2483
G01 X44.4873 Y26.2360
G01 X44.4565 Y26.2209
G01 X44.4264 Y26.2043
G01 X44.3972 Y26.1862
G01 X44.3616 Y26.1614
G01 X44.3316 Y26.1377
G01 X44.3153 Y26.1237
G01 X44.2902 Y26.1003
G01 X44.1800 Y25.9902
G01 X42.8400 Y25.9902
G01 X42.7298 Y26.1003
G01 X42.6898 Y26.1365
G01 X42.6584 Y26.1614
G01 X42.6351 Y26.1780
G01 X42.5936 Y26.2043
G01 X42.5635 Y26.2209
G01 X42.5327 Y26.2360
G01 X42.5046 Y26.2483
G01 X42.4828 Y26.2567
G01 X42.4362 Y26.2721
G01 X42.4030 Y26.2809
G01 X42.3769 Y26.2867
G01 X42.3500 Y26.2914
G01 X42.3159 Y26.2960
G01 X42.2817 Y26.2989
G01 X42.2400 Y26.3002
G01 X42.1983 Y26.2989
G01 X42.1658 Y26.2962
G01 X42.1300 Y26.2914
G01 X42.1031 Y26.2867
G01 X42.0770 Y26.2809
G01 X42.0438 Y26.2721
G01 X41.9972 Y26.2567
G01 X41.9754 Y26.2483
G01 X41.9473 Y26.2360
G01 X41.9165 Y26.2209
G01 X41.8864 Y26.2043
G01 X41.8572 Y26.1862
G01 X41.8216 Y26.1614
G01 X41.7916 Y26.1377
G01 X41.7753 Y26.1237
G01 X41.7502 Y26.1003
G01 X41.6400 Y25.9902
G01 X40.3000 Y25.9902
G01 X40.1898 Y26.1003
G01 X40.1498 Y26.1365
G01 X40.1184 Y26.1614
G01 X40.0951 Y26.1780
G01 X40.0536 Y26.2043
G01 X40.0235 Y26.2209
G01 X39.9927 Y26.2360
G01 X39.9646 Y26.2483
G01 X39.9428 Y26.2567
G01 X39.8962 Y26.2721
G01 X39.8630 Y26.2809
G01 X39.8369 Y26.2867
G01 X39.8100 Y26.2914
G01 X39.7759 Y26.2960
G01 X39.7417 Y26.2989
G01 X39.7000 Y26.3002
G01 X39.6583 Y26.2989
G01 X39.6258 Y26.2962
G01 X39.5900 Y26.2914
G01 X39.5631 Y26.2867
G01 X39.5370 Y26.2809
G01 X39.5038 Y26.2721
G01 X39.4572 Y26.2567
G01 X39.4354 Y26.2483
G01 X39.4073 Y26.2360
G01 X39.3765 Y26.2209
G01 X39.3464 Y26.2043
G01 X39.3172 Y26.1862
G01 X39.2816 Y26.1614
G01 X39.2516 Y26.1377
G01 X39.2353 Y26.1237
G01 X39.2102 Y26.1003
G01 X39.1000 Y25.9902
G01 X37.7600 Y25.9902
G01 X37.6498 Y26.1003
G01 X37.6098 Y26.1365
G01 X37.5784 Y26.1614
G01 X37.5551 Y26.1780
G01 X37.5136 Y26.2043
G01 X37.4835 Y26.2209
G01 X37.4527 Y26.2360
G01 X37.4246 Y26.2483
G01 X37.4028 Y26.2567
G01 X37.3562 Y26.2721
G01 X37.3230 Y26.2809
G01 X37.2969 Y26.2867
G01 X37.2700 Y26.2914
G01 X37.2359 Y26.2960
G01 X37.2017 Y26.2989
G01 X37.1600 Y26.3002
G01 X37.1183 Y26.2989
G01 X37.0858 Y26.2962
G01 X37.0500 Y26.2914
G01 X37.0231 Y26.2867
G01 X36.9970 Y26.2809
G01 X36.9638 Y26.2721
G01 X36.9172 Y26.2567
G01 X36.8954 Y26.2483
G01 X36.8673 Y26.2360
G01 X36.8365 Y26.2209
G01 X36.8064 Y26.2043
G01 X36.7772 Y26.1862
G01 X36.7416 Y26.1614
G01 X36.7116 Y26.1377
G01 X36.6953 Y26.1237
G01 X36.6702 Y26.1003
G01 X36.5600 Y25.9902
G01 X35.2200 Y25.9902
G01 X35.1098 Y26.1003
G01 X35.0698 Y26.1365
G01 X35.0384 Y26.1614
G01 X35.0151 Y26.1780
G01 X34.9736 Y26.2043
G01 X34.9435 Y26.2209
G01 X34.9127 Y26.2360
G01 X34.8846 Y26.2483
G01 X34.8628 Y26.2567
G01 X34.8162 Y26.2721
G01 X34.7830 Y26.2809
G01 X34.7569 Y26.2867
G01 X34.7300 Y26.2914
G01 X34.6959 Y26.2960
G01 X34.6617 Y26.2989
G01 X34.6200 Y26.3002
G01 X34.5783 Y26.2989
G01 X34.5458 Y26.2962
G01 X34.5100 Y26.2914
G01 X34.4831 Y26.2867
G01 X34.4570 Y26.2809
G01 X34.4238 Y26.2721
G01 X34.3772 Y26.2567
G01 X34.3554 Y26.2483
G01 X34.3273 Y26.2360
G01 X34.2965 Y26.2209
G01 X34.2664 Y26.2043
G01 X34.2372 Y26.1862
G01 X34.2016 Y26.1614
G01 X34.1716 Y26.1377
G01 X34.1553 Y26.1237
G01 X34.1302 Y26.1003
G01 X34.0200 Y25.9902
G01 X32.6800 Y25.9902
G01 X31.7002 Y26.9700
G01 X31.7002 Y39.2500
G01 X31.6996 Y39.2770
G01 X31.6975 Y39.3113
G01 X31.6936 Y39.3454
G01 X31.6881 Y39.3794
G01 X31.6773 Y39.4273
G01 X31.6617 Y39.4789
G01 X31.6440 Y39.5247
G01 X31.6301 Y39.5553
G01 X31.6209 Y39.5735
G01 X31.5975 Y39.6150
G01 X31.5862 Y39.6328
G01 X31.5667 Y39.6611
G01 X31.5377 Y39.6984
G01 X31.5237 Y39.7147
G01 X31.5003 Y39.7398
G01 X30.1201 Y41.1201
G01 X30.1006 Y41.1388
G01 X30.0748 Y41.1615
G01 X30.0434 Y41.1864
G01 X30.0201 Y41.2030
G01 X29.9912 Y41.2217
G01 X29.9615 Y41.2390
G01 X29.9303 Y41.2551
G01 X29.8997 Y41.2690
G01 X29.8678 Y41.2817
G01 X29.8353 Y41.2928
G01 X29.8023 Y41.3023
G01 X29.7544 Y41.3131
G01 X29.7204 Y41.3186
G01 X29.6863 Y41.3225
G01 X29.6520 Y41.3246
G01 X29.6250 Y41.3252
G01 X25.0690 Y41.3252
G01 X23.5938 Y42.8003
G01 X23.5687 Y42.8237
G01 X23.5425 Y42.8459
G01 X23.5151 Y42.8667
G01 X23.4868 Y42.8862
G01 X23.4576 Y42.9043
G01 X23.4275 Y42.9209
G01 X23.3967 Y42.9360
G01 X23.3686 Y42.9483
G01 X23.3329 Y42.9617
G01 X23.3002 Y42.9721
G01 X23.2670 Y42.9809
G01 X23.2409 Y42.9867
G01 X23.2140 Y42.9915
G01 X23.1800 Y42.9960
G01 X23.1457 Y42.9989
G01 X23.1114 Y43.0001
G01 X20.8960 Y43.0002
G01 X20.8690 Y42.9996
G01 X20.8347 Y42.9975
G01 X20.8006 Y42.9936
G01 X20.7522 Y42.9852
G01 X20.7187 Y42.9773
G01 X20.6857 Y42.9678
G01 X20.6532 Y42.9567
G01 X20.6314 Y42.9483
G01 X20.6033 Y42.9360
G01 X20.5725 Y42.9209
G01 X20.5310 Y42.8975
G01 X20.5009 Y42.8780
G01 X20.4776 Y42.8614
G01 X20.4575 Y42.8459
G01 X20.4313 Y42.8237
G01 X20.4009 Y42.7951
G01 X18.9310 Y41.3252
G01 X13.9592 Y41.3252
G01 X13.9259 Y41.3674
G01 X13.8970 Y41.4009
G01 X13.8528 Y41.4478
G01 X13.8059 Y41.4920
G01 X13.7738 Y41.5197
G01 X13.7290 Y41.5552
G01 X13.6825 Y41.5883
G01 X13.6218 Y41.6268
G01 X13.5720 Y41.6546
G01 X13.5334 Y41.6740
G01 X13.4821 Y41.6971
G01 X13.4289 Y41.7180
G01 X13.3607 Y41.7405
G01 X13.3056 Y41.7554
G01 X13.2573 Y41.7662
G01 X13.2080 Y41.7748
G01 X13.1367 Y41.7836
G01 X13.0797 Y41.7875
G01 X13.0300 Y41.7886
G01 X12.9803 Y41.7875
G01 X12.9233 Y41.7836
G01 X12.8666 Y41.7770
G01 X12.8102 Y41.7676
G01 X12.7401 Y41.7519
G01 X12.6852 Y41.7363
G01 X12.6311 Y41.7180
G01 X12.5881 Y41.7014
G01 X12.5266 Y41.6740
G01 X12.4750 Y41.6477
G01 X12.4267 Y41.6200
G01 X12.3775 Y41.5883
G01 X12.3356 Y41.5586
G01 X12.2876 Y41.5209
G01 X12.2541 Y41.4920
G01 X12.2072 Y41.4478
G01 X12.1728 Y41.4118
G01 X12.1353 Y41.3688
G01 X12.0998 Y41.3240
G01 X12.0585 Y41.2653
G01 X12.0282 Y41.2168
G01 X12.0004 Y41.1670
G01 X11.9751 Y41.1158
G01 X11.9536 Y41.0669
G01 X11.9370 Y41.0239
G01 X11.9187 Y40.9698
G01 X11.9031 Y40.9149
G01 X11.8903 Y40.8592
G01 X11.8802 Y40.8030
G01 X11.8728 Y40.7464
G01 X11.8677 Y40.6747
G00 Z1.0000
G00 X11.8677 Y43.2147
G01 F50.00
G01 Z-0.1000
G01 F150.00
G01 X11.8664 Y43.1650
G01 X11.8675 Y43.1153
G01 X11.8728 Y43.0436
G01 X11.8802 Y42.9870
G01 X11.8888 Y42.9377
G01 X11.8996 Y42.8894
G01 X11.9145 Y42.8343
G01 X11.9370 Y42.7661
G01 X11.9536 Y42.7231
G01 X11.9810 Y42.6616
G01 X12.0073 Y42.6100
G01 X12.0350 Y42.5617
G01 X12.0585 Y42.5247
G01 X12.0911 Y42.4778
G01 X12.1341 Y42.4226
G01 X12.1728 Y42.3782
G01 X12.2072 Y42.3422
G01 X12.2432 Y42.3078
G01 X12.2862 Y42.2703
G01 X12.3428 Y42.2261
G01 X12.3897 Y42.1935
G01 X12.4382 Y42.1632
G01 X12.4880 Y42.1354
G01 X12.5266 Y42.1160
G01 X12.5881 Y42.0886
G01 X12.6311 Y42.0720
G01 X12.6993 Y42.0495
G01 X12.7401 Y42.0381
G01 X12.7958 Y42.0253
G01 X12.8666 Y42.0130
G01 X12.9086 Y42.0078
G01 X12.9656 Y42.0033
G01 X13.0300 Y42.0014
G01 X13.0797 Y42.0025
G01 X13.1367 Y42.0064
G01 X13.2080 Y42.0152
G01 X13.2573 Y42.0238
G01 X13.3056 Y42.0346
G01 X13.3748 Y42.0537
G01 X13.4150 Y42.0670
G01 X13.4685 Y42.0872
G01 X13.5334 Y42.1160
G01 X13.5720 Y42.1354
G01 X13.6218 Y42.1632
G01 X13.6825 Y42.2017
G01 X13.7244 Y42.2314
G01 X13.7624 Y42.2609
G01 X13.8168 Y42.3078
G01 X13.8528 Y42.3422
G01 X13.8872 Y42.3782
G01 X13.9247 Y42.4212
G01 X13.9592 Y42.4648
G01 X16.5991 Y42.4648
G01 X16.6128 Y42.4294
G01 X16.6409 Y42.3654
G01 X16.6807 Y42.2865
G01 X16.7165 Y42.2238
G01 X16.7488 Y42.1728
