(G-CODE GENERATED BY FLATCAM v8.99 - www.flatcam.org - Version Date: 2019/12/15)

(Name: drill_front_cnc)
(Type: G-code from Excellon)
(Units: MM)

(Created on Saturday, 07 March 2020 at 09:11)

(Feedrate: 50.0 mm/min)
(Feedrate rapids 76.2 mm/min)

(Z_Cut: -2.0 mm)
(Z_Move: 1.0 mm)
(Z Toolchange: 20.0 mm)
(X,Y Toolchange: 0.0000, 0.0000 mm)
(Z Start: None mm)
(Z End: 20.0 mm)
(Steps per circle: 128)
(Preprocessor Excellon: default)

(X range:   -0.4000 ...   60.4000  mm)
(Y range:   -0.4000 ...   60.4000  mm)

(Spindle Speed: 12000.0 RPM)
G21
G90
G94




G01 F50.00
G00 Z1.0000

M03 S12000.0
G00 X0.0000 Y60.0000
G01 Z-2.0000
G01 Z0
G00 Z1.0000
G00 X5.0000 Y54.0000
G01 Z-2.0000
G01 Z0
G00 Z1.0000
G00 X5.1650 Y43.1650
G01 Z-2.0000
G01 Z0
G00 Z1.0000
G00 X6.4750 Y37.0000
G01 Z-2.0000
G01 Z0
G00 Z1.0000
G00 X14.3000 Y27.2900
G01 Z-2.0000
G01 Z0
G00 Z1.0000
G00 X3.0000 Y12.0000
G01 Z-2.0000
G01 Z0
G00 Z1.0000
G00 X0.0000 Y0.0000
G01 Z-2.0000
G01 Z0
G00 Z1.0000
G00 X25.0000 Y23.0000
G01 Z-2.0000
G01 Z0
G00 Z1.0000
G00 X60.0000 Y0.0000
G01 Z-2.0000
G01 Z0
G00 Z1.0000
G00 X57.0000 Y23.0000
G01 Z-2.0000
G01 Z0
G00 Z1.0000
G00 X57.0000 Y55.0000
G01 Z-2.0000
G01 Z0
G00 Z1.0000
G00 X60.0000 Y60.0000
G01 Z-2.0000
G01 Z0
G00 Z1.0000
G00 X51.1300 Y57.8700
G01 Z-2.0000
G01 Z0
G00 Z1.0000
G00 X41.6080 Y58.0250
G01 Z-2.0000
G01 Z0
G00 Z1.0000
G00 X25.0000 Y55.0000
G01 Z-2.0000
G01 Z0
G00 Z1.0000
G00 X21.2850 Y48.2450
G01 Z-2.0000
G01 Z0
G00 Z1.0000
G00 X22.0000 Y45.0000
G01 Z-2.0000
G01 Z0
G00 Z1.0000
G00 X22.0000 Y40.0000
G01 Z-2.0000
G01 Z0
G00 Z1.0000
G00 X24.0000 Y37.0000
G01 Z-2.0000
G01 Z0
G00 Z1.0000
G00 X18.1100 Y34.9100
G01 Z-2.0000
G01 Z0
G00 Z1.0000
G00 X18.0000 Y43.0000
G01 Z-2.0000
G01 Z0
G00 Z1.0000
M03 S12000.0
G00 X33.3500 Y50.1500
G01 Z-2.0000
G01 Z0
G00 Z1.0000
G00 X35.8900 Y50.1500
G01 Z-2.0000
G01 Z0
G00 Z1.0000
G00 X38.4300 Y50.1500
G01 Z-2.0000
G01 Z0
G00 Z1.0000
G00 X40.9700 Y50.1500
G01 Z-2.0000
G01 Z0
G00 Z1.0000
G00 X43.5100 Y50.1500
G01 Z-2.0000
G01 Z0
G00 Z1.0000
G00 X46.0500 Y50.1500
G01 Z-2.0000
G01 Z0
G00 Z1.0000
G00 X48.5900 Y50.1500
G01 Z-2.0000
G01 Z0
G00 Z1.0000
G00 X51.1300 Y50.1500
G01 Z-2.0000
G01 Z0
G00 Z1.0000
G00 X51.1300 Y27.2900
G01 Z-2.0000
G01 Z0
G00 Z1.0000
G00 X48.5900 Y27.2900
G01 Z-2.0000
G01 Z0
G00 Z1.0000
G00 X46.0500 Y27.2900
G01 Z-2.0000
G01 Z0
G00 Z1.0000
G00 X43.5100 Y27.2900
G01 Z-2.0000
G01 Z0
G00 Z1.0000
G00 X40.9700 Y27.2900
G01 Z-2.0000
G01 Z0
G00 Z1.0000
G00 X38.4300 Y27.2900
G01 Z-2.0000
G01 Z0
G00 Z1.0000
G00 X35.8900 Y27.2900
G01 Z-2.0000
G01 Z0
G00 Z1.0000
G00 X33.3500 Y27.2900
G01 Z-2.0000
G01 Z0
G00 Z1.0000
G00 X30.8100 Y17.1300
G01 Z-2.0000
G01 Z0
G00 Z1.0000
G00 X33.3500 Y17.1300
G01 Z-2.0000
G01 Z0
G00 Z1.0000
G00 X35.8900 Y17.1300
G01 Z-2.0000
G01 Z0
G00 Z1.0000
G00 X38.4300 Y17.1300
G01 Z-2.0000
G01 Z0
G00 Z1.0000
G00 X40.9700 Y17.1300
G01 Z-2.0000
G01 Z0
G00 Z1.0000
G00 X43.5100 Y17.1300
G01 Z-2.0000
G01 Z0
G00 Z1.0000
G00 X46.0500 Y17.1300
G01 Z-2.0000
G01 Z0
G00 Z1.0000
G00 X48.5900 Y17.1300
G01 Z-2.0000
G01 Z0
G00 Z1.0000
G00 X51.1300 Y17.1300
G01 Z-2.0000
G01 Z0
G00 Z1.0000
G00 X53.6700 Y17.1300
G01 Z-2.0000
G01 Z0
G00 Z1.0000
G00 X53.6700 Y1.8900
G01 Z-2.0000
G01 Z0
G00 Z1.0000
G00 X51.1300 Y1.8900
G01 Z-2.0000
G01 Z0
G00 Z1.0000
G00 X48.5900 Y1.8900
G01 Z-2.0000
G01 Z0
G00 Z1.0000
G00 X46.0500 Y1.8900
G01 Z-2.0000
G01 Z0
G00 Z1.0000
G00 X43.5100 Y1.8900
G01 Z-2.0000
G01 Z0
G00 Z1.0000
G00 X40.9700 Y1.8900
G01 Z-2.0000
G01 Z0
G00 Z1.0000
G00 X38.4300 Y1.8900
G01 Z-2.0000
G01 Z0
G00 Z1.0000
G00 X35.8900 Y1.8900
G01 Z-2.0000
G01 Z0
G00 Z1.0000
G00 X33.3500 Y1.8900
G01 Z-2.0000
G01 Z0
G00 Z1.0000
G00 X30.8100 Y1.8900
G01 Z-2.0000
G01 Z0
G00 Z1.0000
G00 X28.2700 Y1.8900
G01 Z-2.0000
G01 Z0
G00 Z1.0000
G00 X25.7300 Y1.8900
G01 Z-2.0000
G01 Z0
G00 Z1.0000
G00 X23.1900 Y1.8900
G01 Z-2.0000
G01 Z0
G00 Z1.0000
G00 X20.6500 Y1.8900
G01 Z-2.0000
G01 Z0
G00 Z1.0000
G00 X18.1100 Y1.8900
G01 Z-2.0000
G01 Z0
G00 Z1.0000
G00 X28.2700 Y17.1300
G01 Z-2.0000
G01 Z0
G00 Z1.0000
G00 X25.7300 Y17.1300
G01 Z-2.0000
G01 Z0
G00 Z1.0000
G00 X23.1900 Y17.1300
G01 Z-2.0000
G01 Z0
G00 Z1.0000
G00 X20.6500 Y17.1300
G01 Z-2.0000
G01 Z0
G00 Z1.0000
G00 X18.1100 Y17.1300
G01 Z-2.0000
G01 Z0
G00 Z1.0000
G00 X13.0300 Y35.5450
G01 Z-2.0000
G01 Z0
G00 Z1.0000
G00 X10.4900 Y35.5450
G01 Z-2.0000
G01 Z0
G00 Z1.0000
G00 X10.4900 Y38.0850
G01 Z-2.0000
G01 Z0
G00 Z1.0000
G00 X10.4900 Y40.6250
G01 Z-2.0000
G01 Z0
G00 Z1.0000
G00 X10.4900 Y43.1650
G01 Z-2.0000
G01 Z0
G00 Z1.0000
G00 X10.4900 Y45.7050
G01 Z-2.0000
G01 Z0
G00 Z1.0000
G00 X10.4900 Y48.2450
G01 Z-2.0000
G01 Z0
G00 Z1.0000
G00 X10.4900 Y50.7850
G01 Z-2.0000
G01 Z0
G00 Z1.0000
G00 X10.4900 Y53.3250
G01 Z-2.0000
G01 Z0
G00 Z1.0000
G00 X13.0300 Y53.3250
G01 Z-2.0000
G01 Z0
G00 Z1.0000
G00 X13.0300 Y50.7850
G01 Z-2.0000
G01 Z0
G00 Z1.0000
G00 X13.0300 Y48.2450
G01 Z-2.0000
G01 Z0
G00 Z1.0000
G00 X13.0300 Y45.7050
G01 Z-2.0000
G01 Z0
G00 Z1.0000
G00 X13.0300 Y43.1650
G01 Z-2.0000
G01 Z0
G00 Z1.0000
G00 X13.0300 Y40.6250
G01 Z-2.0000
G01 Z0
G00 Z1.0000
G00 X13.0300 Y38.0850
G01 Z-2.0000
G01 Z0
G00 Z1.0000
M03 S12000.0
G00 X7.9500 Y6.9700
G01 Z-2.0000
G01 Z0
G00 Z1.0000
G00 X7.9500 Y3.4700
G01 Z-2.0000
G01 Z0
G00 Z1.0000
M03 S12000.0
G00 X9.2200 Y27.2900
G01 Z-2.0000
G01 Z0
G00 Z1.0000
G00 X9.2200 Y12.0500
G01 Z-2.0000
G01 Z0
G00 Z1.0000
M05
G00 Z20.00
G00 X0.0 Y0.0

