(G-CODE GENERATED BY FLATCAM v8.99 - www.flatcam.org - Version Date: 2019/12/15)

(Name: edge_cut)
(Type: G-code from Geometry)
(Units: MM)

(Created on Saturday, 07 March 2020 at 09:09)

(TOOL DIAMETER: 1.0 mm)
(Feedrate: 200.0 mm/min)
(Feedrate_Z: 76.2 mm/min)
(Feedrate rapids 76.2 mm/min)

(Z_Cut: -1.8 mm)
(DepthPerCut: 0.6 mm <=>3 passes)
(Z_Move: 1.0 mm)
(Z Toolchange: 20.0 mm)
(X,Y Toolchange: 0.0000, 0.0000 mm)
(Z Start: None mm)
(Z End: 20.0 mm)
(Steps per circle: 128)
(Preprocessor Geometry: default)

(X range:   -1.0000 ...   61.0000  mm)
(Y range:   -1.0000 ...   61.0000  mm)

(Spindle Speed: 12000 RPM)
G21
G90
G94




G01 F200.00
G00 Z1.0000

M03 S12000
G00 X29.0000 Y-1.0000
G01 F76.20
G01 Z-0.6000
G01 F200.00
G01 X-0.5000 Y-1.0000
G01 X-0.5490 Y-0.9976
G01 X-0.5975 Y-0.9904
G01 X-0.6451 Y-0.9785
G01 X-0.6913 Y-0.9619
G01 X-0.7357 Y-0.9410
G01 X-0.7778 Y-0.9157
G01 X-0.8172 Y-0.8865
G01 X-0.8536 Y-0.8536
G01 X-0.8865 Y-0.8172
G01 X-0.9157 Y-0.7778
G01 X-0.9410 Y-0.7357
G01 X-0.9619 Y-0.6913
G01 X-0.9785 Y-0.6451
G01 X-0.9904 Y-0.5975
G01 X-0.9976 Y-0.5490
G01 X-1.0000 Y-0.5000
G01 X-1.0000 Y29.0000
G00 X-1.0000 Y29.0000
G01 F76.20
G01 Z-1.2000
G01 F200.00
G01 X-1.0000 Y-0.5000
G01 X-0.9976 Y-0.5490
G01 X-0.9904 Y-0.5975
G01 X-0.9785 Y-0.6451
G01 X-0.9619 Y-0.6913
G01 X-0.9410 Y-0.7357
G01 X-0.9157 Y-0.7778
G01 X-0.8865 Y-0.8172
G01 X-0.8536 Y-0.8536
G01 X-0.8172 Y-0.8865
G01 X-0.7778 Y-0.9157
G01 X-0.7357 Y-0.9410
G01 X-0.6913 Y-0.9619
G01 X-0.6451 Y-0.9785
G01 X-0.5975 Y-0.9904
G01 X-0.5490 Y-0.9976
G01 X-0.5000 Y-1.0000
G01 X29.0000 Y-1.0000
G00 X29.0000 Y-1.0000
G01 F76.20
G01 Z-1.8000
G01 F200.00
G01 X-0.5000 Y-1.0000
G01 X-0.5490 Y-0.9976
G01 X-0.5975 Y-0.9904
G01 X-0.6451 Y-0.9785
G01 X-0.6913 Y-0.9619
G01 X-0.7357 Y-0.9410
G01 X-0.7778 Y-0.9157
G01 X-0.8172 Y-0.8865
G01 X-0.8536 Y-0.8536
G01 X-0.8865 Y-0.8172
G01 X-0.9157 Y-0.7778
G01 X-0.9410 Y-0.7357
G01 X-0.9619 Y-0.6913
G01 X-0.9785 Y-0.6451
G01 X-0.9904 Y-0.5975
G01 X-0.9976 Y-0.5490
G01 X-1.0000 Y-0.5000
G01 X-1.0000 Y29.0000
G00 Z1.0000
G00 X-1.0000 Y31.0000
G01 F76.20
G01 Z-0.6000
G01 F200.00
G01 X-1.0000 Y60.5000
G01 X-0.9976 Y60.5490
G01 X-0.9904 Y60.5975
G01 X-0.9785 Y60.6451
G01 X-0.9619 Y60.6913
G01 X-0.9410 Y60.7357
G01 X-0.9157 Y60.7778
G01 X-0.8865 Y60.8172
G01 X-0.8536 Y60.8536
G01 X-0.8172 Y60.8865
G01 X-0.7778 Y60.9157
G01 X-0.7357 Y60.9410
G01 X-0.6913 Y60.9619
G01 X-0.6451 Y60.9785
G01 X-0.5975 Y60.9904
G01 X-0.5490 Y60.9976
G01 X-0.5000 Y61.0000
G01 X29.0000 Y61.0000
G00 X29.0000 Y61.0000
G01 F76.20
G01 Z-1.2000
G01 F200.00
G01 X-0.5000 Y61.0000
G01 X-0.5490 Y60.9976
G01 X-0.5975 Y60.9904
G01 X-0.6451 Y60.9785
G01 X-0.6913 Y60.9619
G01 X-0.7357 Y60.9410
G01 X-0.7778 Y60.9157
G01 X-0.8172 Y60.8865
G01 X-0.8536 Y60.8536
G01 X-0.8865 Y60.8172
G01 X-0.9157 Y60.7778
G01 X-0.9410 Y60.7357
G01 X-0.9619 Y60.6913
G01 X-0.9785 Y60.6451
G01 X-0.9904 Y60.5975
G01 X-0.9976 Y60.5490
G01 X-1.0000 Y60.5000
G01 X-1.0000 Y31.0000
G00 X-1.0000 Y31.0000
G01 F76.20
G01 Z-1.8000
G01 F200.00
G01 X-1.0000 Y60.5000
G01 X-0.9976 Y60.5490
G01 X-0.9904 Y60.5975
G01 X-0.9785 Y60.6451
G01 X-0.9619 Y60.6913
G01 X-0.9410 Y60.7357
G01 X-0.9157 Y60.7778
G01 X-0.8865 Y60.8172
G01 X-0.8536 Y60.8536
G01 X-0.8172 Y60.8865
G01 X-0.7778 Y60.9157
G01 X-0.7357 Y60.9410
G01 X-0.6913 Y60.9619
G01 X-0.6451 Y60.9785
G01 X-0.5975 Y60.9904
G01 X-0.5490 Y60.9976
G01 X-0.5000 Y61.0000
G01 X29.0000 Y61.0000
G00 Z1.0000
G00 X31.0000 Y61.0000
G01 F76.20
G01 Z-0.6000
G01 F200.00
G01 X60.5000 Y61.0000
G01 X60.5490 Y60.9976
G01 X60.5975 Y60.9904
G01 X60.6451 Y60.9785
G01 X60.6913 Y60.9619
G01 X60.7357 Y60.9410
G01 X60.7778 Y60.9157
G01 X60.8172 Y60.8865
G01 X60.8536 Y60.8536
G01 X60.8865 Y60.8172
G01 X60.9157 Y60.7778
G01 X60.9410 Y60.7357
G01 X60.9619 Y60.6913
G01 X60.9785 Y60.6451
G01 X60.9904 Y60.5975
G01 X60.9976 Y60.5490
G01 X61.0000 Y60.5000
G01 X61.0000 Y31.0000
G00 X61.0000 Y31.0000
G01 F76.20
G01 Z-1.2000
G01 F200.00
G01 X61.0000 Y60.5000
G01 X60.9976 Y60.5490
G01 X60.9904 Y60.5975
G01 X60.9785 Y60.6451
G01 X60.9619 Y60.6913
G01 X60.9410 Y60.7357
G01 X60.9157 Y60.7778
G01 X60.8865 Y60.8172
G01 X60.8536 Y60.8536
G01 X60.8172 Y60.8865
G01 X60.7778 Y60.9157
G01 X60.7357 Y60.9410
G01 X60.6913 Y60.9619
G01 X60.6451 Y60.9785
G01 X60.5975 Y60.9904
G01 X60.5490 Y60.9976
G01 X60.5000 Y61.0000
G01 X31.0000 Y61.0000
G00 X31.0000 Y61.0000
G01 F76.20
G01 Z-1.8000
G01 F200.00
G01 X60.5000 Y61.0000
G01 X60.5490 Y60.9976
G01 X60.5975 Y60.9904
G01 X60.6451 Y60.9785
G01 X60.6913 Y60.9619
G01 X60.7357 Y60.9410
G01 X60.7778 Y60.9157
G01 X60.8172 Y60.8865
G01 X60.8536 Y60.8536
G01 X60.8865 Y60.8172
G01 X60.9157 Y60.7778
G01 X60.9410 Y60.7357
G01 X60.9619 Y60.6913
G01 X60.9785 Y60.6451
G01 X60.9904 Y60.5975
G01 X60.9976 Y60.5490
G01 X61.0000 Y60.5000
G01 X61.0000 Y31.0000
G00 Z1.0000
G00 X61.0000 Y29.0000
G01 F76.20
G01 Z-0.6000
G01 F200.00
G01 X61.0000 Y-0.5000
G01 X60.9976 Y-0.5490
G01 X60.9904 Y-0.5975
G01 X60.9785 Y-0.6451
G01 X60.9619 Y-0.6913
G01 X60.9410 Y-0.7357
G01 X60.9157 Y-0.7778
G01 X60.8865 Y-0.8172
G01 X60.8536 Y-0.8536
G01 X60.8172 Y-0.8865
G01 X60.7778 Y-0.9157
G01 X60.7357 Y-0.9410
G01 X60.6913 Y-0.9619
G01 X60.6451 Y-0.9785
G01 X60.5975 Y-0.9904
G01 X60.5490 Y-0.9976
G01 X60.5000 Y-1.0000
G00 X60.5000 Y-1.0000
G01 F76.20
G01 Z-1.2000
G01 F200.00
G01 X60.5490 Y-0.9976
G01 X60.5975 Y-0.9904
G01 X60.6451 Y-0.9785
G01 X60.6913 Y-0.9619
G01 X60.7357 Y-0.9410
G01 X60.7778 Y-0.9157
G01 X60.8172 Y-0.8865
G01 X60.8536 Y-0.8536
G01 X60.8865 Y-0.8172
G01 X60.9157 Y-0.7778
G01 X60.9410 Y-0.7357
G01 X60.9619 Y-0.6913
G01 X60.9785 Y-0.6451
G01 X60.9904 Y-0.5975
G01 X60.9976 Y-0.5490
G01 X61.0000 Y-0.5000
G01 X61.0000 Y29.0000
G00 X61.0000 Y29.0000
G01 F76.20
G01 Z-1.8000
G01 F200.00
G01 X61.0000 Y-0.5000
G01 X60.9976 Y-0.5490
G01 X60.9904 Y-0.5975
G01 X60.9785 Y-0.6451
G01 X60.9619 Y-0.6913
G01 X60.9410 Y-0.7357
G01 X60.9157 Y-0.7778
G01 X60.8865 Y-0.8172
G01 X60.8536 Y-0.8536
G01 X60.8172 Y-0.8865
G01 X60.7778 Y-0.9157
G01 X60.7357 Y-0.9410
G01 X60.6913 Y-0.9619
G01 X60.6451 Y-0.9785
G01 X60.5975 Y-0.9904
G01 X60.5490 Y-0.9976
G01 X60.5000 Y-1.0000
G00 Z1.0000
G00 X60.5000 Y-1.0000
G01 F76.20
G01 Z-0.6000
G01 F200.00
G01 X31.0000 Y-1.0000
G00 X31.0000 Y-1.0000
G01 F76.20
G01 Z-1.2000
G01 F200.00
G01 X60.5000 Y-1.0000
G00 X60.5000 Y-1.0000
G01 F76.20
G01 Z-1.8000
G01 F200.00
G01 X31.0000 Y-1.0000
G00 Z1.0000
M05
G00 Z1.0000
G00 Z20.00
G00 X0.0 Y0.0

