(G-CODE GENERATED BY FLATCAM v8.99 - www.flatcam.org - Version Date: 2019/12/15)

(Name: front_copper)
(Type: G-code from Geometry)
(Units: MM)

(Created on Saturday, 07 March 2020 at 09:10)

(TOOL DIAMETER: 0.6 mm)
(Feedrate: 150.0 mm/min)
(Feedrate_Z: 50.0 mm/min)
(Feedrate rapids 76.2 mm/min)

(Z_Cut: -0.1 mm)
(Z_Move: 1.0 mm)
(Z Toolchange: 20.0 mm)
(X,Y Toolchange: 0.0000, 0.0000 mm)
(Z Start: None mm)
(Z End: 20.0 mm)
(Steps per circle: 128)
(Preprocessor Geometry: default)

(X range:   -0.8000 ...   60.8000  mm)
(Y range:   -0.8000 ...   60.8000  mm)

(Spindle Speed: 12000 RPM)
G21
G90
G94




G01 F150.00
G00 Z1.0000

M03 S12000
G00 X0.8000 Y0.0037
G01 F50.00
G01 Z-0.1000
G01 F150.00
G01 X0.7990 Y0.0393
G01 X0.7961 Y0.0784
G01 X0.7913 Y0.1174
G01 X0.7846 Y0.1561
G01 X0.7760 Y0.1944
G01 X0.7656 Y0.2322
G01 X0.7532 Y0.2695
G01 X0.7391 Y0.3061
G01 X0.7232 Y0.3420
G01 X0.7055 Y0.3771
G01 X0.6862 Y0.4113
G01 X0.6652 Y0.4445
G01 X0.6426 Y0.4766
G01 X0.6184 Y0.5075
G01 X0.5928 Y0.5372
G01 X0.5657 Y0.5657
G01 X0.5372 Y0.5928
G01 X0.5075 Y0.6184
G01 X0.4766 Y0.6426
G01 X0.4445 Y0.6652
G01 X0.4113 Y0.6862
G01 X0.3771 Y0.7055
G01 X0.3420 Y0.7232
G01 X0.3061 Y0.7391
G01 X0.2695 Y0.7532
G01 X0.2322 Y0.7656
G01 X0.1944 Y0.7760
G01 X0.1561 Y0.7846
G01 X0.1174 Y0.7913
G01 X0.0784 Y0.7961
G01 X0.0393 Y0.7990
G01 X-0.0000 Y0.8000
G01 X-0.0393 Y0.7990
G01 X-0.0784 Y0.7961
G01 X-0.1174 Y0.7913
G01 X-0.1561 Y0.7846
G01 X-0.1944 Y0.7760
G01 X-0.2322 Y0.7656
G01 X-0.2695 Y0.7532
G01 X-0.3061 Y0.7391
G01 X-0.3420 Y0.7232
G01 X-0.3771 Y0.7055
G01 X-0.4113 Y0.6862
G01 X-0.4445 Y0.6652
G01 X-0.4766 Y0.6426
G01 X-0.5075 Y0.6184
G01 X-0.5372 Y0.5928
G01 X-0.5657 Y0.5657
G01 X-0.5928 Y0.5372
G01 X-0.6184 Y0.5075
G01 X-0.6426 Y0.4766
G01 X-0.6652 Y0.4445
G01 X-0.6862 Y0.4113
G01 X-0.7055 Y0.3771
G01 X-0.7232 Y0.3420
G01 X-0.7391 Y0.3061
G01 X-0.7532 Y0.2695
G01 X-0.7656 Y0.2322
G01 X-0.7760 Y0.1944
G01 X-0.7846 Y0.1561
G01 X-0.7913 Y0.1174
G01 X-0.7961 Y0.0784
G01 X-0.7990 Y0.0393
G01 X-0.8000 Y-0.0000
G01 X-0.7990 Y-0.0393
G01 X-0.7961 Y-0.0784
G01 X-0.7913 Y-0.1174
G01 X-0.7846 Y-0.1561
G01 X-0.7760 Y-0.1944
G01 X-0.7656 Y-0.2322
G01 X-0.7532 Y-0.2695
G01 X-0.7391 Y-0.3061
G01 X-0.7232 Y-0.3420
G01 X-0.7055 Y-0.3771
G01 X-0.6862 Y-0.4113
G01 X-0.6652 Y-0.4445
G01 X-0.6426 Y-0.4766
G01 X-0.6184 Y-0.5075
G01 X-0.5928 Y-0.5372
G01 X-0.5657 Y-0.5657
G01 X-0.5372 Y-0.5928
G01 X-0.5075 Y-0.6184
G01 X-0.4766 Y-0.6426
G01 X-0.4445 Y-0.6652
G01 X-0.4113 Y-0.6862
G01 X-0.3771 Y-0.7055
G01 X-0.3420 Y-0.7232
G01 X-0.3061 Y-0.7391
G01 X-0.2695 Y-0.7532
G01 X-0.2322 Y-0.7656
G01 X-0.1944 Y-0.7760
G01 X-0.1561 Y-0.7846
G01 X-0.1174 Y-0.7913
G01 X-0.0784 Y-0.7961
G01 X-0.0393 Y-0.7990
G01 X0.0000 Y-0.8000
G01 X0.0393 Y-0.7990
G01 X0.0784 Y-0.7961
G01 X0.1174 Y-0.7913
G01 X0.1561 Y-0.7846
G01 X0.1944 Y-0.7760
G01 X0.2322 Y-0.7656
G01 X0.2695 Y-0.7532
G01 X0.3061 Y-0.7391
G01 X0.3420 Y-0.7232
G01 X0.3771 Y-0.7055
G01 X0.4113 Y-0.6862
G01 X0.4445 Y-0.6652
G01 X0.4766 Y-0.6426
G01 X0.5075 Y-0.6184
G01 X0.5372 Y-0.5928
G01 X0.5657 Y-0.5657
G01 X0.5928 Y-0.5372
G01 X0.6184 Y-0.5075
G01 X0.6426 Y-0.4766
G01 X0.6652 Y-0.4445
G01 X0.6862 Y-0.4113
G01 X0.7055 Y-0.3771
G01 X0.7232 Y-0.3420
G01 X0.7391 Y-0.3061
G01 X0.7532 Y-0.2695
G01 X0.7656 Y-0.2322
G01 X0.7760 Y-0.1944
G01 X0.7846 Y-0.1561
G01 X0.7913 Y-0.1174
G01 X0.7961 Y-0.0784
G01 X0.7990 Y-0.0393
G01 X0.8000 Y0.0037
G00 Z1.0000
G00 X6.7353 Y5.4704
G01 F50.00
G01 Z-0.1000
G01 F150.00
G01 X9.1647 Y5.4704
G01 X9.1940 Y5.4732
G01 X9.2229 Y5.4790
G01 X9.2511 Y5.4875
G01 X9.2783 Y5.4988
G01 X9.3042 Y5.5127
G01 X9.3287 Y5.5290
G01 X9.3515 Y5.5477
G01 X9.3723 Y5.5685
G01 X9.3910 Y5.5913
G01 X9.4073 Y5.6158
G01 X9.4212 Y5.6417
G01 X9.4272 Y5.6552
G01 X9.4371 Y5.6829
G01 X9.4442 Y5.7115
G01 X9.4486 Y5.7406
G01 X9.4496 Y5.7553
G01 X9.4500 Y8.1700
G01 X9.4486 Y8.1994
G01 X9.4442 Y8.2285
G01 X9.4371 Y8.2571
G01 X9.4272 Y8.2848
G01 X9.4146 Y8.3114
G01 X9.3994 Y8.3367
G01 X9.3819 Y8.3603
G01 X9.3723 Y8.3715
G01 X9.3515 Y8.3923
G01 X9.3287 Y8.4110
G01 X9.3042 Y8.4273
G01 X9.2783 Y8.4412
G01 X9.2648 Y8.4472
G01 X9.2371 Y8.4571
G01 X9.2085 Y8.4642
G01 X9.1794 Y8.4686
G01 X9.1647 Y8.4696
G01 X6.7500 Y8.4700
G01 X6.7206 Y8.4686
G01 X6.6915 Y8.4642
G01 X6.6629 Y8.4571
G01 X6.6352 Y8.4472
G01 X6.6086 Y8.4346
G01 X6.5833 Y8.4194
G01 X6.5713 Y8.4110
G01 X6.5485 Y8.3923
G01 X6.5277 Y8.3715
G01 X6.5090 Y8.3487
G01 X6.5006 Y8.3367
G01 X6.4854 Y8.3114
G01 X6.4728 Y8.2848
G01 X6.4629 Y8.2571
G01 X6.4558 Y8.2285
G01 X6.4514 Y8.1994
G01 X6.4504 Y8.1847
G01 X6.4504 Y5.7553
G01 X6.4532 Y5.7260
G01 X6.4590 Y5.6971
G01 X6.4675 Y5.6689
G01 X6.4788 Y5.6417
G01 X6.4927 Y5.6158
G01 X6.5006 Y5.6033
G01 X6.5181 Y5.5797
G01 X6.5379 Y5.5579
G01 X6.5597 Y5.5381
G01 X6.5833 Y5.5206
G01 X6.6086 Y5.5054
G01 X6.6352 Y5.4928
G01 X6.6489 Y5.4875
G01 X6.6771 Y5.4790
G01 X6.7060 Y5.4732
G01 X6.7353 Y5.4704
G00 Z1.0000
G00 X6.3339 Y8.1279
G01 F50.00
G01 Z-0.1000
G01 F150.00
G01 X6.3339 Y5.8121
G01 X6.3733 Y5.6140
G01 X6.4617 Y5.4817
G01 X6.5940 Y5.3933
G01 X6.7921 Y5.3539
G01 X9.1079 Y5.3539
G01 X9.3060 Y5.3933
G01 X9.4383 Y5.4817
G01 X9.5267 Y5.6140
G01 X9.5661 Y5.8121
G01 X9.5661 Y8.1279
G01 X9.5267 Y8.3260
G01 X9.4383 Y8.4583
G01 X9.3060 Y8.5467
G01 X9.1079 Y8.5861
G01 X6.7921 Y8.5861
G01 X6.5940 Y8.5467
G01 X6.4617 Y8.4583
G01 X6.3733 Y8.3260
G01 X6.3339 Y8.1279
G00 Z1.0000
G00 X9.2274 Y10.3501
G01 F50.00
G01 Z-0.1000
G01 F150.00
G01 X9.3034 Y10.3520
G01 X9.3866 Y10.3582
G01 X9.4694 Y10.3684
G01 X9.5517 Y10.3827
G01 X9.6331 Y10.4009
G01 X9.7135 Y10.4232
G01 X9.7927 Y10.4494
G01 X9.8706 Y10.4794
G01 X9.9468 Y10.5132
G01 X10.0214 Y10.5507
G01 X10.0940 Y10.5919
G01 X10.1645 Y10.6365
G01 X10.2327 Y10.6845
G01 X10.2985 Y10.7359
G01 X10.3616 Y10.7904
G01 X10.4221 Y10.8479
G01 X10.4796 Y10.9084
G01 X10.5341 Y10.9715
G01 X10.5855 Y11.0373
G01 X10.6335 Y11.1055
G01 X10.6781 Y11.1760
G01 X10.7193 Y11.2486
G01 X10.7568 Y11.3232
G01 X10.7906 Y11.3994
G01 X10.8206 Y11.4773
G01 X10.8468 Y11.5565
G01 X10.8691 Y11.6369
G01 X10.8873 Y11.7183
G01 X10.9016 Y11.8006
G01 X10.9118 Y11.8834
G01 X10.9180 Y11.9666
G01 X10.9200 Y12.0537
G01 X10.9180 Y12.1334
G01 X10.9118 Y12.2166
G01 X10.9016 Y12.2994
G01 X10.8873 Y12.3817
G01 X10.8691 Y12.4631
G01 X10.8468 Y12.5435
G01 X10.8206 Y12.6227
G01 X10.7906 Y12.7006
G01 X10.7568 Y12.7768
G01 X10.7193 Y12.8514
G01 X10.6781 Y12.9240
G01 X10.6335 Y12.9945
G01 X10.5855 Y13.0627
G01 X10.5341 Y13.1285
G01 X10.4796 Y13.1916
G01 X10.4221 Y13.2521
G01 X10.3616 Y13.3096
G01 X10.2985 Y13.3641
G01 X10.2327 Y13.4155
G01 X10.1645 Y13.4635
G01 X10.0940 Y13.5081
G01 X10.0214 Y13.5493
G01 X9.9468 Y13.5868
G01 X9.8706 Y13.6206
G01 X9.7927 Y13.6506
G01 X9.7135 Y13.6768
G01 X9.6331 Y13.6991
G01 X9.5517 Y13.7173
G01 X9.4694 Y13.7316
G01 X9.3866 Y13.7418
G01 X9.3034 Y13.7480
G01 X9.2200 Y13.7500
G01 X9.1366 Y13.7480
G01 X9.0534 Y13.7418
G01 X8.9706 Y13.7316
G01 X8.8883 Y13.7173
G01 X8.8069 Y13.6991
G01 X8.7265 Y13.6768
G01 X8.6473 Y13.6506
G01 X8.5694 Y13.6206
G01 X8.4932 Y13.5868
G01 X8.4186 Y13.5493
G01 X8.3460 Y13.5081
G01 X8.2755 Y13.4635
G01 X8.2073 Y13.4155
G01 X8.1415 Y13.3641
G01 X8.0784 Y13.3096
G01 X8.0179 Y13.2521
G01 X7.9604 Y13.1916
G01 X7.9059 Y13.1285
G01 X7.8545 Y13.0627
G01 X7.8065 Y12.9945
G01 X7.7619 Y12.9240
G01 X7.7207 Y12.8514
G01 X7.6832 Y12.7768
G01 X7.6494 Y12.7006
G01 X7.6194 Y12.6227
G01 X7.5932 Y12.5435
G01 X7.5709 Y12.4631
G01 X7.5527 Y12.3817
G01 X7.5384 Y12.2994
G01 X7.5282 Y12.2166
G01 X7.5220 Y12.1334
G01 X7.5200 Y12.0500
G01 X7.5220 Y11.9666
G01 X7.5282 Y11.8834
G01 X7.5384 Y11.8006
G01 X7.5527 Y11.7183
G01 X7.5709 Y11.6369
G01 X7.5932 Y11.5565
G01 X7.6194 Y11.4773
G01 X7.6494 Y11.3994
G01 X7.6832 Y11.3232
G01 X7.7207 Y11.2486
G01 X7.7619 Y11.1760
G01 X7.8065 Y11.1055
G01 X7.8545 Y11.0373
G01 X7.9059 Y10.9715
G01 X7.9604 Y10.9084
G01 X8.0179 Y10.8479
G01 X8.0784 Y10.7904
G01 X8.1415 Y10.7359
G01 X8.2073 Y10.6845
G01 X8.2755 Y10.6365
G01 X8.3460 Y10.5919
G01 X8.4186 Y10.5507
G01 X8.4932 Y10.5132
G01 X8.5694 Y10.4794
G01 X8.6473 Y10.4494
G01 X8.7265 Y10.4232
G01 X8.8069 Y10.4009
G01 X8.8883 Y10.3827
G01 X8.9706 Y10.3684
G01 X9.0534 Y10.3582
G01 X9.1366 Y10.3520
G01 X9.2274 Y10.3501
G00 Z1.0000
G00 X7.3848 Y12.0500
G01 F50.00
G01 Z-0.1000
G01 F150.00
G01 X7.5245 Y11.3477
G01 X7.9223 Y10.7523
G01 X8.5177 Y10.3545
G01 X9.0427 Y10.2501
G01 X9.3973 Y10.2501
G01 X9.9223 Y10.3545
G01 X10.5177 Y10.7523
G01 X10.9155 Y11.3477
G01 X11.0552 Y12.0500
G01 X10.9155 Y12.7523
G01 X10.5177 Y13.3477
G01 X9.9223 Y13.7455
G01 X9.3973 Y13.8499
G01 X9.0427 Y13.8499
G01 X8.5177 Y13.7455
G01 X7.9223 Y13.3477
G01 X7.5245 Y12.7523
G01 X7.3848 Y12.0500
G00 Z1.0000
G00 X16.8465 Y17.3813
G01 F50.00
G01 Z-0.1000
G01 F150.00
G01 X16.8465 Y16.8787
G01 X17.0388 Y16.4143
G01 X17.3943 Y16.0588
G01 X17.8587 Y15.8665
G01 X18.3613 Y15.8665
G01 X18.8257 Y16.0588
G01 X19.1812 Y16.4143
G01 X19.3735 Y16.8787
G01 X19.3735 Y17.3813
G01 X19.1812 Y17.8457
G01 X18.8257 Y18.2012
G01 X18.3613 Y18.3935
G01 X17.8587 Y18.3935
G01 X17.3943 Y18.2012
G01 X17.0388 Y17.8457
G01 X16.8465 Y17.3813
G00 Z1.0000
G00 X19.2736 Y17.1337
G01 F50.00
G01 Z-0.1000
G01 F150.00
G01 X19.2722 Y17.1871
G01 X19.2680 Y17.2440
G01 X19.2610 Y17.3007
G01 X19.2512 Y17.3570
G01 X19.2387 Y17.4127
G01 X19.2235 Y17.4678
G01 X19.2056 Y17.5220
G01 X19.1850 Y17.5753
G01 X19.1619 Y17.6275
G01 X19.1362 Y17.6785
G01 X19.1081 Y17.7282
G01 X19.0775 Y17.7765
G01 X19.0446 Y17.8232
G01 X19.0095 Y17.8682
G01 X18.9722 Y17.9114
G01 X18.9328 Y17.9528
G01 X18.8914 Y17.9922
G01 X18.8482 Y18.0295
G01 X18.8032 Y18.0646
G01 X18.7565 Y18.0975
G01 X18.7082 Y18.1281
G01 X18.6585 Y18.1562
G01 X18.6075 Y18.1819
G01 X18.5553 Y18.2050
G01 X18.5020 Y18.2256
G01 X18.4478 Y18.2435
G01 X18.3927 Y18.2587
G01 X18.3370 Y18.2712
G01 X18.2807 Y18.2810
G01 X18.2240 Y18.2880
G01 X18.1671 Y18.2922
G01 X18.1100 Y18.2936
G01 X18.0529 Y18.2922
G01 X17.9960 Y18.2880
G01 X17.9393 Y18.2810
G01 X17.8830 Y18.2712
G01 X17.8273 Y18.2587
G01 X17.7722 Y18.2435
G01 X17.7180 Y18.2256
G01 X17.6647 Y18.2050
G01 X17.6125 Y18.1819
G01 X17.5615 Y18.1562
G01 X17.5118 Y18.1281
G01 X17.4635 Y18.0975
G01 X17.4168 Y18.0646
G01 X17.3718 Y18.0295
G01 X17.3286 Y17.9922
G01 X17.2872 Y17.9528
G01 X17.2478 Y17.9114
G01 X17.2105 Y17.8682
G01 X17.1754 Y17.8232
G01 X17.1425 Y17.7765
G01 X17.1119 Y17.7282
G01 X17.0838 Y17.6785
G01 X17.0581 Y17.6275
G01 X17.0350 Y17.5753
G01 X17.0144 Y17.5220
G01 X16.9965 Y17.4678
G01 X16.9813 Y17.4127
G01 X16.9688 Y17.3570
G01 X16.9590 Y17.3007
G01 X16.9520 Y17.2440
G01 X16.9478 Y17.1871
G01 X16.9464 Y17.1300
G01 X16.9478 Y17.0729
G01 X16.9520 Y17.0160
G01 X16.9590 Y16.9593
G01 X16.9688 Y16.9030
G01 X16.9813 Y16.8473
G01 X16.9965 Y16.7922
G01 X17.0144 Y16.7380
G01 X17.0350 Y16.6847
G01 X17.0581 Y16.6325
G01 X17.0838 Y16.5815
G01 X17.1119 Y16.5318
G01 X17.1425 Y16.4835
G01 X17.1754 Y16.4368
G01 X17.2105 Y16.3918
G01 X17.2478 Y16.3486
G01 X17.2872 Y16.3072
G01 X17.3286 Y16.2678
G01 X17.3718 Y16.2305
G01 X17.4168 Y16.1954
G01 X17.4635 Y16.1625
G01 X17.5118 Y16.1319
G01 X17.5615 Y16.1038
G01 X17.6125 Y16.0781
G01 X17.6647 Y16.0550
G01 X17.7180 Y16.0344
G01 X17.7722 Y16.0165
G01 X17.8273 Y16.0013
G01 X17.8830 Y15.9888
G01 X17.9393 Y15.9790
G01 X17.9960 Y15.9720
G01 X18.0529 Y15.9678
G01 X18.1100 Y15.9664
G01 X18.1671 Y15.9678
G01 X18.2240 Y15.9720
G01 X18.2807 Y15.9790
G01 X18.3370 Y15.9888
G01 X18.3927 Y16.0013
G01 X18.4478 Y16.0165
G01 X18.5020 Y16.0344
G01 X18.5553 Y16.0550
G01 X18.6075 Y16.0781
G01 X18.6585 Y16.1038
G01 X18.7082 Y16.1319
G01 X18.7565 Y16.1625
G01 X18.8032 Y16.1954
G01 X18.8482 Y16.2305
G01 X18.8914 Y16.2678
G01 X18.9328 Y16.3072
G01 X18.9722 Y16.3486
G01 X19.0095 Y16.3918
G01 X19.0446 Y16.4368
G01 X19.0775 Y16.4835
G01 X19.1081 Y16.5318
G01 X19.1362 Y16.5815
G01 X19.1619 Y16.6325
G01 X19.1850 Y16.6847
G01 X19.2056 Y16.7380
G01 X19.2235 Y16.7922
G01 X19.2387 Y16.8473
G01 X19.2512 Y16.9030
G01 X19.2610 Y16.9593
G01 X19.2680 Y17.0160
G01 X19.2722 Y17.0729
G01 X19.2736 Y17.1337
G00 Z1.0000
G00 X24.3536 Y17.1337
G01 F50.00
G01 Z-0.1000
G01 F150.00
G01 X24.3522 Y17.1871
G01 X24.3480 Y17.2440
G01 X24.3410 Y17.3007
G01 X24.3312 Y17.3570
G01 X24.3187 Y17.4127
G01 X24.3035 Y17.4678
G01 X24.2856 Y17.5220
G01 X24.2650 Y17.5753
G01 X24.2419 Y17.6275
G01 X24.2162 Y17.6785
G01 X24.1881 Y17.7282
G01 X24.1575 Y17.7765
G01 X24.1246 Y17.8232
G01 X24.0895 Y17.8682
G01 X24.0522 Y17.9114
G01 X24.0128 Y17.9528
G01 X23.9714 Y17.9922
G01 X23.9282 Y18.0295
G01 X23.8832 Y18.0646
G01 X23.8365 Y18.0975
G01 X23.7882 Y18.1281
G01 X23.7385 Y18.1562
G01 X23.6875 Y18.1819
G01 X23.6353 Y18.2050
G01 X23.5820 Y18.2256
G01 X23.5278 Y18.2435
G01 X23.4727 Y18.2587
G01 X23.4170 Y18.2712
G01 X23.3607 Y18.2810
G01 X23.3040 Y18.2880
G01 X23.2471 Y18.2922
G01 X23.1900 Y18.2936
G01 X23.1329 Y18.2922
G01 X23.0760 Y18.2880
G01 X23.0193 Y18.2810
G01 X22.9630 Y18.2712
G01 X22.9073 Y18.2587
G01 X22.8522 Y18.2435
G01 X22.7980 Y18.2256
G01 X22.7447 Y18.2050
G01 X22.6925 Y18.1819
G01 X22.6415 Y18.1562
G01 X22.5918 Y18.1281
G01 X22.5435 Y18.0975
G01 X22.4968 Y18.0646
G01 X22.4518 Y18.0295
G01 X22.4086 Y17.9922
G01 X22.3672 Y17.9528
G01 X22.3278 Y17.9114
G01 X22.2905 Y17.8682
G01 X22.2554 Y17.8232
G01 X22.2225 Y17.7765
G01 X22.1919 Y17.7282
G01 X22.1638 Y17.6785
G01 X22.1381 Y17.6275
G01 X22.1150 Y17.5753
G01 X22.0944 Y17.5220
G01 X22.0765 Y17.4678
G01 X22.0613 Y17.4127
G01 X22.0488 Y17.3570
G01 X22.0390 Y17.3007
G01 X22.0320 Y17.2440
G01 X22.0278 Y17.1871
G01 X22.0264 Y17.1300
G01 X22.0278 Y17.0729
G01 X22.0320 Y17.0160
G01 X22.0390 Y16.9593
G01 X22.0488 Y16.9030
G01 X22.0613 Y16.8473
G01 X22.0765 Y16.7922
G01 X22.0944 Y16.7380
G01 X22.1150 Y16.6847
G01 X22.1381 Y16.6325
G01 X22.1638 Y16.5815
G01 X22.1919 Y16.5318
G01 X22.2225 Y16.4835
G01 X22.2554 Y16.4368
G01 X22.2905 Y16.3918
G01 X22.3278 Y16.3486
G01 X22.3672 Y16.3072
G01 X22.4086 Y16.2678
G01 X22.4518 Y16.2305
G01 X22.4968 Y16.1954
G01 X22.5435 Y16.1625
G01 X22.5918 Y16.1319
G01 X22.6415 Y16.1038
G01 X22.6925 Y16.0781
G01 X22.7447 Y16.0550
G01 X22.7980 Y16.0344
G01 X22.8522 Y16.0165
G01 X22.9073 Y16.0013
G01 X22.9630 Y15.9888
G01 X23.0193 Y15.9790
G01 X23.0760 Y15.9720
G01 X23.1329 Y15.9678
G01 X23.1900 Y15.9664
G01 X23.2471 Y15.9678
G01 X23.3040 Y15.9720
G01 X23.3607 Y15.9790
G01 X23.4170 Y15.9888
G01 X23.4727 Y16.0013
G01 X23.5278 Y16.0165
G01 X23.5820 Y16.0344
G01 X23.6353 Y16.0550
G01 X23.6875 Y16.0781
G01 X23.7385 Y16.1038
G01 X23.7882 Y16.1319
G01 X23.8365 Y16.1625
G01 X23.8832 Y16.1954
G01 X23.9282 Y16.2305
G01 X23.9714 Y16.2678
G01 X24.0128 Y16.3072
G01 X24.0522 Y16.3486
G01 X24.0895 Y16.3918
G01 X24.1246 Y16.4368
G01 X24.1575 Y16.4835
G01 X24.1881 Y16.5318
G01 X24.2162 Y16.5815
G01 X24.2419 Y16.6325
G01 X24.2650 Y16.6847
G01 X24.2856 Y16.7380
G01 X24.3035 Y16.7922
G01 X24.3187 Y16.8473
G01 X24.3312 Y16.9030
G01 X24.3410 Y16.9593
G01 X24.3480 Y17.0160
G01 X24.3522 Y17.0729
G01 X24.3536 Y17.1337
G00 Z1.0000
G00 X29.4336 Y17.1337
G01 F50.00
G01 Z-0.1000
G01 F150.00
G01 X29.4322 Y17.1871
G01 X29.4280 Y17.2440
G01 X29.4210 Y17.3007
G01 X29.4112 Y17.3570
G01 X29.3987 Y17.4127
G01 X29.3835 Y17.4678
G01 X29.3656 Y17.5220
G01 X29.3450 Y17.5753
G01 X29.3219 Y17.6275
G01 X29.2962 Y17.6785
G01 X29.2681 Y17.7282
G01 X29.2375 Y17.7765
G01 X29.2046 Y17.8232
G01 X29.1695 Y17.8682
G01 X29.1322 Y17.9114
G01 X29.0928 Y17.9528
G01 X29.0514 Y17.9922
G01 X29.0082 Y18.0295
G01 X28.9632 Y18.0646
G01 X28.9165 Y18.0975
G01 X28.8682 Y18.1281
G01 X28.8185 Y18.1562
G01 X28.7675 Y18.1819
G01 X28.7153 Y18.2050
G01 X28.6620 Y18.2256
G01 X28.6078 Y18.2435
G01 X28.5527 Y18.2587
G01 X28.4970 Y18.2712
G01 X28.4407 Y18.2810
G01 X28.3840 Y18.2880
G01 X28.3271 Y18.2922
G01 X28.2700 Y18.2936
G01 X28.2129 Y18.2922
G01 X28.1560 Y18.2880
G01 X28.0993 Y18.2810
G01 X28.0430 Y18.2712
G01 X27.9873 Y18.2587
G01 X27.9322 Y18.2435
G01 X27.8780 Y18.2256
G01 X27.8247 Y18.2050
G01 X27.7725 Y18.1819
G01 X27.7215 Y18.1562
G01 X27.6718 Y18.1281
G01 X27.6235 Y18.0975
G01 X27.5768 Y18.0646
G01 X27.5318 Y18.0295
G01 X27.4886 Y17.9922
G01 X27.4472 Y17.9528
G01 X27.4078 Y17.9114
G01 X27.3705 Y17.8682
G01 X27.3354 Y17.8232
G01 X27.3025 Y17.7765
G01 X27.2719 Y17.7282
G01 X27.2438 Y17.6785
G01 X27.2181 Y17.6275
G01 X27.1950 Y17.5753
G01 X27.1744 Y17.5220
G01 X27.1565 Y17.4678
G01 X27.1413 Y17.4127
G01 X27.1288 Y17.3570
G01 X27.1190 Y17.3007
G01 X27.1120 Y17.2440
G01 X27.1078 Y17.1871
G01 X27.1064 Y17.1300
G01 X27.1078 Y17.0729
G01 X27.1120 Y17.0160
G01 X27.1190 Y16.9593
G01 X27.1288 Y16.9030
G01 X27.1413 Y16.8473
G01 X27.1565 Y16.7922
G01 X27.1744 Y16.7380
G01 X27.1950 Y16.6847
G01 X27.2181 Y16.6325
G01 X27.2438 Y16.5815
G01 X27.2719 Y16.5318
G01 X27.3025 Y16.4835
G01 X27.3354 Y16.4368
G01 X27.3705 Y16.3918
G01 X27.4078 Y16.3486
G01 X27.4472 Y16.3072
G01 X27.4886 Y16.2678
G01 X27.5318 Y16.2305
G01 X27.5768 Y16.1954
G01 X27.6235 Y16.1625
G01 X27.6718 Y16.1319
G01 X27.7215 Y16.1038
G01 X27.7725 Y16.0781
G01 X27.8247 Y16.0550
G01 X27.8780 Y16.0344
G01 X27.9322 Y16.0165
G01 X27.9873 Y16.0013
G01 X28.0430 Y15.9888
G01 X28.0993 Y15.9790
G01 X28.1560 Y15.9720
G01 X28.2129 Y15.9678
G01 X28.2700 Y15.9664
G01 X28.3271 Y15.9678
G01 X28.3840 Y15.9720
G01 X28.4407 Y15.9790
G01 X28.4970 Y15.9888
G01 X28.5527 Y16.0013
G01 X28.6078 Y16.0165
G01 X28.6620 Y16.0344
G01 X28.7153 Y16.0550
G01 X28.7675 Y16.0781
G01 X28.8185 Y16.1038
G01 X28.8682 Y16.1319
G01 X28.9165 Y16.1625
G01 X28.9632 Y16.1954
G01 X29.0082 Y16.2305
G01 X29.0514 Y16.2678
G01 X29.0928 Y16.3072
G01 X29.1322 Y16.3486
G01 X29.1695 Y16.3918
G01 X29.2046 Y16.4368
G01 X29.2375 Y16.4835
G01 X29.2681 Y16.5318
G01 X29.2962 Y16.5815
G01 X29.3219 Y16.6325
G01 X29.3450 Y16.6847
G01 X29.3656 Y16.7380
G01 X29.3835 Y16.7922
G01 X29.3987 Y16.8473
G01 X29.4112 Y16.9030
G01 X29.4210 Y16.9593
G01 X29.4280 Y17.0160
G01 X29.4322 Y17.0729
G01 X29.4336 Y17.1337
G00 Z1.0000
G00 X31.9736 Y17.1337
G01 F50.00
G01 Z-0.1000
G01 F150.00
G01 X31.9722 Y17.1871
G01 X31.9680 Y17.2440
G01 X31.9610 Y17.3007
G01 X31.9512 Y17.3570
G01 X31.9387 Y17.4127
G01 X31.9235 Y17.4678
G01 X31.9056 Y17.5220
G01 X31.8850 Y17.5753
G01 X31.8619 Y17.6275
G01 X31.8362 Y17.6785
G01 X31.8081 Y17.7282
G01 X31.7775 Y17.7765
G01 X31.7446 Y17.8232
G01 X31.7095 Y17.8682
G01 X31.6722 Y17.9114
G01 X31.6328 Y17.9528
G01 X31.5914 Y17.9922
G01 X31.5482 Y18.0295
G01 X31.5032 Y18.0646
G01 X31.4565 Y18.0975
G01 X31.4082 Y18.1281
G01 X31.3585 Y18.1562
G01 X31.3075 Y18.1819
G01 X31.2553 Y18.2050
G01 X31.2020 Y18.2256
G01 X31.1478 Y18.2435
G01 X31.0927 Y18.2587
G01 X31.0370 Y18.2712
G01 X30.9807 Y18.2810
G01 X30.9240 Y18.2880
G01 X30.8671 Y18.2922
G01 X30.8100 Y18.2936
G01 X30.7529 Y18.2922
G01 X30.6960 Y18.2880
G01 X30.6393 Y18.2810
G01 X30.5830 Y18.2712
G01 X30.5273 Y18.2587
G01 X30.4722 Y18.2435
G01 X30.4180 Y18.2256
G01 X30.3647 Y18.2050
G01 X30.3125 Y18.1819
G01 X30.2615 Y18.1562
G01 X30.2118 Y18.1281
G01 X30.1635 Y18.0975
G01 X30.1168 Y18.0646
G01 X30.0718 Y18.0295
G01 X30.0286 Y17.9922
G01 X29.9872 Y17.9528
G01 X29.9478 Y17.9114
G01 X29.9105 Y17.8682
G01 X29.8754 Y17.8232
G01 X29.8425 Y17.7765
G01 X29.8119 Y17.7282
G01 X29.7838 Y17.6785
G01 X29.7581 Y17.6275
G01 X29.7350 Y17.5753
G01 X29.7144 Y17.5220
G01 X29.6965 Y17.4678
G01 X29.6813 Y17.4127
G01 X29.6688 Y17.3570
G01 X29.6590 Y17.3007
G01 X29.6520 Y17.2440
G01 X29.6478 Y17.1871
G01 X29.6464 Y17.1300
G01 X29.6478 Y17.0729
G01 X29.6520 Y17.0160
G01 X29.6590 Y16.9593
G01 X29.6688 Y16.9030
G01 X29.6813 Y16.8473
G01 X29.6965 Y16.7922
G01 X29.7144 Y16.7380
G01 X29.7350 Y16.6847
G01 X29.7581 Y16.6325
G01 X29.7838 Y16.5815
G01 X29.8119 Y16.5318
G01 X29.8425 Y16.4835
G01 X29.8754 Y16.4368
G01 X29.9105 Y16.3918
G01 X29.9478 Y16.3486
G01 X29.9872 Y16.3072
G01 X30.0286 Y16.2678
G01 X30.0718 Y16.2305
G01 X30.1168 Y16.1954
G01 X30.1635 Y16.1625
G01 X30.2118 Y16.1319
G01 X30.2615 Y16.1038
G01 X30.3125 Y16.0781
G01 X30.3647 Y16.0550
G01 X30.4180 Y16.0344
G01 X30.4722 Y16.0165
G01 X30.5273 Y16.0013
G01 X30.5830 Y15.9888
G01 X30.6393 Y15.9790
G01 X30.6960 Y15.9720
G01 X30.7529 Y15.9678
G01 X30.8100 Y15.9664
G01 X30.8671 Y15.9678
G01 X30.9240 Y15.9720
G01 X30.9807 Y15.9790
G01 X31.0370 Y15.9888
G01 X31.0927 Y16.0013
G01 X31.1478 Y16.0165
G01 X31.2020 Y16.0344
G01 X31.2553 Y16.0550
G01 X31.3075 Y16.0781
G01 X31.3585 Y16.1038
G01 X31.4082 Y16.1319
G01 X31.4565 Y16.1625
G01 X31.5032 Y16.1954
G01 X31.5482 Y16.2305
G01 X31.5914 Y16.2678
G01 X31.6328 Y16.3072
G01 X31.6722 Y16.3486
G01 X31.7095 Y16.3918
G01 X31.7446 Y16.4368
G01 X31.7775 Y16.4835
G01 X31.8081 Y16.5318
G01 X31.8362 Y16.5815
G01 X31.8619 Y16.6325
G01 X31.8850 Y16.6847
G01 X31.9056 Y16.7380
G01 X31.9235 Y16.7922
G01 X31.9387 Y16.8473
G01 X31.9512 Y16.9030
G01 X31.9610 Y16.9593
G01 X31.9680 Y17.0160
G01 X31.9722 Y17.0729
G01 X31.9736 Y17.1337
G00 Z1.0000
G00 X34.5136 Y17.1337
G01 F50.00
G01 Z-0.1000
G01 F150.00
G01 X34.5122 Y17.1871
G01 X34.5080 Y17.2441
G01 X34.5010 Y17.3007
G01 X34.4912 Y17.3570
G01 X34.4787 Y17.4127
G01 X34.4635 Y17.4678
G01 X34.4456 Y17.5220
G01 X34.4250 Y17.5753
G01 X34.4019 Y17.6275
G01 X34.3762 Y17.6785
G01 X34.3481 Y17.7282
G01 X34.3175 Y17.7765
G01 X34.2846 Y17.8232
G01 X34.2495 Y17.8682
G01 X34.2122 Y17.9114
G01 X34.1728 Y17.9528
G01 X34.1314 Y17.9922
G01 X34.0882 Y18.0295
G01 X34.0432 Y18.0646
G01 X33.9965 Y18.0975
G01 X33.9482 Y18.1281
G01 X33.8985 Y18.1562
G01 X33.8475 Y18.1819
G01 X33.7953 Y18.2050
G01 X33.7420 Y18.2256
G01 X33.6878 Y18.2435
G01 X33.6327 Y18.2587
G01 X33.5770 Y18.2712
G01 X33.5207 Y18.2810
G01 X33.4641 Y18.2880
G01 X33.4071 Y18.2922
G01 X33.3500 Y18.2936
G01 X33.2929 Y18.2922
G01 X33.2359 Y18.2880
G01 X33.1793 Y18.2810
G01 X33.1230 Y18.2712
G01 X33.0673 Y18.2587
G01 X33.0122 Y18.2435
G01 X32.9580 Y18.2256
G01 X32.9047 Y18.2050
G01 X32.8525 Y18.1819
G01 X32.8015 Y18.1562
G01 X32.7518 Y18.1281
G01 X32.7035 Y18.0975
G01 X32.6568 Y18.0646
G01 X32.6118 Y18.0295
G01 X32.5686 Y17.9922
G01 X32.5272 Y17.9528
G01 X32.4878 Y17.9114
G01 X32.4505 Y17.8682
G01 X32.4154 Y17.8232
G01 X32.3825 Y17.7765
G01 X32.3519 Y17.7282
G01 X32.3238 Y17.6785
G01 X32.2981 Y17.6275
G01 X32.2750 Y17.5753
G01 X32.2544 Y17.5220
G01 X32.2365 Y17.4678
G01 X32.2213 Y17.4127
G01 X32.2088 Y17.3570
G01 X32.1990 Y17.3007
G01 X32.1920 Y17.2441
G01 X32.1878 Y17.1871
G01 X32.1864 Y17.1300
G01 X32.1878 Y17.0729
G01 X32.1920 Y17.0159
G01 X32.1990 Y16.9593
G01 X32.2088 Y16.9030
G01 X32.2213 Y16.8473
G01 X32.2365 Y16.7922
G01 X32.2544 Y16.7380
G01 X32.2750 Y16.6847
G01 X32.2981 Y16.6325
G01 X32.3238 Y16.5815
G01 X32.3519 Y16.5318
G01 X32.3825 Y16.4835
G01 X32.4154 Y16.4368
G01 X32.4505 Y16.3918
G01 X32.4878 Y16.3486
G01 X32.5272 Y16.3072
G01 X32.5686 Y16.2678
G01 X32.6118 Y16.2305
G01 X32.6568 Y16.1954
G01 X32.7035 Y16.1625
G01 X32.7518 Y16.1319
G01 X32.8015 Y16.1038
G01 X32.8525 Y16.0781
G01 X32.9047 Y16.0550
G01 X32.9580 Y16.0344
G01 X33.0122 Y16.0165
G01 X33.0673 Y16.0013
G01 X33.1230 Y15.9888
G01 X33.1793 Y15.9790
G01 X33.2359 Y15.9720
G01 X33.2929 Y15.9678
G01 X33.3500 Y15.9664
G01 X33.4071 Y15.9678
G01 X33.4641 Y15.9720
G01 X33.5207 Y15.9790
G01 X33.5770 Y15.9888
G01 X33.6327 Y16.0013
G01 X33.6878 Y16.0165
G01 X33.7420 Y16.0344
G01 X33.7953 Y16.0550
G01 X33.8475 Y16.0781
G01 X33.8985 Y16.1038
G01 X33.9482 Y16.1319
G01 X33.9965 Y16.1625
G01 X34.0432 Y16.1954
G01 X34.0882 Y16.2305
G01 X34.1314 Y16.2678
G01 X34.1728 Y16.3072
G01 X34.2122 Y16.3486
G01 X34.2495 Y16.3918
G01 X34.2846 Y16.4368
G01 X34.3175 Y16.4835
G01 X34.3481 Y16.5318
G01 X34.3762 Y16.5815
G01 X34.4019 Y16.6325
G01 X34.4250 Y16.6847
G01 X34.4456 Y16.7380
G01 X34.4635 Y16.7922
G01 X34.4787 Y16.8473
G01 X34.4912 Y16.9030
G01 X34.5010 Y16.9593
G01 X34.5080 Y17.0159
G01 X34.5122 Y17.0729
G01 X34.5136 Y17.1337
G00 Z1.0000
G00 X37.0536 Y17.1337
G01 F50.00
G01 Z-0.1000
G01 F150.00
G01 X37.0522 Y17.1871
G01 X37.0480 Y17.2441
G01 X37.0410 Y17.3007
G01 X37.0312 Y17.3570
G01 X37.0187 Y17.4127
G01 X37.0035 Y17.4678
G01 X36.9856 Y17.5220
G01 X36.9650 Y17.5753
G01 X36.9419 Y17.6275
G01 X36.9162 Y17.6785
G01 X36.8881 Y17.7282
G01 X36.8575 Y17.7765
G01 X36.8246 Y17.8232
G01 X36.7895 Y17.8682
G01 X36.7522 Y17.9114
G01 X36.7128 Y17.9528
G01 X36.6714 Y17.9922
G01 X36.6282 Y18.0295
G01 X36.5832 Y18.0646
G01 X36.5365 Y18.0975
G01 X36.4882 Y18.1281
G01 X36.4385 Y18.1562
G01 X36.3875 Y18.1819
G01 X36.3353 Y18.2050
G01 X36.2820 Y18.2256
G01 X36.2278 Y18.2435
G01 X36.1727 Y18.2587
G01 X36.1170 Y18.2712
G01 X36.0607 Y18.2810
G01 X36.0041 Y18.2880
G01 X35.9471 Y18.2922
G01 X35.8900 Y18.2936
G01 X35.8329 Y18.2922
G01 X35.7759 Y18.2880
G01 X35.7193 Y18.2810
G01 X35.6630 Y18.2712
G01 X35.6073 Y18.2587
G01 X35.5522 Y18.2435
G01 X35.4980 Y18.2256
G01 X35.4447 Y18.2050
G01 X35.3925 Y18.1819
G01 X35.3415 Y18.1562
G01 X35.2918 Y18.1281
G01 X35.2435 Y18.0975
G01 X35.1968 Y18.0646
G01 X35.1518 Y18.0295
G01 X35.1086 Y17.9922
G01 X35.0672 Y17.9528
G01 X35.0278 Y17.9114
G01 X34.9905 Y17.8682
G01 X34.9554 Y17.8232
G01 X34.9225 Y17.7765
G01 X34.8919 Y17.7282
G01 X34.8638 Y17.6785
G01 X34.8381 Y17.6275
G01 X34.8150 Y17.5753
G01 X34.7944 Y17.5220
G01 X34.7765 Y17.4678
G01 X34.7613 Y17.4127
G01 X34.7488 Y17.3570
G01 X34.7390 Y17.3007
G01 X34.7320 Y17.2441
G01 X34.7278 Y17.1871
G01 X34.7264 Y17.1300
G01 X34.7278 Y17.0729
G01 X34.7320 Y17.0159
G01 X34.7390 Y16.9593
G01 X34.7488 Y16.9030
G01 X34.7613 Y16.8473
G01 X34.7765 Y16.7922
G01 X34.7944 Y16.7380
G01 X34.8150 Y16.6847
G01 X34.8381 Y16.6325
G01 X34.8638 Y16.5815
G01 X34.8919 Y16.5318
G01 X34.9225 Y16.4835
G01 X34.9554 Y16.4368
G01 X34.9905 Y16.3918
G01 X35.0278 Y16.3486
G01 X35.0672 Y16.3072
G01 X35.1086 Y16.2678
G01 X35.1518 Y16.2305
G01 X35.1968 Y16.1954
G01 X35.2435 Y16.1625
G01 X35.2918 Y16.1319
G01 X35.3415 Y16.1038
G01 X35.3925 Y16.0781
G01 X35.4447 Y16.0550
G01 X35.4980 Y16.0344
G01 X35.5522 Y16.0165
G01 X35.6073 Y16.0013
G01 X35.6630 Y15.9888
G01 X35.7193 Y15.9790
G01 X35.7759 Y15.9720
G01 X35.8329 Y15.9678
G01 X35.8900 Y15.9664
G01 X35.9471 Y15.9678
G01 X36.0041 Y15.9720
G01 X36.0607 Y15.9790
G01 X36.1170 Y15.9888
G01 X36.1727 Y16.0013
G01 X36.2278 Y16.0165
G01 X36.2820 Y16.0344
G01 X36.3353 Y16.0550
G01 X36.3875 Y16.0781
G01 X36.4385 Y16.1038
G01 X36.4882 Y16.1319
G01 X36.5365 Y16.1625
G01 X36.5832 Y16.1954
G01 X36.6282 Y16.2305
G01 X36.6714 Y16.2678
G01 X36.7128 Y16.3072
G01 X36.7522 Y16.3486
G01 X36.7895 Y16.3918
G01 X36.8246 Y16.4368
G01 X36.8575 Y16.4835
G01 X36.8881 Y16.5318
G01 X36.9162 Y16.5815
G01 X36.9419 Y16.6325
G01 X36.9650 Y16.6847
G01 X36.9856 Y16.7380
G01 X37.0035 Y16.7922
G01 X37.0187 Y16.8473
G01 X37.0312 Y16.9030
G01 X37.0410 Y16.9593
G01 X37.0480 Y17.0159
G01 X37.0522 Y17.0729
G01 X37.0536 Y17.1337
G00 Z1.0000
G00 X42.1336 Y17.1337
G01 F50.00
G01 Z-0.1000
G01 F150.00
G01 X42.1322 Y17.1871
G01 X42.1280 Y17.2441
G01 X42.1210 Y17.3007
G01 X42.1112 Y17.3570
G01 X42.0987 Y17.4127
G01 X42.0835 Y17.4678
G01 X42.0656 Y17.5220
G01 X42.0450 Y17.5753
G01 X42.0219 Y17.6275
G01 X41.9962 Y17.6785
G01 X41.9681 Y17.7282
G01 X41.9375 Y17.7765
G01 X41.9046 Y17.8232
G01 X41.8695 Y17.8682
G01 X41.8322 Y17.9114
G01 X41.7928 Y17.9528
G01 X41.7514 Y17.9922
G01 X41.7082 Y18.0295
G01 X41.6632 Y18.0646
G01 X41.6165 Y18.0975
G01 X41.5682 Y18.1281
G01 X41.5185 Y18.1562
G01 X41.4675 Y18.1819
G01 X41.4153 Y18.2050
G01 X41.3620 Y18.2256
G01 X41.3078 Y18.2435
G01 X41.2527 Y18.2587
G01 X41.1970 Y18.2712
G01 X41.1407 Y18.2810
G01 X41.0841 Y18.2880
G01 X41.0271 Y18.2922
G01 X40.9700 Y18.2936
G01 X40.9129 Y18.2922
G01 X40.8559 Y18.2880
G01 X40.7993 Y18.2810
G01 X40.7430 Y18.2712
G01 X40.6873 Y18.2587
G01 X40.6322 Y18.2435
G01 X40.5780 Y18.2256
G01 X40.5247 Y18.2050
G01 X40.4725 Y18.1819
G01 X40.4215 Y18.1562
G01 X40.3718 Y18.1281
G01 X40.3235 Y18.0975
G01 X40.2768 Y18.0646
G01 X40.2318 Y18.0295
G01 X40.1886 Y17.9922
G01 X40.1472 Y17.9528
G01 X40.1078 Y17.9114
G01 X40.0705 Y17.8682
G01 X40.0354 Y17.8232
G01 X40.0025 Y17.7765
G01 X39.9719 Y17.7282
G01 X39.9438 Y17.6785
G01 X39.9181 Y17.6275
G01 X39.8950 Y17.5753
G01 X39.8744 Y17.5220
G01 X39.8565 Y17.4678
G01 X39.8413 Y17.4127
G01 X39.8288 Y17.3570
G01 X39.8190 Y17.3007
G01 X39.8120 Y17.2441
G01 X39.8078 Y17.1871
G01 X39.8064 Y17.1300
G01 X39.8078 Y17.0729
G01 X39.8120 Y17.0159
G01 X39.8190 Y16.9593
G01 X39.8288 Y16.9030
G01 X39.8413 Y16.8473
G01 X39.8565 Y16.7922
G01 X39.8744 Y16.7380
G01 X39.8950 Y16.6847
G01 X39.9181 Y16.6325
G01 X39.9438 Y16.5815
G01 X39.9719 Y16.5318
G01 X40.0025 Y16.4835
G01 X40.0354 Y16.4368
G01 X40.0705 Y16.3918
G01 X40.1078 Y16.3486
G01 X40.1472 Y16.3072
G01 X40.1886 Y16.2678
G01 X40.2318 Y16.2305
G01 X40.2768 Y16.1954
G01 X40.3235 Y16.1625
G01 X40.3718 Y16.1319
G01 X40.4215 Y16.1038
G01 X40.4725 Y16.0781
G01 X40.5247 Y16.0550
G01 X40.5780 Y16.0344
G01 X40.6322 Y16.0165
G01 X40.6873 Y16.0013
G01 X40.7430 Y15.9888
G01 X40.7993 Y15.9790
G01 X40.8559 Y15.9720
G01 X40.9129 Y15.9678
G01 X40.9700 Y15.9664
G01 X41.0271 Y15.9678
G01 X41.0841 Y15.9720
G01 X41.1407 Y15.9790
G01 X41.1970 Y15.9888
G01 X41.2527 Y16.0013
G01 X41.3078 Y16.0165
G01 X41.3620 Y16.0344
G01 X41.4153 Y16.0550
G01 X41.4675 Y16.0781
G01 X41.5185 Y16.1038
G01 X41.5682 Y16.1319
G01 X41.6165 Y16.1625
G01 X41.6632 Y16.1954
G01 X41.7082 Y16.2305
G01 X41.7514 Y16.2678
G01 X41.7928 Y16.3072
G01 X41.8322 Y16.3486
G01 X41.8695 Y16.3918
G01 X41.9046 Y16.4368
G01 X41.9375 Y16.4835
G01 X41.9681 Y16.5318
G01 X41.9962 Y16.5815
G01 X42.0219 Y16.6325
G01 X42.0450 Y16.6847
G01 X42.0656 Y16.7380
G01 X42.0835 Y16.7922
G01 X42.0987 Y16.8473
G01 X42.1112 Y16.9030
G01 X42.1210 Y16.9593
G01 X42.1280 Y17.0159
G01 X42.1322 Y17.0729
G01 X42.1336 Y17.1337
G00 Z1.0000
G00 X47.2136 Y17.1337
G01 F50.00
G01 Z-0.1000
G01 F150.00
G01 X47.2122 Y17.1871
G01 X47.2080 Y17.2441
G01 X47.2010 Y17.3007
G01 X47.1912 Y17.3570
G01 X47.1787 Y17.4127
G01 X47.1635 Y17.4678
G01 X47.1456 Y17.5220
G01 X47.1250 Y17.5753
G01 X47.1019 Y17.6275
G01 X47.0762 Y17.6785
G01 X47.0481 Y17.7282
G01 X47.0175 Y17.7765
G01 X46.9846 Y17.8232
G01 X46.9495 Y17.8682
G01 X46.9122 Y17.9114
G01 X46.8728 Y17.9528
G01 X46.8314 Y17.9922
G01 X46.7882 Y18.0295
G01 X46.7432 Y18.0646
G01 X46.6965 Y18.0975
G01 X46.6482 Y18.1281
G01 X46.5985 Y18.1562
G01 X46.5475 Y18.1819
G01 X46.4953 Y18.2050
G01 X46.4420 Y18.2256
G01 X46.3878 Y18.2435
G01 X46.3327 Y18.2587
G01 X46.2770 Y18.2712
G01 X46.2207 Y18.2810
G01 X46.1641 Y18.2880
G01 X46.1071 Y18.2922
G01 X46.0500 Y18.2936
G01 X45.9929 Y18.2922
G01 X45.9359 Y18.2880
G01 X45.8793 Y18.2810
G01 X45.8230 Y18.2712
G01 X45.7673 Y18.2587
G01 X45.7122 Y18.2435
G01 X45.6580 Y18.2256
G01 X45.6047 Y18.2050
G01 X45.5525 Y18.1819
G01 X45.5015 Y18.1562
G01 X45.4518 Y18.1281
G01 X45.4035 Y18.0975
G01 X45.3568 Y18.0646
G01 X45.3118 Y18.0295
G01 X45.2686 Y17.9922
G01 X45.2272 Y17.9528
G01 X45.1878 Y17.9114
G01 X45.1505 Y17.8682
G01 X45.1154 Y17.8232
G01 X45.0825 Y17.7765
G01 X45.0519 Y17.7282
G01 X45.0238 Y17.6785
G01 X44.9981 Y17.6275
G01 X44.9750 Y17.5753
G01 X44.9544 Y17.5220
G01 X44.9365 Y17.4678
G01 X44.9213 Y17.4127
G01 X44.9088 Y17.3570
G01 X44.8990 Y17.3007
G01 X44.8920 Y17.2441
G01 X44.8878 Y17.1871
G01 X44.8864 Y17.1300
G01 X44.8878 Y17.0729
G01 X44.8920 Y17.0159
G01 X44.8990 Y16.9593
G01 X44.9088 Y16.9030
G01 X44.9213 Y16.8473
G01 X44.9365 Y16.7922
G01 X44.9544 Y16.7380
G01 X44.9750 Y16.6847
G01 X44.9981 Y16.6325
G01 X45.0238 Y16.5815
G01 X45.0519 Y16.5318
G01 X45.0825 Y16.4835
G01 X45.1154 Y16.4368
G01 X45.1505 Y16.3918
G01 X45.1878 Y16.3486
G01 X45.2272 Y16.3072
G01 X45.2686 Y16.2678
G01 X45.3118 Y16.2305
G01 X45.3568 Y16.1954
G01 X45.4035 Y16.1625
G01 X45.4518 Y16.1319
G01 X45.5015 Y16.1038
G01 X45.5525 Y16.0781
G01 X45.6047 Y16.0550
G01 X45.6580 Y16.0344
G01 X45.7122 Y16.0165
G01 X45.7673 Y16.0013
G01 X45.8230 Y15.9888
G01 X45.8793 Y15.9790
G01 X45.9359 Y15.9720
G01 X45.9929 Y15.9678
G01 X46.0500 Y15.9664
G01 X46.1071 Y15.9678
G01 X46.1641 Y15.9720
G01 X46.2207 Y15.9790
G01 X46.2770 Y15.9888
G01 X46.3327 Y16.0013
G01 X46.3878 Y16.0165
G01 X46.4420 Y16.0344
G01 X46.4953 Y16.0550
G01 X46.5475 Y16.0781
G01 X46.5985 Y16.1038
G01 X46.6482 Y16.1319
G01 X46.6965 Y16.1625
G01 X46.7432 Y16.1954
G01 X46.7882 Y16.2305
G01 X46.8314 Y16.2678
G01 X46.8728 Y16.3072
G01 X46.9122 Y16.3486
G01 X46.9495 Y16.3918
G01 X46.9846 Y16.4368
G01 X47.0175 Y16.4835
G01 X47.0481 Y16.5318
G01 X47.0762 Y16.5815
G01 X47.1019 Y16.6325
G01 X47.1250 Y16.6847
G01 X47.1456 Y16.7380
G01 X47.1635 Y16.7922
G01 X47.1787 Y16.8473
G01 X47.1912 Y16.9030
G01 X47.2010 Y16.9593
G01 X47.2080 Y17.0159
G01 X47.2122 Y17.0729
G01 X47.2136 Y17.1337
G00 Z1.0000
G00 X49.7536 Y17.1337
G01 F50.00
G01 Z-0.1000
G01 F150.00
G01 X49.7522 Y17.1871
G01 X49.7480 Y17.2441
G01 X49.7410 Y17.3007
G01 X49.7312 Y17.3570
G01 X49.7187 Y17.4127
G01 X49.7035 Y17.4678
G01 X49.6856 Y17.5220
G01 X49.6650 Y17.5753
G01 X49.6419 Y17.6275
G01 X49.6162 Y17.6785
G01 X49.5881 Y17.7282
G01 X49.5575 Y17.7765
G01 X49.5246 Y17.8232
G01 X49.4895 Y17.8682
G01 X49.4522 Y17.9114
G01 X49.4128 Y17.9528
G01 X49.3714 Y17.9922
G01 X49.3282 Y18.0295
G01 X49.2832 Y18.0646
G01 X49.2365 Y18.0975
G01 X49.1882 Y18.1281
G01 X49.1385 Y18.1562
G01 X49.0875 Y18.1819
G01 X49.0353 Y18.2050
G01 X48.9820 Y18.2256
G01 X48.9278 Y18.2435
G01 X48.8727 Y18.2587
G01 X48.8170 Y18.2712
G01 X48.7607 Y18.2810
G01 X48.7041 Y18.2880
G01 X48.6471 Y18.2922
G01 X48.5900 Y18.2936
G01 X48.5329 Y18.2922
G01 X48.4759 Y18.2880
G01 X48.4193 Y18.2810
G01 X48.3630 Y18.2712
G01 X48.3073 Y18.2587
G01 X48.2522 Y18.2435
G01 X48.1980 Y18.2256
G01 X48.1447 Y18.2050
G01 X48.0925 Y18.1819
G01 X48.0415 Y18.1562
G01 X47.9918 Y18.1281
G01 X47.9435 Y18.0975
G01 X47.8968 Y18.0646
G01 X47.8518 Y18.0295
G01 X47.8086 Y17.9922
G01 X47.7672 Y17.9528
G01 X47.7278 Y17.9114
G01 X47.6905 Y17.8682
G01 X47.6554 Y17.8232
G01 X47.6225 Y17.7765
G01 X47.5919 Y17.7282
G01 X47.5638 Y17.6785
G01 X47.5381 Y17.6275
G01 X47.5150 Y17.5753
G01 X47.4944 Y17.5220
G01 X47.4765 Y17.4678
G01 X47.4613 Y17.4127
G01 X47.4488 Y17.3570
G01 X47.4390 Y17.3007
G01 X47.4320 Y17.2441
G01 X47.4278 Y17.1871
G01 X47.4264 Y17.1300
G01 X47.4278 Y17.0729
G01 X47.4320 Y17.0159
G01 X47.4390 Y16.9593
G01 X47.4488 Y16.9030
G01 X47.4613 Y16.8473
G01 X47.4765 Y16.7922
G01 X47.4944 Y16.7380
G01 X47.5150 Y16.6847
G01 X47.5381 Y16.6325
G01 X47.5638 Y16.5815
G01 X47.5919 Y16.5318
G01 X47.6225 Y16.4835
G01 X47.6554 Y16.4368
G01 X47.6905 Y16.3918
G01 X47.7278 Y16.3486
G01 X47.7672 Y16.3072
G01 X47.8086 Y16.2678
G01 X47.8518 Y16.2305
G01 X47.8968 Y16.1954
G01 X47.9435 Y16.1625
G01 X47.9918 Y16.1319
G01 X48.0415 Y16.1038
G01 X48.0925 Y16.0781
G01 X48.1447 Y16.0550
G01 X48.1980 Y16.0344
G01 X48.2522 Y16.0165
G01 X48.3073 Y16.0013
G01 X48.3630 Y15.9888
G01 X48.4193 Y15.9790
G01 X48.4759 Y15.9720
G01 X48.5329 Y15.9678
G01 X48.5900 Y15.9664
G01 X48.6471 Y15.9678
G01 X48.7041 Y15.9720
G01 X48.7607 Y15.9790
G01 X48.8170 Y15.9888
G01 X48.8727 Y16.0013
G01 X48.9278 Y16.0165
G01 X48.9820 Y16.0344
G01 X49.0353 Y16.0550
G01 X49.0875 Y16.0781
G01 X49.1385 Y16.1038
G01 X49.1882 Y16.1319
G01 X49.2365 Y16.1625
G01 X49.2832 Y16.1954
G01 X49.3282 Y16.2305
G01 X49.3714 Y16.2678
G01 X49.4128 Y16.3072
G01 X49.4522 Y16.3486
G01 X49.4895 Y16.3918
G01 X49.5246 Y16.4368
G01 X49.5575 Y16.4835
G01 X49.5881 Y16.5318
G01 X49.6162 Y16.5815
G01 X49.6419 Y16.6325
G01 X49.6650 Y16.6847
G01 X49.6856 Y16.7380
G01 X49.7035 Y16.7922
G01 X49.7187 Y16.8473
G01 X49.7312 Y16.9030
G01 X49.7410 Y16.9593
G01 X49.7480 Y17.0159
G01 X49.7522 Y17.0729
G01 X49.7536 Y17.1337
G00 Z1.0000
G00 X52.2936 Y17.1337
G01 F50.00
G01 Z-0.1000
G01 F150.00
G01 X52.2922 Y17.1871
G01 X52.2880 Y17.2441
G01 X52.2810 Y17.3007
G01 X52.2712 Y17.3570
G01 X52.2587 Y17.4127
G01 X52.2435 Y17.4678
G01 X52.2256 Y17.5220
G01 X52.2050 Y17.5753
G01 X52.1819 Y17.6275
G01 X52.1562 Y17.6785
G01 X52.1281 Y17.7282
G01 X52.0975 Y17.7765
G01 X52.0646 Y17.8232
G01 X52.0295 Y17.8682
G01 X51.9922 Y17.9114
G01 X51.9528 Y17.9528
G01 X51.9114 Y17.9922
G01 X51.8682 Y18.0295
G01 X51.8232 Y18.0646
G01 X51.7765 Y18.0975
G01 X51.7282 Y18.1281
G01 X51.6785 Y18.1562
G01 X51.6275 Y18.1819
G01 X51.5753 Y18.2050
G01 X51.5220 Y18.2256
G01 X51.4678 Y18.2435
G01 X51.4127 Y18.2587
G01 X51.3570 Y18.2712
G01 X51.3007 Y18.2810
G01 X51.2441 Y18.2880
G01 X51.1871 Y18.2922
G01 X51.1300 Y18.2936
G01 X51.0729 Y18.2922
G01 X51.0159 Y18.2880
G01 X50.9593 Y18.2810
G01 X50.9030 Y18.2712
G01 X50.8473 Y18.2587
G01 X50.7922 Y18.2435
G01 X50.7380 Y18.2256
G01 X50.6847 Y18.2050
G01 X50.6325 Y18.1819
G01 X50.5815 Y18.1562
G01 X50.5318 Y18.1281
G01 X50.4835 Y18.0975
G01 X50.4368 Y18.0646
G01 X50.3918 Y18.0295
G01 X50.3486 Y17.9922
G01 X50.3072 Y17.9528
G01 X50.2678 Y17.9114
G01 X50.2305 Y17.8682
G01 X50.1954 Y17.8232
G01 X50.1625 Y17.7765
G01 X50.1319 Y17.7282
G01 X50.1038 Y17.6785
G01 X50.0781 Y17.6275
G01 X50.0550 Y17.5753
G01 X50.0344 Y17.5220
G01 X50.0165 Y17.4678
G01 X50.0013 Y17.4127
G01 X49.9888 Y17.3570
G01 X49.9790 Y17.3007
G01 X49.9720 Y17.2441
G01 X49.9678 Y17.1871
G01 X49.9664 Y17.1300
G01 X49.9678 Y17.0729
G01 X49.9720 Y17.0159
G01 X49.9790 Y16.9593
G01 X49.9888 Y16.9030
G01 X50.0013 Y16.8473
G01 X50.0165 Y16.7922
G01 X50.0344 Y16.7380
G01 X50.0550 Y16.6847
G01 X50.0781 Y16.6325
G01 X50.1038 Y16.5815
G01 X50.1319 Y16.5318
G01 X50.1625 Y16.4835
G01 X50.1954 Y16.4368
G01 X50.2305 Y16.3918
G01 X50.2678 Y16.3486
G01 X50.3072 Y16.3072
G01 X50.3486 Y16.2678
G01 X50.3918 Y16.2305
G01 X50.4368 Y16.1954
G01 X50.4835 Y16.1625
G01 X50.5318 Y16.1319
G01 X50.5815 Y16.1038
G01 X50.6325 Y16.0781
G01 X50.6847 Y16.0550
G01 X50.7380 Y16.0344
G01 X50.7922 Y16.0165
G01 X50.8473 Y16.0013
G01 X50.9030 Y15.9888
G01 X50.9593 Y15.9790
G01 X51.0159 Y15.9720
G01 X51.0729 Y15.9678
G01 X51.1300 Y15.9664
G01 X51.1871 Y15.9678
G01 X51.2441 Y15.9720
G01 X51.3007 Y15.9790
G01 X51.3570 Y15.9888
G01 X51.4127 Y16.0013
G01 X51.4678 Y16.0165
G01 X51.5220 Y16.0344
G01 X51.5753 Y16.0550
G01 X51.6275 Y16.0781
G01 X51.6785 Y16.1038
G01 X51.7282 Y16.1319
G01 X51.7765 Y16.1625
G01 X51.8232 Y16.1954
G01 X51.8682 Y16.2305
G01 X51.9114 Y16.2678
G01 X51.9528 Y16.3072
G01 X51.9922 Y16.3486
G01 X52.0295 Y16.3918
G01 X52.0646 Y16.4368
G01 X52.0975 Y16.4835
G01 X52.1281 Y16.5318
G01 X52.1562 Y16.5815
G01 X52.1819 Y16.6325
G01 X52.2050 Y16.6847
G01 X52.2256 Y16.7380
G01 X52.2435 Y16.7922
G01 X52.2587 Y16.8473
G01 X52.2712 Y16.9030
G01 X52.2810 Y16.9593
G01 X52.2880 Y17.0159
G01 X52.2922 Y17.0729
G01 X52.2936 Y17.1337
G00 Z1.0000
G00 X54.8336 Y17.1337
G01 F50.00
G01 Z-0.1000
G01 F150.00
G01 X54.8322 Y17.1871
G01 X54.8280 Y17.2441
G01 X54.8210 Y17.3007
G01 X54.8112 Y17.3570
G01 X54.7987 Y17.4127
G01 X54.7835 Y17.4678
G01 X54.7656 Y17.5220
G01 X54.7450 Y17.5753
G01 X54.7219 Y17.6275
G01 X54.6962 Y17.6785
G01 X54.6681 Y17.7282
G01 X54.6375 Y17.7765
G01 X54.6046 Y17.8232
G01 X54.5695 Y17.8682
G01 X54.5322 Y17.9114
G01 X54.4928 Y17.9528
G01 X54.4514 Y17.9922
G01 X54.4082 Y18.0295
G01 X54.3632 Y18.0646
G01 X54.3165 Y18.0975
G01 X54.2682 Y18.1281
G01 X54.2185 Y18.1562
G01 X54.1675 Y18.1819
G01 X54.1153 Y18.2050
G01 X54.0620 Y18.2256
G01 X54.0078 Y18.2435
G01 X53.9527 Y18.2587
G01 X53.8970 Y18.2712
G01 X53.8407 Y18.2810
G01 X53.7841 Y18.2880
G01 X53.7271 Y18.2922
G01 X53.6700 Y18.2936
G01 X53.6129 Y18.2922
G01 X53.5559 Y18.2880
G01 X53.4993 Y18.2810
G01 X53.4430 Y18.2712
G01 X53.3873 Y18.2587
G01 X53.3322 Y18.2435
G01 X53.2780 Y18.2256
G01 X53.2247 Y18.2050
G01 X53.1725 Y18.1819
G01 X53.1215 Y18.1562
G01 X53.0718 Y18.1281
G01 X53.0235 Y18.0975
G01 X52.9768 Y18.0646
G01 X52.9318 Y18.0295
G01 X52.8886 Y17.9922
G01 X52.8472 Y17.9528
G01 X52.8078 Y17.9114
G01 X52.7705 Y17.8682
G01 X52.7354 Y17.8232
G01 X52.7025 Y17.7765
G01 X52.6719 Y17.7282
G01 X52.6438 Y17.6785
G01 X52.6181 Y17.6275
G01 X52.5950 Y17.5753
G01 X52.5744 Y17.5220
G01 X52.5565 Y17.4678
G01 X52.5413 Y17.4127
G01 X52.5288 Y17.3570
G01 X52.5190 Y17.3007
G01 X52.5120 Y17.2441
G01 X52.5078 Y17.1871
G01 X52.5064 Y17.1300
G01 X52.5078 Y17.0729
G01 X52.5120 Y17.0159
G01 X52.5190 Y16.9593
G01 X52.5288 Y16.9030
G01 X52.5413 Y16.8473
G01 X52.5565 Y16.7922
G01 X52.5744 Y16.7380
G01 X52.5950 Y16.6847
G01 X52.6181 Y16.6325
G01 X52.6438 Y16.5815
G01 X52.6719 Y16.5318
G01 X52.7025 Y16.4835
G01 X52.7354 Y16.4368
G01 X52.7705 Y16.3918
G01 X52.8078 Y16.3486
G01 X52.8472 Y16.3072
G01 X52.8886 Y16.2678
G01 X52.9318 Y16.2305
G01 X52.9768 Y16.1954
G01 X53.0235 Y16.1625
G01 X53.0718 Y16.1319
G01 X53.1215 Y16.1038
G01 X53.1725 Y16.0781
G01 X53.2247 Y16.0550
G01 X53.2780 Y16.0344
G01 X53.3322 Y16.0165
G01 X53.3873 Y16.0013
G01 X53.4430 Y15.9888
G01 X53.4993 Y15.9790
G01 X53.5559 Y15.9720
G01 X53.6129 Y15.9678
G01 X53.6700 Y15.9664
G01 X53.7271 Y15.9678
G01 X53.7841 Y15.9720
G01 X53.8407 Y15.9790
G01 X53.8970 Y15.9888
G01 X53.9527 Y16.0013
G01 X54.0078 Y16.0165
G01 X54.0620 Y16.0344
G01 X54.1153 Y16.0550
G01 X54.1675 Y16.0781
G01 X54.2185 Y16.1038
G01 X54.2682 Y16.1319
G01 X54.3165 Y16.1625
G01 X54.3632 Y16.1954
G01 X54.4082 Y16.2305
G01 X54.4514 Y16.2678
G01 X54.4928 Y16.3072
G01 X54.5322 Y16.3486
G01 X54.5695 Y16.3918
G01 X54.6046 Y16.4368
G01 X54.6375 Y16.4835
G01 X54.6681 Y16.5318
G01 X54.6962 Y16.5815
G01 X54.7219 Y16.6325
G01 X54.7450 Y16.6847
G01 X54.7656 Y16.7380
G01 X54.7835 Y16.7922
G01 X54.7987 Y16.8473
G01 X54.8112 Y16.9030
G01 X54.8210 Y16.9593
G01 X54.8280 Y17.0159
G01 X54.8322 Y17.0729
G01 X54.8336 Y17.1337
G00 Z1.0000
G00 X58.8000 Y23.0037
G01 F50.00
G01 Z-0.1000
G01 F150.00
G01 X58.7978 Y23.0883
G01 X58.7913 Y23.1764
G01 X58.7805 Y23.2641
G01 X58.7654 Y23.3512
G01 X58.7461 Y23.4374
G01 X58.7225 Y23.5225
G01 X58.6948 Y23.6064
G01 X58.6630 Y23.6888
G01 X58.6272 Y23.7696
G01 X58.5875 Y23.8485
G01 X58.5439 Y23.9254
G01 X58.4966 Y24.0000
G01 X58.4458 Y24.0723
G01 X58.3914 Y24.1419
G01 X58.3337 Y24.2088
G01 X58.2728 Y24.2728
G01 X58.2088 Y24.3337
G01 X58.1419 Y24.3914
G01 X58.0723 Y24.4458
G01 X58.0000 Y24.4966
G01 X57.9254 Y24.5439
G01 X57.8485 Y24.5875
G01 X57.7696 Y24.6272
G01 X57.6888 Y24.6630
G01 X57.6064 Y24.6948
G01 X57.5225 Y24.7225
G01 X57.4374 Y24.7461
G01 X57.3512 Y24.7654
G01 X57.2641 Y24.7805
G01 X57.1764 Y24.7913
G01 X57.0883 Y24.7978
G01 X57.0000 Y24.8000
G01 X56.9117 Y24.7978
G01 X56.8236 Y24.7913
G01 X56.7359 Y24.7805
G01 X56.6488 Y24.7654
G01 X56.5626 Y24.7461
G01 X56.4775 Y24.7225
G01 X56.3936 Y24.6948
G01 X56.3112 Y24.6630
G01 X56.2304 Y24.6272
G01 X56.1515 Y24.5875
G01 X56.0746 Y24.5439
G01 X56.0000 Y24.4966
G01 X55.9277 Y24.4458
G01 X55.8581 Y24.3914
G01 X55.7912 Y24.3337
G01 X55.7272 Y24.2728
G01 X55.6663 Y24.2088
G01 X55.6086 Y24.1419
G01 X55.5542 Y24.0723
G01 X55.5034 Y24.0000
G01 X55.4561 Y23.9254
G01 X55.4125 Y23.8485
G01 X55.3728 Y23.7696
G01 X55.3370 Y23.6888
G01 X55.3052 Y23.6064
G01 X55.2775 Y23.5225
G01 X55.2539 Y23.4374
G01 X55.2346 Y23.3512
G01 X55.2195 Y23.2641
G01 X55.2087 Y23.1764
G01 X55.2022 Y23.0883
G01 X55.2000 Y23.0000
G01 X55.2022 Y22.9117
G01 X55.2087 Y22.8236
G01 X55.2195 Y22.7359
G01 X55.2346 Y22.6488
G01 X55.2539 Y22.5626
G01 X55.2775 Y22.4775
G01 X55.3052 Y22.3936
G01 X55.3370 Y22.3112
G01 X55.3728 Y22.2304
G01 X55.4125 Y22.1515
G01 X55.4561 Y22.0746
G01 X55.5034 Y22.0000
G01 X55.5542 Y21.9277
G01 X55.6086 Y21.8581
G01 X55.6663 Y21.7912
G01 X55.7272 Y21.7272
G01 X55.7912 Y21.6663
G01 X55.8581 Y21.6086
G01 X55.9277 Y21.5542
G01 X56.0000 Y21.5034
G01 X56.0746 Y21.4561
G01 X56.1515 Y21.4125
G01 X56.2304 Y21.3728
G01 X56.3112 Y21.3370
G01 X56.3936 Y21.3052
G01 X56.4775 Y21.2775
G01 X56.5626 Y21.2539
G01 X56.6488 Y21.2346
G01 X56.7359 Y21.2195
G01 X56.8236 Y21.2087
G01 X56.9117 Y21.2022
G01 X57.0000 Y21.2000
G01 X57.0883 Y21.2022
G01 X57.1764 Y21.2087
G01 X57.2641 Y21.2195
G01 X57.3512 Y21.2346
G01 X57.4374 Y21.2539
G01 X57.5225 Y21.2775
G01 X57.6064 Y21.3052
G01 X57.6888 Y21.3370
G01 X57.7696 Y21.3728
G01 X57.8485 Y21.4125
G01 X57.9254 Y21.4561
G01 X58.0000 Y21.5034
G01 X58.0723 Y21.5542
G01 X58.1419 Y21.6086
G01 X58.2088 Y21.6663
G01 X58.2728 Y21.7272
G01 X58.3337 Y21.7912
G01 X58.3914 Y21.8581
G01 X58.4458 Y21.9277
G01 X58.4966 Y22.0000
G01 X58.5439 Y22.0746
G01 X58.5875 Y22.1515
G01 X58.6272 Y22.2304
G01 X58.6630 Y22.3112
G01 X58.6948 Y22.3936
G01 X58.7225 Y22.4775
G01 X58.7461 Y22.5626
G01 X58.7654 Y22.6488
G01 X58.7805 Y22.7359
G01 X58.7913 Y22.8236
G01 X58.7978 Y22.9117
G01 X58.8000 Y23.0037
G00 Z1.0000
G00 X52.3300 Y27.2937
G01 F50.00
G01 Z-0.1000
G01 F150.00
G01 X52.3286 Y27.3489
G01 X52.3242 Y27.4076
G01 X52.3170 Y27.4661
G01 X52.3069 Y27.5241
G01 X52.2940 Y27.5816
G01 X52.2783 Y27.6383
G01 X52.2599 Y27.6943
G01 X52.2387 Y27.7492
G01 X52.2148 Y27.8031
G01 X52.1883 Y27.8557
G01 X52.1593 Y27.9069
G01 X52.1278 Y27.9567
G01 X52.0938 Y28.0048
G01 X52.0576 Y28.0513
G01 X52.0191 Y28.0959
G01 X51.9785 Y28.1385
G01 X51.9359 Y28.1791
G01 X51.8913 Y28.2176
G01 X51.8448 Y28.2538
G01 X51.7967 Y28.2878
G01 X51.7469 Y28.3193
G01 X51.6957 Y28.3483
G01 X51.6431 Y28.3748
G01 X51.5892 Y28.3987
G01 X51.5343 Y28.4199
G01 X51.4783 Y28.4383
G01 X51.4216 Y28.4540
G01 X51.3641 Y28.4669
G01 X51.3061 Y28.4770
G01 X51.2476 Y28.4842
G01 X51.1889 Y28.4886
G01 X51.1300 Y28.4900
G01 X51.0711 Y28.4886
G01 X51.0124 Y28.4842
G01 X50.9539 Y28.4770
G01 X50.8959 Y28.4669
G01 X50.8384 Y28.4540
G01 X50.7817 Y28.4383
G01 X50.7257 Y28.4199
G01 X50.6708 Y28.3987
G01 X50.6169 Y28.3748
G01 X50.5643 Y28.3483
G01 X50.5131 Y28.3193
G01 X50.4633 Y28.2878
G01 X50.4152 Y28.2538
G01 X50.3687 Y28.2176
G01 X50.3241 Y28.1791
G01 X50.2815 Y28.1385
G01 X50.2409 Y28.0959
G01 X50.2024 Y28.0513
G01 X50.1662 Y28.0048
G01 X50.1322 Y27.9567
G01 X50.1007 Y27.9069
G01 X50.0717 Y27.8557
G01 X50.0452 Y27.8031
G01 X50.0213 Y27.7492
G01 X50.0001 Y27.6943
G01 X49.9817 Y27.6383
G01 X49.9660 Y27.5816
G01 X49.9531 Y27.5241
G01 X49.9430 Y27.4661
G01 X49.9358 Y27.4076
G01 X49.9314 Y27.3489
G01 X49.9300 Y27.2900
G01 X49.9314 Y27.2311
G01 X49.9358 Y27.1724
G01 X49.9430 Y27.1139
G01 X49.9531 Y27.0559
G01 X49.9660 Y26.9984
G01 X49.9817 Y26.9417
G01 X50.0001 Y26.8857
G01 X50.0213 Y26.8308
G01 X50.0452 Y26.7769
G01 X50.0717 Y26.7243
G01 X50.1007 Y26.6731
G01 X50.1322 Y26.6233
G01 X50.1662 Y26.5752
G01 X50.2024 Y26.5287
G01 X50.2409 Y26.4841
G01 X50.2815 Y26.4415
G01 X50.3241 Y26.4009
G01 X50.3687 Y26.3624
G01 X50.4152 Y26.3262
G01 X50.4633 Y26.2922
G01 X50.5131 Y26.2607
G01 X50.5643 Y26.2317
G01 X50.6169 Y26.2052
G01 X50.6708 Y26.1813
G01 X50.7257 Y26.1601
G01 X50.7817 Y26.1417
G01 X50.8384 Y26.1260
G01 X50.8959 Y26.1131
G01 X50.9539 Y26.1030
G01 X51.0124 Y26.0958
G01 X51.0711 Y26.0914
G01 X51.1300 Y26.0900
G01 X51.1889 Y26.0914
G01 X51.2476 Y26.0958
G01 X51.3061 Y26.1030
G01 X51.3641 Y26.1131
G01 X51.4216 Y26.1260
G01 X51.4783 Y26.1417
G01 X51.5343 Y26.1601
G01 X51.5892 Y26.1813
G01 X51.6431 Y26.2052
G01 X51.6957 Y26.2317
G01 X51.7469 Y26.2607
G01 X51.7967 Y26.2922
G01 X51.8448 Y26.3262
G01 X51.8913 Y26.3624
G01 X51.9359 Y26.4009
G01 X51.9785 Y26.4415
G01 X52.0191 Y26.4841
G01 X52.0576 Y26.5287
G01 X52.0938 Y26.5752
G01 X52.1278 Y26.6233
G01 X52.1593 Y26.6731
G01 X52.1883 Y26.7243
G01 X52.2148 Y26.7769
G01 X52.2387 Y26.8308
G01 X52.2599 Y26.8857
G01 X52.2783 Y26.9417
G01 X52.2940 Y26.9984
G01 X52.3069 Y27.0559
G01 X52.3170 Y27.1139
G01 X52.3242 Y27.1724
G01 X52.3286 Y27.2311
G01 X52.3300 Y27.2937
G00 Z1.0000
G00 X49.7900 Y27.2937
G01 F50.00
G01 Z-0.1000
G01 F150.00
G01 X49.7886 Y27.3489
G01 X49.7842 Y27.4076
G01 X49.7770 Y27.4661
G01 X49.7669 Y27.5241
G01 X49.7540 Y27.5816
G01 X49.7383 Y27.6383
G01 X49.7199 Y27.6943
G01 X49.6987 Y27.7492
G01 X49.6748 Y27.8031
G01 X49.6483 Y27.8557
G01 X49.6193 Y27.9069
G01 X49.5878 Y27.9567
G01 X49.5538 Y28.0048
G01 X49.5176 Y28.0513
G01 X49.4791 Y28.0959
G01 X49.4385 Y28.1385
G01 X49.3959 Y28.1791
G01 X49.3513 Y28.2176
G01 X49.3048 Y28.2538
G01 X49.2567 Y28.2878
G01 X49.2069 Y28.3193
G01 X49.1557 Y28.3483
G01 X49.1031 Y28.3748
G01 X49.0492 Y28.3987
G01 X48.9943 Y28.4199
G01 X48.9383 Y28.4383
G01 X48.8816 Y28.4540
G01 X48.8241 Y28.4669
G01 X48.7661 Y28.4770
G01 X48.7076 Y28.4842
G01 X48.6489 Y28.4886
G01 X48.5900 Y28.4900
G01 X48.5311 Y28.4886
G01 X48.4724 Y28.4842
G01 X48.4139 Y28.4770
G01 X48.3559 Y28.4669
G01 X48.2984 Y28.4540
G01 X48.2417 Y28.4383
G01 X48.1857 Y28.4199
G01 X48.1308 Y28.3987
G01 X48.0769 Y28.3748
G01 X48.0243 Y28.3483
G01 X47.9731 Y28.3193
G01 X47.9233 Y28.2878
G01 X47.8752 Y28.2538
G01 X47.8287 Y28.2176
G01 X47.7841 Y28.1791
G01 X47.7415 Y28.1385
G01 X47.7009 Y28.0959
G01 X47.6624 Y28.0513
G01 X47.6262 Y28.0048
G01 X47.5922 Y27.9567
G01 X47.5607 Y27.9069
G01 X47.5317 Y27.8557
G01 X47.5052 Y27.8031
G01 X47.4813 Y27.7492
G01 X47.4601 Y27.6943
G01 X47.4417 Y27.6383
G01 X47.4260 Y27.5816
G01 X47.4131 Y27.5241
G01 X47.4030 Y27.4661
G01 X47.3958 Y27.4076
G01 X47.3914 Y27.3489
G01 X47.3900 Y27.2900
G01 X47.3914 Y27.2311
G01 X47.3958 Y27.1724
G01 X47.4030 Y27.1139
G01 X47.4131 Y27.0559
G01 X47.4260 Y26.9984
G01 X47.4417 Y26.9417
G01 X47.4601 Y26.8857
G01 X47.4813 Y26.8308
G01 X47.5052 Y26.7769
G01 X47.5317 Y26.7243
G01 X47.5607 Y26.6731
G01 X47.5922 Y26.6233
G01 X47.6262 Y26.5752
G01 X47.6624 Y26.5287
G01 X47.7009 Y26.4841
G01 X47.7415 Y26.4415
G01 X47.7841 Y26.4009
G01 X47.8287 Y26.3624
G01 X47.8752 Y26.3262
G01 X47.9233 Y26.2922
G01 X47.9731 Y26.2607
G01 X48.0243 Y26.2317
G01 X48.0769 Y26.2052
G01 X48.1308 Y26.1813
G01 X48.1857 Y26.1601
G01 X48.2417 Y26.1417
G01 X48.2984 Y26.1260
G01 X48.3559 Y26.1131
G01 X48.4139 Y26.1030
G01 X48.4724 Y26.0958
G01 X48.5311 Y26.0914
G01 X48.5900 Y26.0900
G01 X48.6489 Y26.0914
G01 X48.7076 Y26.0958
G01 X48.7661 Y26.1030
G01 X48.8241 Y26.1131
G01 X48.8816 Y26.1260
G01 X48.9383 Y26.1417
G01 X48.9943 Y26.1601
G01 X49.0492 Y26.1813
G01 X49.1031 Y26.2052
G01 X49.1557 Y26.2317
G01 X49.2069 Y26.2607
G01 X49.2567 Y26.2922
G01 X49.3048 Y26.3262
G01 X49.3513 Y26.3624
G01 X49.3959 Y26.4009
G01 X49.4385 Y26.4415
G01 X49.4791 Y26.4841
G01 X49.5176 Y26.5287
G01 X49.5538 Y26.5752
G01 X49.5878 Y26.6233
G01 X49.6193 Y26.6731
G01 X49.6483 Y26.7243
G01 X49.6748 Y26.7769
G01 X49.6987 Y26.8308
G01 X49.7199 Y26.8857
G01 X49.7383 Y26.9417
G01 X49.7540 Y26.9984
G01 X49.7669 Y27.0559
G01 X49.7770 Y27.1139
G01 X49.7842 Y27.1724
G01 X49.7886 Y27.2311
G01 X49.7900 Y27.2937
G00 Z1.0000
G00 X47.2500 Y27.2937
G01 F50.00
G01 Z-0.1000
G01 F150.00
G01 X47.2486 Y27.3489
G01 X47.2442 Y27.4076
G01 X47.2370 Y27.4661
G01 X47.2269 Y27.5241
G01 X47.2140 Y27.5816
G01 X47.1983 Y27.6383
G01 X47.1799 Y27.6943
G01 X47.1587 Y27.7492
G01 X47.1348 Y27.8031
G01 X47.1083 Y27.8557
G01 X47.0793 Y27.9069
G01 X47.0478 Y27.9567
G01 X47.0138 Y28.0048
G01 X46.9776 Y28.0513
G01 X46.9391 Y28.0959
G01 X46.8985 Y28.1385
G01 X46.8559 Y28.1791
G01 X46.8113 Y28.2176
G01 X46.7648 Y28.2538
G01 X46.7167 Y28.2878
G01 X46.6669 Y28.3193
G01 X46.6157 Y28.3483
G01 X46.5631 Y28.3748
G01 X46.5092 Y28.3987
G01 X46.4543 Y28.4199
G01 X46.3983 Y28.4383
G01 X46.3416 Y28.4540
G01 X46.2841 Y28.4669
G01 X46.2261 Y28.4770
G01 X46.1676 Y28.4842
G01 X46.1089 Y28.4886
G01 X46.0500 Y28.4900
G01 X45.9911 Y28.4886
G01 X45.9324 Y28.4842
G01 X45.8739 Y28.4770
G01 X45.8159 Y28.4669
G01 X45.7584 Y28.4540
G01 X45.7017 Y28.4383
G01 X45.6457 Y28.4199
G01 X45.5908 Y28.3987
G01 X45.5369 Y28.3748
G01 X45.4843 Y28.3483
G01 X45.4331 Y28.3193
G01 X45.3833 Y28.2878
G01 X45.3352 Y28.2538
G01 X45.2887 Y28.2176
G01 X45.2441 Y28.1791
G01 X45.2015 Y28.1385
G01 X45.1609 Y28.0959
G01 X45.1224 Y28.0513
G01 X45.0862 Y28.0048
G01 X45.0522 Y27.9567
G01 X45.0207 Y27.9069
G01 X44.9917 Y27.8557
G01 X44.9652 Y27.8031
G01 X44.9413 Y27.7492
G01 X44.9201 Y27.6943
G01 X44.9017 Y27.6383
G01 X44.8860 Y27.5816
G01 X44.8731 Y27.5241
G01 X44.8630 Y27.4661
G01 X44.8558 Y27.4076
G01 X44.8514 Y27.3489
G01 X44.8500 Y27.2900
G01 X44.8514 Y27.2311
G01 X44.8558 Y27.1724
G01 X44.8630 Y27.1139
G01 X44.8731 Y27.0559
G01 X44.8860 Y26.9984
G01 X44.9017 Y26.9417
G01 X44.9201 Y26.8857
G01 X44.9413 Y26.8308
G01 X44.9652 Y26.7769
G01 X44.9917 Y26.7243
G01 X45.0207 Y26.6731
G01 X45.0522 Y26.6233
G01 X45.0862 Y26.5752
G01 X45.1224 Y26.5287
G01 X45.1609 Y26.4841
G01 X45.2015 Y26.4415
G01 X45.2441 Y26.4009
G01 X45.2887 Y26.3624
G01 X45.3352 Y26.3262
G01 X45.3833 Y26.2922
G01 X45.4331 Y26.2607
G01 X45.4843 Y26.2317
G01 X45.5369 Y26.2052
G01 X45.5908 Y26.1813
G01 X45.6457 Y26.1601
G01 X45.7017 Y26.1417
G01 X45.7584 Y26.1260
G01 X45.8159 Y26.1131
G01 X45.8739 Y26.1030
G01 X45.9324 Y26.0958
G01 X45.9911 Y26.0914
G01 X46.0500 Y26.0900
G01 X46.1089 Y26.0914
G01 X46.1676 Y26.0958
G01 X46.2261 Y26.1030
G01 X46.2841 Y26.1131
G01 X46.3416 Y26.1260
G01 X46.3983 Y26.1417
G01 X46.4543 Y26.1601
G01 X46.5092 Y26.1813
G01 X46.5631 Y26.2052
G01 X46.6157 Y26.2317
G01 X46.6669 Y26.2607
G01 X46.7167 Y26.2922
G01 X46.7648 Y26.3262
G01 X46.8113 Y26.3624
G01 X46.8559 Y26.4009
G01 X46.8985 Y26.4415
G01 X46.9391 Y26.4841
G01 X46.9776 Y26.5287
G01 X47.0138 Y26.5752
G01 X47.0478 Y26.6233
G01 X47.0793 Y26.6731
G01 X47.1083 Y26.7243
G01 X47.1348 Y26.7769
G01 X47.1587 Y26.8308
G01 X47.1799 Y26.8857
G01 X47.1983 Y26.9417
G01 X47.2140 Y26.9984
G01 X47.2269 Y27.0559
G01 X47.2370 Y27.1139
G01 X47.2442 Y27.1724
G01 X47.2486 Y27.2311
G01 X47.2500 Y27.2937
G00 Z1.0000
G00 X39.6300 Y27.2937
G01 F50.00
G01 Z-0.1000
G01 F150.00
G01 X39.6286 Y27.3489
G01 X39.6242 Y27.4076
G01 X39.6170 Y27.4661
G01 X39.6069 Y27.5241
G01 X39.5940 Y27.5816
G01 X39.5783 Y27.6383
G01 X39.5599 Y27.6943
G01 X39.5387 Y27.7492
G01 X39.5148 Y27.8031
G01 X39.4883 Y27.8557
G01 X39.4593 Y27.9069
G01 X39.4278 Y27.9567
G01 X39.3938 Y28.0048
G01 X39.3576 Y28.0513
G01 X39.3191 Y28.0959
G01 X39.2785 Y28.1385
G01 X39.2359 Y28.1791
G01 X39.1913 Y28.2176
G01 X39.1448 Y28.2538
G01 X39.0967 Y28.2878
G01 X39.0469 Y28.3193
G01 X38.9957 Y28.3483
G01 X38.9431 Y28.3748
G01 X38.8892 Y28.3987
G01 X38.8343 Y28.4199
G01 X38.7783 Y28.4383
G01 X38.7216 Y28.4540
G01 X38.6641 Y28.4669
G01 X38.6061 Y28.4770
G01 X38.5476 Y28.4842
G01 X38.4889 Y28.4886
G01 X38.4300 Y28.4900
G01 X38.3711 Y28.4886
G01 X38.3124 Y28.4842
G01 X38.2539 Y28.4770
G01 X38.1959 Y28.4669
G01 X38.1384 Y28.4540
G01 X38.0817 Y28.4383
G01 X38.0257 Y28.4199
G01 X37.9708 Y28.3987
G01 X37.9169 Y28.3748
G01 X37.8643 Y28.3483
G01 X37.8131 Y28.3193
G01 X37.7633 Y28.2878
G01 X37.7152 Y28.2538
G01 X37.6687 Y28.2176
G01 X37.6241 Y28.1791
G01 X37.5815 Y28.1385
G01 X37.5409 Y28.0959
G01 X37.5024 Y28.0513
G01 X37.4662 Y28.0048
G01 X37.4322 Y27.9567
G01 X37.4007 Y27.9069
G01 X37.3717 Y27.8557
G01 X37.3452 Y27.8031
G01 X37.3213 Y27.7492
G01 X37.3001 Y27.6943
G01 X37.2817 Y27.6383
G01 X37.2660 Y27.5816
G01 X37.2531 Y27.5241
G01 X37.2430 Y27.4661
G01 X37.2358 Y27.4076
G01 X37.2314 Y27.3489
G01 X37.2300 Y27.2900
G01 X37.2314 Y27.2311
G01 X37.2358 Y27.1724
G01 X37.2430 Y27.1139
G01 X37.2531 Y27.0559
G01 X37.2660 Y26.9984
G01 X37.2817 Y26.9417
G01 X37.3001 Y26.8857
G01 X37.3213 Y26.8308
G01 X37.3452 Y26.7769
G01 X37.3717 Y26.7243
G01 X37.4007 Y26.6731
G01 X37.4322 Y26.6233
G01 X37.4662 Y26.5752
G01 X37.5024 Y26.5287
G01 X37.5409 Y26.4841
G01 X37.5815 Y26.4415
G01 X37.6241 Y26.4009
G01 X37.6687 Y26.3624
G01 X37.7152 Y26.3262
G01 X37.7633 Y26.2922
G01 X37.8131 Y26.2607
G01 X37.8643 Y26.2317
G01 X37.9169 Y26.2052
G01 X37.9708 Y26.1813
G01 X38.0257 Y26.1601
G01 X38.0817 Y26.1417
G01 X38.1384 Y26.1260
G01 X38.1959 Y26.1131
G01 X38.2539 Y26.1030
G01 X38.3124 Y26.0958
G01 X38.3711 Y26.0914
G01 X38.4300 Y26.0900
G01 X38.4889 Y26.0914
G01 X38.5476 Y26.0958
G01 X38.6061 Y26.1030
G01 X38.6641 Y26.1131
G01 X38.7216 Y26.1260
G01 X38.7783 Y26.1417
G01 X38.8343 Y26.1601
G01 X38.8892 Y26.1813
G01 X38.9431 Y26.2052
G01 X38.9957 Y26.2317
G01 X39.0469 Y26.2607
G01 X39.0967 Y26.2922
G01 X39.1448 Y26.3262
G01 X39.1913 Y26.3624
G01 X39.2359 Y26.4009
G01 X39.2785 Y26.4415
G01 X39.3191 Y26.4841
G01 X39.3576 Y26.5287
G01 X39.3938 Y26.5752
G01 X39.4278 Y26.6233
G01 X39.4593 Y26.6731
G01 X39.4883 Y26.7243
G01 X39.5148 Y26.7769
G01 X39.5387 Y26.8308
G01 X39.5599 Y26.8857
G01 X39.5783 Y26.9417
G01 X39.5940 Y26.9984
G01 X39.6069 Y27.0559
G01 X39.6170 Y27.1139
G01 X39.6242 Y27.1724
G01 X39.6286 Y27.2311
G01 X39.6300 Y27.2937
G00 Z1.0000
G00 X37.0900 Y27.2937
G01 F50.00
G01 Z-0.1000
G01 F150.00
G01 X37.0886 Y27.3489
G01 X37.0842 Y27.4076
G01 X37.0770 Y27.4661
G01 X37.0669 Y27.5241
G01 X37.0540 Y27.5816
G01 X37.0383 Y27.6383
G01 X37.0199 Y27.6943
G01 X36.9987 Y27.7492
G01 X36.9748 Y27.8031
G01 X36.9483 Y27.8557
G01 X36.9193 Y27.9069
G01 X36.8878 Y27.9567
G01 X36.8538 Y28.0048
G01 X36.8176 Y28.0513
G01 X36.7791 Y28.0959
G01 X36.7385 Y28.1385
G01 X36.6959 Y28.1791
G01 X36.6513 Y28.2176
G01 X36.6048 Y28.2538
G01 X36.5567 Y28.2878
G01 X36.5069 Y28.3193
G01 X36.4557 Y28.3483
G01 X36.4031 Y28.3748
G01 X36.3492 Y28.3987
G01 X36.2943 Y28.4199
G01 X36.2383 Y28.4383
G01 X36.1816 Y28.4540
G01 X36.1241 Y28.4669
G01 X36.0661 Y28.4770
G01 X36.0076 Y28.4842
G01 X35.9489 Y28.4886
G01 X35.8900 Y28.4900
G01 X35.8311 Y28.4886
G01 X35.7724 Y28.4842
G01 X35.7139 Y28.4770
G01 X35.6559 Y28.4669
G01 X35.5984 Y28.4540
G01 X35.5417 Y28.4383
G01 X35.4857 Y28.4199
G01 X35.4308 Y28.3987
G01 X35.3769 Y28.3748
G01 X35.3243 Y28.3483
G01 X35.2731 Y28.3193
G01 X35.2233 Y28.2878
G01 X35.1752 Y28.2538
G01 X35.1287 Y28.2176
G01 X35.0841 Y28.1791
G01 X35.0415 Y28.1385
G01 X35.0009 Y28.0959
G01 X34.9624 Y28.0513
G01 X34.9262 Y28.0048
G01 X34.8922 Y27.9567
G01 X34.8607 Y27.9069
G01 X34.8317 Y27.8557
G01 X34.8052 Y27.8031
G01 X34.7813 Y27.7492
G01 X34.7601 Y27.6943
G01 X34.7417 Y27.6383
G01 X34.7260 Y27.5816
G01 X34.7131 Y27.5241
G01 X34.7030 Y27.4661
G01 X34.6958 Y27.4076
G01 X34.6914 Y27.3489
G01 X34.6900 Y27.2900
G01 X34.6914 Y27.2311
G01 X34.6958 Y27.1724
G01 X34.7030 Y27.1139
G01 X34.7131 Y27.0559
G01 X34.7260 Y26.9984
G01 X34.7417 Y26.9417
G01 X34.7601 Y26.8857
G01 X34.7813 Y26.8308
G01 X34.8052 Y26.7769
G01 X34.8317 Y26.7243
G01 X34.8607 Y26.6731
G01 X34.8922 Y26.6233
G01 X34.9262 Y26.5752
G01 X34.9624 Y26.5287
G01 X35.0009 Y26.4841
G01 X35.0415 Y26.4415
G01 X35.0841 Y26.4009
G01 X35.1287 Y26.3624
G01 X35.1752 Y26.3262
G01 X35.2233 Y26.2922
G01 X35.2731 Y26.2607
G01 X35.3243 Y26.2317
G01 X35.3769 Y26.2052
G01 X35.4308 Y26.1813
G01 X35.4857 Y26.1601
G01 X35.5417 Y26.1417
G01 X35.5984 Y26.1260
G01 X35.6559 Y26.1131
G01 X35.7139 Y26.1030
G01 X35.7724 Y26.0958
G01 X35.8311 Y26.0914
G01 X35.8900 Y26.0900
G01 X35.9489 Y26.0914
G01 X36.0076 Y26.0958
G01 X36.0661 Y26.1030
G01 X36.1241 Y26.1131
G01 X36.1816 Y26.1260
G01 X36.2383 Y26.1417
G01 X36.2943 Y26.1601
G01 X36.3492 Y26.1813
G01 X36.4031 Y26.2052
G01 X36.4557 Y26.2317
G01 X36.5069 Y26.2607
G01 X36.5567 Y26.2922
G01 X36.6048 Y26.3262
G01 X36.6513 Y26.3624
G01 X36.6959 Y26.4009
G01 X36.7385 Y26.4415
G01 X36.7791 Y26.4841
G01 X36.8176 Y26.5287
G01 X36.8538 Y26.5752
G01 X36.8878 Y26.6233
G01 X36.9193 Y26.6731
G01 X36.9483 Y26.7243
G01 X36.9748 Y26.7769
G01 X36.9987 Y26.8308
G01 X37.0199 Y26.8857
G01 X37.0383 Y26.9417
G01 X37.0540 Y26.9984
G01 X37.0669 Y27.0559
G01 X37.0770 Y27.1139
G01 X37.0842 Y27.1724
G01 X37.0886 Y27.2311
G01 X37.0900 Y27.2937
G00 Z1.0000
G00 X34.5500 Y27.2937
G01 F50.00
G01 Z-0.1000
G01 F150.00
G01 X34.5486 Y27.3489
G01 X34.5442 Y27.4076
G01 X34.5370 Y27.4661
G01 X34.5269 Y27.5241
G01 X34.5140 Y27.5816
G01 X34.4983 Y27.6383
G01 X34.4799 Y27.6943
G01 X34.4587 Y27.7492
G01 X34.4348 Y27.8031
G01 X34.4083 Y27.8557
G01 X34.3793 Y27.9069
G01 X34.3478 Y27.9567
G01 X34.3138 Y28.0048
G01 X34.2776 Y28.0513
G01 X34.2391 Y28.0959
G01 X34.1985 Y28.1385
G01 X34.1559 Y28.1791
G01 X34.1113 Y28.2176
G01 X34.0648 Y28.2538
G01 X34.0167 Y28.2878
G01 X33.9669 Y28.3193
G01 X33.9157 Y28.3483
G01 X33.8631 Y28.3748
G01 X33.8092 Y28.3987
G01 X33.7543 Y28.4199
G01 X33.6983 Y28.4383
G01 X33.6416 Y28.4540
G01 X33.5841 Y28.4669
G01 X33.5261 Y28.4770
G01 X33.4676 Y28.4842
G01 X33.4089 Y28.4886
G01 X33.3500 Y28.4900
G01 X33.2911 Y28.4886
G01 X33.2324 Y28.4842
G01 X33.1739 Y28.4770
G01 X33.1159 Y28.4669
G01 X33.0584 Y28.4540
G01 X33.0017 Y28.4383
G01 X32.9457 Y28.4199
G01 X32.8908 Y28.3987
G01 X32.8369 Y28.3748
G01 X32.7843 Y28.3483
G01 X32.7331 Y28.3193
G01 X32.6833 Y28.2878
G01 X32.6352 Y28.2538
G01 X32.5887 Y28.2176
G01 X32.5441 Y28.1791
G01 X32.5015 Y28.1385
G01 X32.4609 Y28.0959
G01 X32.4224 Y28.0513
G01 X32.3862 Y28.0048
G01 X32.3522 Y27.9567
G01 X32.3207 Y27.9069
G01 X32.2917 Y27.8557
G01 X32.2652 Y27.8031
G01 X32.2413 Y27.7492
G01 X32.2201 Y27.6943
G01 X32.2017 Y27.6383
G01 X32.1860 Y27.5816
G01 X32.1731 Y27.5241
G01 X32.1630 Y27.4661
G01 X32.1558 Y27.4076
G01 X32.1514 Y27.3489
G01 X32.1500 Y27.2900
G01 X32.1514 Y27.2311
G01 X32.1558 Y27.1724
G01 X32.1630 Y27.1139
G01 X32.1731 Y27.0559
G01 X32.1860 Y26.9984
G01 X32.2017 Y26.9417
G01 X32.2201 Y26.8857
G01 X32.2413 Y26.8308
G01 X32.2652 Y26.7769
G01 X32.2917 Y26.7243
G01 X32.3207 Y26.6731
G01 X32.3522 Y26.6233
G01 X32.3862 Y26.5752
G01 X32.4224 Y26.5287
G01 X32.4609 Y26.4841
G01 X32.5015 Y26.4415
G01 X32.5441 Y26.4009
G01 X32.5887 Y26.3624
G01 X32.6352 Y26.3262
G01 X32.6833 Y26.2922
G01 X32.7331 Y26.2607
G01 X32.7843 Y26.2317
G01 X32.8369 Y26.2052
G01 X32.8908 Y26.1813
G01 X32.9457 Y26.1601
G01 X33.0017 Y26.1417
G01 X33.0584 Y26.1260
G01 X33.1159 Y26.1131
G01 X33.1739 Y26.1030
G01 X33.2324 Y26.0958
G01 X33.2911 Y26.0914
G01 X33.3500 Y26.0900
G01 X33.4089 Y26.0914
G01 X33.4676 Y26.0958
G01 X33.5261 Y26.1030
G01 X33.5841 Y26.1131
G01 X33.6416 Y26.1260
G01 X33.6983 Y26.1417
G01 X33.7543 Y26.1601
G01 X33.8092 Y26.1813
G01 X33.8631 Y26.2052
G01 X33.9157 Y26.2317
G01 X33.9669 Y26.2607
G01 X34.0167 Y26.2922
G01 X34.0648 Y26.3262
G01 X34.1113 Y26.3624
G01 X34.1559 Y26.4009
G01 X34.1985 Y26.4415
G01 X34.2391 Y26.4841
G01 X34.2776 Y26.5287
G01 X34.3138 Y26.5752
G01 X34.3478 Y26.6233
G01 X34.3793 Y26.6731
G01 X34.4083 Y26.7243
G01 X34.4348 Y26.7769
G01 X34.4587 Y26.8308
G01 X34.4799 Y26.8857
G01 X34.4983 Y26.9417
G01 X34.5140 Y26.9984
G01 X34.5269 Y27.0559
G01 X34.5370 Y27.1139
G01 X34.5442 Y27.1724
G01 X34.5486 Y27.2311
G01 X34.5500 Y27.2937
G00 Z1.0000
G00 X26.8000 Y23.0037
G01 F50.00
G01 Z-0.1000
G01 F150.00
G01 X26.7978 Y23.0883
G01 X26.7913 Y23.1764
G01 X26.7805 Y23.2641
G01 X26.7654 Y23.3512
G01 X26.7461 Y23.4374
G01 X26.7225 Y23.5225
G01 X26.6948 Y23.6064
G01 X26.6630 Y23.6888
G01 X26.6272 Y23.7696
G01 X26.5875 Y23.8485
G01 X26.5439 Y23.9254
G01 X26.4966 Y24.0000
G01 X26.4458 Y24.0723
G01 X26.3914 Y24.1419
G01 X26.3337 Y24.2088
G01 X26.2728 Y24.2728
G01 X26.2088 Y24.3337
G01 X26.1419 Y24.3914
G01 X26.0723 Y24.4458
G01 X26.0000 Y24.4966
G01 X25.9254 Y24.5439
G01 X25.8485 Y24.5875
G01 X25.7696 Y24.6272
G01 X25.6888 Y24.6630
G01 X25.6064 Y24.6948
G01 X25.5225 Y24.7225
G01 X25.4374 Y24.7461
G01 X25.3512 Y24.7654
G01 X25.2641 Y24.7805
G01 X25.1764 Y24.7913
G01 X25.0883 Y24.7978
G01 X25.0000 Y24.8000
G01 X24.9117 Y24.7978
G01 X24.8236 Y24.7913
G01 X24.7359 Y24.7805
G01 X24.6488 Y24.7654
G01 X24.5626 Y24.7461
G01 X24.4775 Y24.7225
G01 X24.3936 Y24.6948
G01 X24.3112 Y24.6630
G01 X24.2304 Y24.6272
G01 X24.1515 Y24.5875
G01 X24.0746 Y24.5439
G01 X24.0000 Y24.4966
G01 X23.9277 Y24.4458
G01 X23.8581 Y24.3914
G01 X23.7912 Y24.3337
G01 X23.7272 Y24.2728
G01 X23.6663 Y24.2088
G01 X23.6086 Y24.1419
G01 X23.5542 Y24.0723
G01 X23.5034 Y24.0000
G01 X23.4561 Y23.9254
G01 X23.4125 Y23.8485
G01 X23.3728 Y23.7696
G01 X23.3370 Y23.6888
G01 X23.3052 Y23.6064
G01 X23.2775 Y23.5225
G01 X23.2539 Y23.4374
G01 X23.2346 Y23.3512
G01 X23.2195 Y23.2641
G01 X23.2087 Y23.1764
G01 X23.2022 Y23.0883
G01 X23.2000 Y23.0000
G01 X23.2022 Y22.9117
G01 X23.2087 Y22.8236
G01 X23.2195 Y22.7359
G01 X23.2346 Y22.6488
G01 X23.2539 Y22.5626
G01 X23.2775 Y22.4775
G01 X23.3052 Y22.3936
G01 X23.3370 Y22.3112
G01 X23.3728 Y22.2304
G01 X23.4125 Y22.1515
G01 X23.4561 Y22.0746
G01 X23.5034 Y22.0000
G01 X23.5542 Y21.9277
G01 X23.6086 Y21.8581
G01 X23.6663 Y21.7912
G01 X23.7272 Y21.7272
G01 X23.7912 Y21.6663
G01 X23.8581 Y21.6086
G01 X23.9277 Y21.5542
G01 X24.0000 Y21.5034
G01 X24.0746 Y21.4561
G01 X24.1515 Y21.4125
G01 X24.2304 Y21.3728
G01 X24.3112 Y21.3370
G01 X24.3936 Y21.3052
G01 X24.4775 Y21.2775
G01 X24.5626 Y21.2539
G01 X24.6488 Y21.2346
G01 X24.7359 Y21.2195
G01 X24.8236 Y21.2087
G01 X24.9117 Y21.2022
G01 X25.0000 Y21.2000
G01 X25.0883 Y21.2022
G01 X25.1764 Y21.2087
G01 X25.2641 Y21.2195
G01 X25.3512 Y21.2346
G01 X25.4374 Y21.2539
G01 X25.5225 Y21.2775
G01 X25.6064 Y21.3052
G01 X25.6888 Y21.3370
G01 X25.7696 Y21.3728
G01 X25.8485 Y21.4125
G01 X25.9254 Y21.4561
G01 X26.0000 Y21.5034
G01 X26.0723 Y21.5542
G01 X26.1419 Y21.6086
G01 X26.2088 Y21.6663
G01 X26.2728 Y21.7272
G01 X26.3337 Y21.7912
G01 X26.3914 Y21.8581
G01 X26.4458 Y21.9277
G01 X26.4966 Y22.0000
G01 X26.5439 Y22.0746
G01 X26.5875 Y22.1515
G01 X26.6272 Y22.2304
G01 X26.6630 Y22.3112
G01 X26.6948 Y22.3936
G01 X26.7225 Y22.4775
G01 X26.7461 Y22.5626
G01 X26.7654 Y22.6488
G01 X26.7805 Y22.7359
G01 X26.7913 Y22.8236
G01 X26.7978 Y22.9117
G01 X26.8000 Y23.0037
G00 Z1.0000
G00 X24.4230 Y32.7199
G01 F50.00
G01 Z-0.1000
G01 F150.00
G01 X24.4676 Y32.6536
G01 X24.4848 Y32.6311
G01 X24.4985 Y32.6152
G01 X24.5182 Y32.5949
G01 X24.5440 Y32.5719
G01 X24.5665 Y32.5547
G01 X24.5891 Y32.5396
G01 X24.6136 Y32.5254
G01 X24.6390 Y32.5129
G01 X24.6642 Y32.5025
G01 X24.6910 Y32.4933
G01 X24.7244 Y32.4847
G01 X24.7523 Y32.4796
G01 X24.7804 Y32.4764
G01 X24.8113 Y32.4750
G01 X25.5838 Y32.4749
G01 X25.6121 Y32.4759
G01 X25.6392 Y32.4786
G01 X25.6635 Y32.4824
G01 X26.0063 Y32.5506
G01 X26.0475 Y32.5424
G01 X26.0718 Y32.5386
G01 X26.0989 Y32.5359
G01 X26.1272 Y32.5349
G01 X40.2169 Y32.5349
G01 X40.2453 Y32.5359
G01 X40.2723 Y32.5386
G01 X40.2966 Y32.5424
G01 X40.3378 Y32.5506
G01 X40.6499 Y32.4885
G01 X40.9145 Y32.3117
G01 X40.9378 Y32.2769
G01 X40.9523 Y32.2569
G01 X40.9696 Y32.2359
G01 X40.9889 Y32.2152
G01 X43.9902 Y29.2139
G01 X44.0109 Y29.1946
G01 X44.0319 Y29.1773
G01 X44.0519 Y29.1628
G01 X44.0867 Y29.1395
G01 X44.2635 Y28.8749
G01 X44.3258 Y28.5619
G01 X44.3219 Y28.5294
G01 X44.3205 Y28.4948
G01 X44.3210 Y28.4739
G01 X44.3225 Y28.4530
G01 X44.3273 Y28.4188
G01 X44.3333 Y28.3911
G01 X44.3430 Y28.3579
G01 X44.3530 Y28.3314
G01 X44.3675 Y28.3000
G01 X44.3812 Y28.2753
G01 X44.3924 Y28.2576
G01 X44.4045 Y28.2404
G01 X44.4174 Y28.2239
G01 X44.4429 Y28.1955
G01 X44.4806 Y28.1578
G01 X44.4987 Y28.1410
G01 X44.5148 Y28.1276
G01 X44.5316 Y28.1150
G01 X44.5489 Y28.1032
G01 X44.5668 Y28.0923
G01 X44.5852 Y28.0823
G01 X44.6041 Y28.0732
G01 X44.6234 Y28.0651
G01 X44.6431 Y28.0579
G01 X44.6762 Y28.0481
G01 X44.6967 Y28.0435
G01 X44.7173 Y28.0399
G01 X44.7381 Y28.0373
G01 X44.7590 Y28.0358
G01 X44.7800 Y28.0353
G01 X44.8010 Y28.0358
G01 X44.8219 Y28.0373
G01 X44.8427 Y28.0399
G01 X44.8633 Y28.0435
G01 X44.8838 Y28.0481
G01 X44.9040 Y28.0537
G01 X44.9239 Y28.0602
G01 X44.9434 Y28.0678
G01 X44.9626 Y28.0763
G01 X44.9878 Y28.0893
G01 X45.0173 Y28.1073
G01 X45.0403 Y28.1238
G01 X45.0668 Y28.1459
G01 X45.3136 Y28.3920
G01 X45.7914 Y28.5899
G01 X46.3086 Y28.5899
G01 X46.7864 Y28.3920
G01 X47.0233 Y28.1552
G01 X47.0491 Y28.1322
G01 X47.0656 Y28.1193
G01 X47.0827 Y28.1073
G01 X47.1122 Y28.0893
G01 X47.1374 Y28.0763
G01 X47.1634 Y28.0651
G01 X47.1960 Y28.0537
G01 X47.2234 Y28.0464
G01 X47.2573 Y28.0399
G01 X47.2855 Y28.0367
G01 X47.3200 Y28.0353
G01 X47.3545 Y28.0367
G01 X47.3827 Y28.0399
G01 X47.4166 Y28.0464
G01 X47.4440 Y28.0537
G01 X47.4766 Y28.0651
G01 X47.5026 Y28.0763
G01 X47.5278 Y28.0893
G01 X47.5573 Y28.1073
G01 X47.5744 Y28.1193
G01 X47.5909 Y28.1322
G01 X47.6167 Y28.1552
G01 X47.8536 Y28.3920
G01 X48.3314 Y28.5899
G01 X48.8486 Y28.5899
G01 X49.3264 Y28.3920
G01 X49.5633 Y28.1552
G01 X49.5891 Y28.1322
G01 X49.6056 Y28.1193
G01 X49.6227 Y28.1073
G01 X49.6522 Y28.0893
G01 X49.6774 Y28.0763
G01 X49.7034 Y28.0651
G01 X49.7360 Y28.0537
G01 X49.7634 Y28.0464
G01 X49.7973 Y28.0399
G01 X49.8255 Y28.0367
G01 X49.8600 Y28.0353
G01 X49.8945 Y28.0367
G01 X49.9227 Y28.0399
G01 X49.9566 Y28.0464
G01 X49.9840 Y28.0537
G01 X50.0166 Y28.0651
G01 X50.0426 Y28.0763
G01 X50.0678 Y28.0893
G01 X50.0973 Y28.1073
G01 X50.1144 Y28.1193
G01 X50.1309 Y28.1322
G01 X50.1567 Y28.1552
G01 X50.3936 Y28.3920
G01 X50.8714 Y28.5899
G01 X51.3886 Y28.5899
G01 X51.6096 Y28.4984
G01 X51.6361 Y28.4885
G01 X51.6692 Y28.4787
G01 X51.6969 Y28.4727
G01 X51.7311 Y28.4679
G01 X51.7594 Y28.4661
G01 X51.7940 Y28.4664
G01 X51.8284 Y28.4695
G01 X51.8635 Y28.4756
G01 X51.8970 Y28.4843
G01 X51.9169 Y28.4909
G01 X51.9364 Y28.4984
G01 X51.9678 Y28.5129
G01 X51.9988 Y28.5305
G01 X52.0274 Y28.5499
G01 X52.0439 Y28.5628
G01 X52.0652 Y28.5815
G01 X52.0844 Y28.6008
G01 X52.0984 Y28.6164
G01 X52.1160 Y28.6385
G01 X52.1281 Y28.6557
G01 X52.1393 Y28.6734
G01 X52.1530 Y28.6982
G01 X52.1647 Y28.7228
G01 X52.1725 Y28.7422
G01 X52.1817 Y28.7690
G01 X52.1873 Y28.7892
G01 X52.1919 Y28.8096
G01 X52.1964 Y28.8376
G01 X52.1991 Y28.8646
G01 X52.2000 Y28.8893
G01 X52.2001 Y48.5470
G01 X52.1996 Y48.5680
G01 X52.1980 Y48.5889
G01 X52.1932 Y48.6231
G01 X52.1873 Y48.6508
G01 X52.1775 Y48.6840
G01 X52.1647 Y48.7172
G01 X52.1496 Y48.7484
G01 X52.1321 Y48.7781
G01 X52.1160 Y48.8014
G01 X52.0943 Y48.8283
G01 X52.0697 Y48.8542
G01 X52.0439 Y48.8772
G01 X52.0214 Y48.8944
G01 X51.9926 Y48.9134
G01 X51.9622 Y48.9299
G01 X51.9364 Y48.9416
G01 X51.9040 Y48.9535
G01 X51.8768 Y48.9613
G01 X51.8563 Y48.9659
G01 X51.8284 Y48.9705
G01 X51.8013 Y48.9731
G01 X51.7730 Y48.9741
G01 X51.7520 Y48.9736
G01 X51.7238 Y48.9712
G01 X51.6969 Y48.9673
G01 X51.6764 Y48.9630
G01 X51.6490 Y48.9557
G01 X51.6164 Y48.9443
G01 X51.3886 Y48.8501
G01 X50.8714 Y48.8501
G01 X50.3936 Y49.0480
G01 X50.0280 Y49.4136
G01 X49.8301 Y49.8914
G01 X49.8301 Y50.4086
G01 X50.0280 Y50.8864
G01 X50.3936 Y51.2520
G01 X50.8714 Y51.4499
G01 X51.3886 Y51.4499
G01 X51.7591 Y51.2970
G01 X51.7861 Y51.2884
G01 X51.8197 Y51.2802
G01 X51.8538 Y51.2749
G01 X51.8894 Y51.2723
G01 X51.9104 Y51.2721
G01 X51.9313 Y51.2730
G01 X51.9522 Y51.2749
G01 X51.9791 Y51.2789
G01 X52.0068 Y51.2848
G01 X52.0270 Y51.2904
G01 X52.0469 Y51.2970
G01 X52.0664 Y51.3045
G01 X52.0856 Y51.3130
G01 X52.1043 Y51.3225
G01 X52.1226 Y51.3328
G01 X52.1463 Y51.3482
G01 X52.1633 Y51.3605
G01 X52.1843 Y51.3778
G01 X52.1997 Y51.3920
G01 X52.2144 Y51.4069
G01 X52.2284 Y51.4225
G01 X52.2416 Y51.4388
G01 X52.2621 Y51.4680
G01 X52.2796 Y51.4978
G01 X52.2891 Y51.5165
G01 X52.2976 Y51.5357
G01 X52.3051 Y51.5552
G01 X52.3117 Y51.5751
G01 X52.3173 Y51.5953
G01 X52.3219 Y51.6158
G01 X52.3254 Y51.6364
G01 X52.3280 Y51.6572
G01 X52.3300 Y51.6917
G01 X52.3301 Y52.7231
G01 X52.3291 Y52.7514
G01 X52.3264 Y52.7785
G01 X52.3219 Y52.8064
G01 X52.3154 Y52.8340
G01 X52.3051 Y52.8670
G01 X52.2947 Y52.8933
G01 X52.2796 Y52.9244
G01 X52.2654 Y52.9489
G01 X52.2460 Y52.9775
G01 X52.2284 Y52.9997
G01 X52.2076 Y53.0225
G01 X51.9651 Y53.2650
G01 X51.9396 Y53.2884
G01 X51.9115 Y53.3103
G01 X51.8826 Y53.3293
G01 X51.8579 Y53.3430
G01 X51.8265 Y53.3576
G01 X51.7941 Y53.3695
G01 X51.7669 Y53.3773
G01 X51.7330 Y53.3843
G01 X51.7049 Y53.3880
G01 X51.6668 Y53.3900
G01 X33.4533 Y53.3901
G01 X33.4187 Y53.3886
G01 X33.3833 Y53.3843
G01 X33.3495 Y53.3773
G01 X33.3163 Y53.3675
G01 X33.2831 Y53.3547
G01 X33.2519 Y53.3396
G01 X33.2222 Y53.3221
G01 X33.1988 Y53.3060
G01 X33.1720 Y53.2843
G01 X33.1513 Y53.2650
G01 X26.3751 Y46.4888
G01 X26.3606 Y46.4736
G01 X26.3469 Y46.4577
G01 X26.3340 Y46.4412
G01 X26.3219 Y46.4241
G01 X26.3107 Y46.4064
G01 X26.3004 Y46.3881
G01 X26.2910 Y46.3694
G01 X26.2825 Y46.3502
G01 X26.2749 Y46.3307
G01 X26.2684 Y46.3108
G01 X26.2628 Y46.2906
G01 X26.2582 Y46.2701
G01 X26.2546 Y46.2495
G01 X26.2520 Y46.2287
G01 X26.2505 Y46.2077
G01 X26.2500 Y46.1868
G01 X26.2505 Y46.1658
G01 X26.2520 Y46.1449
G01 X26.2546 Y46.1241
G01 X26.2582 Y46.1035
G01 X26.2628 Y46.0830
G01 X26.2684 Y46.0628
G01 X26.2749 Y46.0429
G01 X26.2825 Y46.0234
G01 X26.2910 Y46.0042
G01 X26.3004 Y45.9855
G01 X26.3107 Y45.9672
G01 X26.3219 Y45.9495
G01 X26.3340 Y45.9324
G01 X26.3469 Y45.9159
G01 X26.3606 Y45.9000
G01 X26.3751 Y45.8848
G01 X26.3902 Y45.8704
G01 X26.4061 Y45.8567
G01 X26.4226 Y45.8438
G01 X26.4512 Y45.8244
G01 X26.4823 Y45.8068
G01 X26.5011 Y45.7977
G01 X26.5204 Y45.7895
G01 X26.5531 Y45.7781
G01 X26.5733 Y45.7725
G01 X26.5937 Y45.7679
G01 X26.6144 Y45.7644
G01 X26.6352 Y45.7618
G01 X26.6561 Y45.7602
G01 X26.6770 Y45.7597
G01 X26.7116 Y45.7612
G01 X26.7470 Y45.7655
G01 X27.0000 Y45.8156
G01 X27.0411 Y45.8074
G01 X27.0655 Y45.8036
G01 X27.0925 Y45.8009
G01 X27.1208 Y45.7999
G01 X39.1246 Y45.7999
G01 X39.1591 Y45.8014
G01 X39.1872 Y45.8046
G01 X39.2212 Y45.8110
G01 X39.2485 Y45.8183
G01 X39.2811 Y45.8297
G01 X39.3138 Y45.8442
G01 X39.3441 Y45.8607
G01 X39.3730 Y45.8797
G01 X39.3955 Y45.8969
G01 X39.4239 Y45.9224
G01 X41.6301 Y48.1286
G01 X41.6468 Y48.1467
G01 X41.6602 Y48.1628
G01 X41.6729 Y48.1795
G01 X41.6880 Y48.2021
G01 X41.7022 Y48.2267
G01 X41.7116 Y48.2454
G01 X41.7201 Y48.2645
G01 X41.7276 Y48.2841
G01 X41.7342 Y48.3040
G01 X41.7398 Y48.3242
G01 X41.7468 Y48.3580
G01 X41.7512 Y48.3934
G01 X41.7526 Y48.4280
G01 X41.7521 Y48.4489
G01 X41.7505 Y48.4698
G01 X41.7457 Y48.5040
G01 X41.7379 Y48.5389
G01 X41.7320 Y48.5590
G01 X41.7251 Y48.5787
G01 X41.7116 Y48.6106
G01 X41.7022 Y48.6293
G01 X41.6918 Y48.6475
G01 X41.6806 Y48.6652
G01 X41.6685 Y48.6824
G01 X41.6468 Y48.7092
G01 X41.6222 Y48.7351
G01 X41.5965 Y48.7581
G01 X41.5799 Y48.7710
G01 X41.5628 Y48.7831
G01 X41.5333 Y48.8011
G01 X41.5081 Y48.8140
G01 X41.4890 Y48.8225
G01 X41.4694 Y48.8301
G01 X41.4424 Y48.8387
G01 X41.4161 Y48.8453
G01 X41.3955 Y48.8492
G01 X41.3674 Y48.8530
G01 X41.3465 Y48.8545
G01 X41.3255 Y48.8550
G01 X41.3046 Y48.8545
G01 X41.2837 Y48.8530
G01 X41.2607 Y48.8501
G01 X40.7114 Y48.8501
G01 X40.2336 Y49.0480
G01 X39.9994 Y49.2822
G01 X39.9709 Y49.3078
G01 X39.9433 Y49.3286
G01 X39.9196 Y49.3440
G01 X39.8948 Y49.3577
G01 X39.8702 Y49.3693
G01 X39.8439 Y49.3798
G01 X39.8109 Y49.3900
G01 X39.7833 Y49.3965
G01 X39.7554 Y49.4011
G01 X39.7283 Y49.4038
G01 X39.7000 Y49.4047
G01 X39.6655 Y49.4033
G01 X39.6373 Y49.4001
G01 X39.6095 Y49.3950
G01 X39.5831 Y49.3884
G01 X39.5561 Y49.3798
G01 X39.5298 Y49.3693
G01 X39.4987 Y49.3543
G01 X39.4742 Y49.3401
G01 X39.4516 Y49.3250
G01 X39.4291 Y49.3078
G01 X39.4132 Y49.2941
G01 X39.1664 Y49.0480
G01 X38.6886 Y48.8501
G01 X38.1714 Y48.8501
G01 X37.6936 Y49.0480
G01 X37.4567 Y49.2848
G01 X37.4309 Y49.3078
G01 X37.4144 Y49.3207
G01 X37.3973 Y49.3327
G01 X37.3732 Y49.3477
G01 X37.3426 Y49.3637
G01 X37.3108 Y49.3772
G01 X37.2840 Y49.3863
G01 X37.2566 Y49.3936
G01 X37.2227 Y49.4001
G01 X37.1945 Y49.4033
G01 X37.1600 Y49.4047
G01 X37.1255 Y49.4033
G01 X37.0973 Y49.4001
G01 X37.0634 Y49.3936
G01 X37.0360 Y49.3863
G01 X37.0092 Y49.3772
G01 X36.9774 Y49.3637
G01 X36.9468 Y49.3477
G01 X36.9227 Y49.3327
G01 X36.9056 Y49.3207
G01 X36.8891 Y49.3078
G01 X36.8633 Y49.2848
G01 X36.6264 Y49.0480
G01 X36.1486 Y48.8501
G01 X35.6314 Y48.8501
G01 X35.1536 Y49.0480
G01 X34.9167 Y49.2848
G01 X34.8909 Y49.3078
G01 X34.8744 Y49.3207
G01 X34.8573 Y49.3327
G01 X34.8332 Y49.3477
G01 X34.8026 Y49.3637
G01 X34.7708 Y49.3772
G01 X34.7440 Y49.3863
G01 X34.7166 Y49.3936
G01 X34.6827 Y49.4001
G01 X34.6545 Y49.4033
G01 X34.6200 Y49.4047
G01 X34.5855 Y49.4033
G01 X34.5573 Y49.4001
G01 X34.5234 Y49.3936
G01 X34.4960 Y49.3863
G01 X34.4692 Y49.3772
G01 X34.4374 Y49.3637
G01 X34.4068 Y49.3477
G01 X34.3827 Y49.3327
G01 X34.3656 Y49.3207
G01 X34.3491 Y49.3078
G01 X34.3233 Y49.2848
G01 X34.0864 Y49.0480
G01 X33.6086 Y48.8501
G01 X33.0914 Y48.8501
G01 X32.6136 Y49.0480
G01 X32.2480 Y49.4136
G01 X32.0501 Y49.8914
G01 X32.0501 Y50.4086
G01 X32.2480 Y50.8864
G01 X32.6136 Y51.2520
G01 X33.0914 Y51.4499
G01 X33.6086 Y51.4499
G01 X34.0864 Y51.2520
G01 X34.3233 Y51.0152
G01 X34.3491 Y50.9922
G01 X34.3656 Y50.9793
G01 X34.3827 Y50.9673
G01 X34.4068 Y50.9523
G01 X34.4374 Y50.9363
G01 X34.4692 Y50.9228
G01 X34.4960 Y50.9137
G01 X34.5234 Y50.9064
G01 X34.5573 Y50.8999
G01 X34.5855 Y50.8967
G01 X34.6200 Y50.8953
G01 X34.6545 Y50.8967
G01 X34.6827 Y50.8999
G01 X34.7166 Y50.9064
G01 X34.7440 Y50.9137
G01 X34.7708 Y50.9228
G01 X34.8026 Y50.9363
G01 X34.8332 Y50.9523
G01 X34.8573 Y50.9673
G01 X34.8744 Y50.9793
G01 X34.8909 Y50.9922
G01 X34.9167 Y51.0152
G01 X35.1536 Y51.2520
G01 X35.6314 Y51.4499
G01 X36.1486 Y51.4499
G01 X36.6264 Y51.2520
G01 X36.8633 Y51.0152
G01 X36.8891 Y50.9922
G01 X36.9056 Y50.9793
G01 X36.9227 Y50.9673
G01 X36.9468 Y50.9523
G01 X36.9774 Y50.9363
G01 X37.0092 Y50.9228
G01 X37.0360 Y50.9137
G01 X37.0634 Y50.9064
G01 X37.0973 Y50.8999
G01 X37.1255 Y50.8967
G01 X37.1600 Y50.8953
G01 X37.1945 Y50.8967
G01 X37.2227 Y50.8999
G01 X37.2566 Y50.9064
G01 X37.2840 Y50.9137
G01 X37.3108 Y50.9228
G01 X37.3426 Y50.9363
G01 X37.3732 Y50.9523
G01 X37.3973 Y50.9673
G01 X37.4144 Y50.9793
G01 X37.4309 Y50.9922
G01 X37.4567 Y51.0152
G01 X37.6936 Y51.2520
G01 X38.1714 Y51.4499
G01 X38.6886 Y51.4499
G01 X39.1664 Y51.2520
G01 X39.4033 Y51.0152
G01 X39.4291 Y50.9922
G01 X39.4456 Y50.9793
G01 X39.4627 Y50.9673
G01 X39.4868 Y50.9523
G01 X39.5174 Y50.9363
G01 X39.5492 Y50.9228
G01 X39.5760 Y50.9137
G01 X39.6034 Y50.9064
G01 X39.6373 Y50.8999
G01 X39.6655 Y50.8967
G01 X39.7000 Y50.8953
G01 X39.7345 Y50.8967
G01 X39.7627 Y50.8999
G01 X39.7966 Y50.9064
G01 X39.8240 Y50.9137
G01 X39.8508 Y50.9228
G01 X39.8826 Y50.9363
G01 X39.9132 Y50.9523
G01 X39.9373 Y50.9673
G01 X39.9544 Y50.9793
G01 X39.9709 Y50.9922
G01 X39.9967 Y51.0152
G01 X40.2336 Y51.2520
G01 X40.7114 Y51.4499
G01 X41.2286 Y51.4499
G01 X41.7064 Y51.2520
G01 X41.9433 Y51.0152
G01 X41.9691 Y50.9922
G01 X41.9856 Y50.9793
G01 X42.0027 Y50.9673
G01 X42.0268 Y50.9523
G01 X42.0574 Y50.9363
G01 X42.0892 Y50.9228
G01 X42.1160 Y50.9137
G01 X42.1434 Y50.9064
G01 X42.1773 Y50.8999
G01 X42.2055 Y50.8967
G01 X42.2400 Y50.8953
G01 X42.2745 Y50.8967
G01 X42.3027 Y50.8999
G01 X42.3366 Y50.9064
G01 X42.3640 Y50.9137
G01 X42.3908 Y50.9228
G01 X42.4226 Y50.9363
G01 X42.4532 Y50.9523
G01 X42.4773 Y50.9673
G01 X42.4944 Y50.9793
G01 X42.5109 Y50.9922
G01 X42.5367 Y51.0152
G01 X42.7736 Y51.2520
G01 X43.2514 Y51.4499
G01 X43.7686 Y51.4499
G01 X44.2464 Y51.2520
G01 X44.4833 Y51.0152
G01 X44.5091 Y50.9922
G01 X44.5256 Y50.9793
G01 X44.5427 Y50.9673
G01 X44.5668 Y50.9523
G01 X44.5974 Y50.9363
G01 X44.6292 Y50.9228
G01 X44.6560 Y50.9137
G01 X44.6834 Y50.9064
G01 X44.7173 Y50.8999
G01 X44.7455 Y50.8967
G01 X44.7800 Y50.8953
G01 X44.8145 Y50.8967
G01 X44.8427 Y50.8999
G01 X44.8766 Y50.9064
G01 X44.9040 Y50.9137
G01 X44.9308 Y50.9228
G01 X44.9626 Y50.9363
G01 X44.9932 Y50.9523
G01 X45.0173 Y50.9673
G01 X45.0344 Y50.9793
G01 X45.0509 Y50.9922
G01 X45.0767 Y51.0152
G01 X45.3136 Y51.2520
G01 X45.7914 Y51.4499
G01 X46.3086 Y51.4499
G01 X46.7864 Y51.2520
G01 X47.1520 Y50.8864
G01 X47.3499 Y50.4086
G01 X47.3499 Y49.8914
G01 X47.1520 Y49.4136
G01 X46.9127 Y49.1743
G01 X46.8919 Y49.1515
G01 X46.8743 Y49.1294
G01 X46.8622 Y49.1122
G01 X46.8510 Y49.0945
G01 X46.8407 Y49.0763
G01 X46.8312 Y49.0576
G01 X46.8228 Y49.0384
G01 X46.8152 Y49.0188
G01 X46.8049 Y48.9859
G01 X46.6267 Y48.7192
G01 X46.5919 Y48.6958
G01 X46.5719 Y48.6814
G01 X46.5509 Y48.6641
G01 X46.5302 Y48.6448
G01 X34.4052 Y36.5198
G01 X34.3859 Y36.4991
G01 X34.3686 Y36.4781
G01 X34.3542 Y36.4581
G01 X34.3308 Y36.4233
G01 X34.0662 Y36.2465
G01 X33.7541 Y36.1844
G01 X33.7130 Y36.1926
G01 X33.6886 Y36.1964
G01 X33.6616 Y36.1991
G01 X33.6333 Y36.2001
G01 X25.6396 Y36.2001
G01 X25.6051 Y36.1986
G01 X25.5769 Y36.1954
G01 X25.5430 Y36.1890
G01 X25.5156 Y36.1817
G01 X25.4830 Y36.1703
G01 X25.4570 Y36.1591
G01 X25.4264 Y36.1430
G01 X25.4023 Y36.1281
G01 X25.3744 Y36.1077
G01 X25.3528 Y36.0894
G01 X25.3376 Y36.0750
G01 X24.9063 Y35.6436
G01 X24.3182 Y35.4001
G01 X23.6818 Y35.4001
G01 X23.0937 Y35.6436
G01 X22.6436 Y36.0937
G01 X22.4001 Y36.6818
G01 X22.4001 Y37.3182
G01 X22.6086 Y37.8222
G01 X22.6177 Y37.8490
G01 X22.6250 Y37.8764
G01 X22.6303 Y37.9031
G01 X22.6340 Y37.9311
G01 X22.6356 Y37.9520
G01 X22.6361 Y37.9730
G01 X22.6356 Y37.9940
G01 X22.6340 Y38.0149
G01 X22.6315 Y38.0357
G01 X22.6279 Y38.0563
G01 X22.6233 Y38.0768
G01 X22.6177 Y38.0970
G01 X22.6111 Y38.1169
G01 X22.6036 Y38.1364
G01 X22.5951 Y38.1556
G01 X22.5857 Y38.1743
G01 X22.5753 Y38.1926
G01 X22.5641 Y38.2103
G01 X22.5437 Y38.2382
G01 X22.5255 Y38.2598
G01 X22.5110 Y38.2750
G01 X22.4958 Y38.2894
G01 X22.4799 Y38.3031
G01 X22.4634 Y38.3160
G01 X22.4463 Y38.3281
G01 X22.4286 Y38.3393
G01 X22.4103 Y38.3496
G01 X22.3916 Y38.3591
G01 X22.3725 Y38.3676
G01 X22.3529 Y38.3751
G01 X22.3259 Y38.3837
G01 X22.3056 Y38.3890
G01 X22.2851 Y38.3932
G01 X22.2644 Y38.3964
G01 X22.2373 Y38.3991
G01 X22.2090 Y38.4001
G01 X21.6370 Y38.4001
G01 X21.6160 Y38.3995
G01 X21.5951 Y38.3980
G01 X21.5609 Y38.3932
G01 X21.5332 Y38.3873
G01 X21.5060 Y38.3795
G01 X21.4804 Y38.3703
G01 X21.4544 Y38.3591
G01 X21.4292 Y38.3461
G01 X21.4059 Y38.3321
G01 X21.3826 Y38.3160
G01 X21.3661 Y38.3031
G01 X21.3448 Y38.2844
G01 X21.3299 Y38.2697
G01 X21.3116 Y38.2496
G01 X21.2940 Y38.2274
G01 X21.2819 Y38.2103
G01 X21.2707 Y38.1926
G01 X21.2604 Y38.1743
G01 X21.2509 Y38.1556
G01 X21.2424 Y38.1364
G01 X21.2349 Y38.1169
G01 X21.2263 Y38.0899
G01 X21.2210 Y38.0696
G01 X21.2157 Y38.0429
G01 X21.2120 Y38.0149
G01 X21.2105 Y37.9940
G01 X21.2099 Y37.9730
G01 X21.2100 Y36.0909
G01 X21.2109 Y36.0699
G01 X21.2136 Y36.0429
G01 X21.2181 Y36.0149
G01 X21.2227 Y35.9945
G01 X21.2283 Y35.9743
G01 X21.2375 Y35.9475
G01 X21.2479 Y35.9223
G01 X21.2604 Y35.8969
G01 X21.2746 Y35.8724
G01 X21.2940 Y35.8438
G01 X21.3116 Y35.8217
G01 X21.3350 Y35.7963
G01 X24.3052 Y32.8261
G01 X24.3259 Y32.8068
G01 X24.3469 Y32.7895
G01 X24.3669 Y32.7750
G01 X24.4017 Y32.7517
G01 X24.4230 Y32.7199
G00 Z1.0000
G00 X25.3265 Y37.7002
G01 F50.00
G01 Z-0.1000
G01 F150.00
G01 X25.2866 Y37.7712
G01 X25.2472 Y37.8334
G01 X25.2048 Y37.8936
G01 X25.1595 Y37.9516
G01 X25.1114 Y38.0073
G01 X25.0607 Y38.0607
G01 X25.0073 Y38.1114
G01 X24.9516 Y38.1595
G01 X24.8936 Y38.2048
G01 X24.8334 Y38.2472
G01 X24.7712 Y38.2866
G01 X24.7071 Y38.3229
G01 X24.6413 Y38.3560
G01 X24.5740 Y38.3858
G01 X24.5053 Y38.4123
G01 X24.4354 Y38.4354
G01 X24.3645 Y38.4550
G01 X24.2926 Y38.4712
G01 X24.2201 Y38.4838
G01 X24.1470 Y38.4928
G01 X24.0736 Y38.4982
G01 X24.0000 Y38.5000
G01 X23.9264 Y38.4982
G01 X23.8530 Y38.4928
G01 X23.7799 Y38.4838
G01 X23.7074 Y38.4712
G01 X23.6355 Y38.4550
G01 X23.5646 Y38.4354
G01 X23.4947 Y38.4123
G01 X23.4260 Y38.3858
G01 X23.3587 Y38.3560
G01 X23.2929 Y38.3229
G01 X23.2288 Y38.2866
G01 X23.1666 Y38.2472
G01 X23.1064 Y38.2048
G01 X23.0484 Y38.1595
G01 X22.9927 Y38.1114
G01 X22.9393 Y38.0607
G01 X22.8886 Y38.0073
G01 X22.8405 Y37.9516
G01 X22.7952 Y37.8936
G01 X22.7528 Y37.8334
G01 X22.7134 Y37.7712
G01 X22.6771 Y37.7071
G01 X22.6440 Y37.6413
G01 X22.6142 Y37.5740
G01 X22.5877 Y37.5053
G01 X22.5646 Y37.4354
G01 X22.5450 Y37.3645
G01 X22.5288 Y37.2926
G01 X22.5162 Y37.2201
G01 X22.5072 Y37.1470
G01 X22.5018 Y37.0736
G01 X22.5000 Y37.0000
G01 X22.5018 Y36.9264
G01 X22.5072 Y36.8530
G01 X22.5162 Y36.7799
G01 X22.5288 Y36.7074
G01 X22.5450 Y36.6355
G01 X22.5646 Y36.5646
G01 X22.5877 Y36.4947
G01 X22.6142 Y36.4260
G01 X22.6440 Y36.3587
G01 X22.6771 Y36.2929
G01 X22.7134 Y36.2288
G01 X22.7488 Y36.1728
G01 X22.7952 Y36.1064
G01 X22.8452 Y36.0428
G01 X22.8886 Y35.9927
G01 X22.9342 Y35.9446
G01 X22.9927 Y35.8886
G01 X23.0542 Y35.8359
G01 X23.1064 Y35.7952
G01 X23.1606 Y35.7570
G01 X23.2288 Y35.7134
G01 X23.2929 Y35.6771
G01 X23.3521 Y35.6472
G01 X23.4260 Y35.6142
G01 X23.5016 Y35.5853
G01 X23.5646 Y35.5646
G01 X23.6284 Y35.5468
G01 X23.7074 Y35.5288
G01 X23.7872 Y35.5152
G01 X23.8530 Y35.5072
G01 X23.9190 Y35.5023
G01 X24.0000 Y35.5000
G01 X24.0810 Y35.5023
G01 X24.1470 Y35.5072
G01 X24.2128 Y35.5152
G01 X24.2926 Y35.5288
G01 X24.3716 Y35.5468
G01 X24.4354 Y35.5646
G01 X24.4984 Y35.5853
G01 X24.5740 Y35.6142
G01 X24.6479 Y35.6472
G01 X24.7071 Y35.6771
G01 X24.7712 Y35.7134
G01 X24.8394 Y35.7570
G01 X24.8936 Y35.7952
G01 X24.9516 Y35.8405
G01 X25.0127 Y35.8936
G01 X25.0607 Y35.9393
G01 X25.1064 Y35.9873
G01 X25.1641 Y36.0542
G01 X25.2048 Y36.1064
G01 X25.2430 Y36.1606
G01 X25.2866 Y36.2288
G01 X25.3265 Y36.2998
G01 X33.7578 Y36.2998
G01 X33.7885 Y36.3006
G01 X33.8154 Y36.3025
G01 X33.8569 Y36.3074
G01 X33.8979 Y36.3148
G01 X33.9243 Y36.3208
G01 X33.9503 Y36.3279
G01 X33.9900 Y36.3407
G01 X34.0288 Y36.3560
G01 X34.0535 Y36.3670
G01 X34.0777 Y36.3791
G01 X34.1141 Y36.3994
G01 X34.1492 Y36.4220
G01 X34.1712 Y36.4376
G01 X34.1926 Y36.4541
G01 X34.2244 Y36.4812
G01 X34.2492 Y36.5049
G01 X46.5451 Y48.8008
G01 X46.5688 Y48.8256
G01 X46.5959 Y48.8574
G01 X46.6124 Y48.8788
G01 X46.6322 Y48.9069
G01 X46.6543 Y48.9423
G01 X46.6675 Y48.9658
G01 X46.6797 Y48.9899
G01 X46.6996 Y49.0348
G01 X46.7093 Y49.0600
G01 X46.7178 Y49.0856
G01 X46.7292 Y49.1257
G01 X46.7382 Y49.1673
G01 X46.7648 Y49.1862
G01 X46.8055 Y49.2178
G01 X46.8504 Y49.2560
G01 X46.8985 Y49.3015
G01 X46.9341 Y49.3387
G01 X46.9776 Y49.3887
G01 X47.0138 Y49.4352
G01 X47.0478 Y49.4833
G01 X47.0754 Y49.5268
G01 X47.1117 Y49.5909
G01 X47.1348 Y49.6369
G01 X47.1587 Y49.6908
G01 X47.1822 Y49.7527
G01 X47.1983 Y49.8017
G01 X47.2140 Y49.8584
G01 X47.2269 Y49.9159
G01 X47.2370 Y49.9739
G01 X47.2442 Y50.0324
G01 X47.2486 Y50.0911
G01 X47.2500 Y50.1537
G01 X47.2486 Y50.2089
G01 X47.2442 Y50.2676
G01 X47.2370 Y50.3261
G01 X47.2269 Y50.3841
G01 X47.2140 Y50.4416
G01 X47.1983 Y50.4983
G01 X47.1799 Y50.5543
G01 X47.1587 Y50.6092
G01 X47.1348 Y50.6631
G01 X47.1083 Y50.7157
G01 X47.0793 Y50.7669
G01 X47.0478 Y50.8167
G01 X47.0138 Y50.8648
G01 X46.9776 Y50.9113
G01 X46.9341 Y50.9613
G01 X46.8985 Y50.9985
G01 X46.8613 Y51.0341
G01 X46.8169 Y51.0729
G01 X46.7648 Y51.1138
G01 X46.7167 Y51.1478
G01 X46.6669 Y51.1793
G01 X46.6091 Y51.2117
G01 X46.5564 Y51.2379
G01 X46.5092 Y51.2587
G01 X46.4612 Y51.2773
G01 X46.3983 Y51.2983
G01 X46.3416 Y51.3140
G01 X46.2841 Y51.3269
G01 X46.2188 Y51.3380
G01 X46.1603 Y51.3449
G01 X46.1089 Y51.3486
G01 X46.0574 Y51.3499
G01 X45.9911 Y51.3486
G01 X45.9324 Y51.3442
G01 X45.8739 Y51.3370
G01 X45.8087 Y51.3254
G01 X45.7584 Y51.3140
G01 X45.7087 Y51.3004
G01 X45.6527 Y51.2822
G01 X45.5908 Y51.2587
G01 X45.5369 Y51.2348
G01 X45.4843 Y51.2083
G01 X45.4268 Y51.1754
G01 X45.3833 Y51.1478
G01 X45.3293 Y51.1094
G01 X45.2887 Y51.0776
G01 X45.2496 Y51.0440
G01 X45.2067 Y51.0037
G01 X45.1609 Y50.9559
G01 X45.1271 Y50.9169
G01 X45.0818 Y50.8589
G01 X45.0522 Y50.8167
G01 X45.0207 Y50.7669
G01 X44.9917 Y50.7157
G01 X44.9621 Y50.6564
G01 X44.9413 Y50.6092
G01 X44.9201 Y50.5543
G01 X44.9017 Y50.4983
G01 X44.8860 Y50.4416
G01 X44.8731 Y50.3841
G01 X44.8630 Y50.3261
G01 X44.8558 Y50.2676
G01 X44.8514 Y50.2089
G01 X44.8500 Y50.1500
G01 X44.8514 Y50.0911
G01 X44.8558 Y50.0324
G01 X44.8630 Y49.9739
G01 X44.8731 Y49.9159
G01 X44.8860 Y49.8584
G01 X44.9017 Y49.8017
G01 X44.9178 Y49.7527
G01 X44.9413 Y49.6908
G01 X44.9652 Y49.6369
G01 X44.9917 Y49.5843
G01 X45.0170 Y49.5394
G01 X45.0522 Y49.4833
G01 X45.0818 Y49.4411
G01 X45.1178 Y49.3945
G01 X45.1363 Y49.3724
G01 X33.4641 Y37.7002
G01 X25.3265 Y37.7002
G00 Z1.0000
G00 X22.4428 Y41.4331
G01 F50.00
G01 Z-0.1000
G01 F150.00
G01 X22.3645 Y41.4550
G01 X22.2926 Y41.4712
G01 X22.2201 Y41.4838
G01 X22.1470 Y41.4928
G01 X22.0736 Y41.4982
G01 X22.0000 Y41.5000
G01 X21.9264 Y41.4982
G01 X21.8530 Y41.4928
G01 X21.7799 Y41.4838
G01 X21.7074 Y41.4712
G01 X21.6355 Y41.4550
G01 X21.5646 Y41.4354
G01 X21.4947 Y41.4123
G01 X21.4260 Y41.3858
G01 X21.3587 Y41.3560
G01 X21.2929 Y41.3229
G01 X21.2288 Y41.2866
G01 X21.1666 Y41.2472
G01 X21.1064 Y41.2048
G01 X21.0484 Y41.1595
G01 X20.9927 Y41.1114
G01 X20.9393 Y41.0607
G01 X20.8886 Y41.0073
G01 X20.8405 Y40.9516
G01 X20.7952 Y40.8936
G01 X20.7528 Y40.8334
G01 X20.7134 Y40.7712
G01 X20.6771 Y40.7071
G01 X20.6440 Y40.6413
G01 X20.6142 Y40.5740
G01 X20.5877 Y40.5053
G01 X20.5646 Y40.4354
G01 X20.5450 Y40.3645
G01 X20.5288 Y40.2926
G01 X20.5162 Y40.2201
G01 X20.5072 Y40.1470
G01 X20.5018 Y40.0736
G01 X20.5000 Y40.0000
G01 X20.5018 Y39.9264
G01 X20.5072 Y39.8530
G01 X20.5162 Y39.7799
G01 X20.5288 Y39.7074
G01 X20.5450 Y39.6355
G01 X20.5646 Y39.5646
G01 X20.5877 Y39.4947
G01 X20.6142 Y39.4260
G01 X20.6440 Y39.3587
G01 X20.6771 Y39.2929
G01 X20.7134 Y39.2288
G01 X20.7528 Y39.1666
G01 X20.7952 Y39.1064
G01 X20.8405 Y39.0484
G01 X20.8886 Y38.9927
G01 X20.9393 Y38.9393
G01 X20.9927 Y38.8886
G01 X21.0484 Y38.8405
G01 X21.1064 Y38.7952
G01 X21.1666 Y38.7528
G01 X21.2288 Y38.7134
G01 X21.2929 Y38.6771
G01 X21.3587 Y38.6440
G01 X21.4260 Y38.6142
G01 X21.4947 Y38.5877
G01 X21.5646 Y38.5646
G01 X21.6427 Y38.5433
G01 X21.7074 Y38.5288
G01 X21.7799 Y38.5162
G01 X21.8603 Y38.5066
G01 X21.9264 Y38.5018
G01 X21.9926 Y38.5001
G01 X22.0736 Y38.5018
G01 X22.1543 Y38.5080
G01 X22.2201 Y38.5162
G01 X22.2854 Y38.5275
G01 X22.3645 Y38.5450
G01 X22.4424 Y38.5668
G01 X22.5053 Y38.5877
G01 X22.5740 Y38.6142
G01 X22.6479 Y38.6472
G01 X22.7071 Y38.6771
G01 X22.7648 Y38.7097
G01 X22.8334 Y38.7528
G01 X22.8994 Y38.7996
G01 X22.9516 Y38.8405
G01 X23.0018 Y38.8837
G01 X23.0607 Y38.9393
G01 X23.1163 Y38.9982
G01 X23.1595 Y39.0484
G01 X23.2048 Y39.1064
G01 X23.2512 Y39.1728
G01 X23.2866 Y39.2288
G01 X23.3193 Y39.2865
G01 X23.3560 Y39.3587
G01 X23.3886 Y39.4328
G01 X23.4123 Y39.4947
G01 X23.4332 Y39.5576
G01 X23.4550 Y39.6355
G01 X23.4725 Y39.7146
G01 X23.4838 Y39.7799
G01 X23.4928 Y39.8530
G01 X23.4985 Y39.9338
G01 X23.5000 Y40.0037
G01 X23.4985 Y40.0662
G01 X23.4920 Y40.1543
G01 X23.4838 Y40.2201
G01 X23.4725 Y40.2854
G01 X23.4550 Y40.3645
G01 X23.4331 Y40.4428
G01 X27.2900 Y44.2998
G01 X39.6328 Y44.2998
G01 X39.6671 Y44.3006
G01 X39.7014 Y44.3032
G01 X39.7355 Y44.3074
G01 X39.7694 Y44.3133
G01 X39.8029 Y44.3208
G01 X39.8360 Y44.3300
G01 X39.8687 Y44.3407
G01 X39.9007 Y44.3531
G01 X39.9322 Y44.3670
G01 X39.9629 Y44.3825
G01 X39.9928 Y44.3994
G01 X40.0218 Y44.4178
G01 X40.0499 Y44.4376
G01 X40.0770 Y44.4587
G01 X40.1030 Y44.4812
G01 X40.1253 Y44.5023
G01 X44.0051 Y48.3821
G01 X44.0337 Y48.4125
G01 X44.0513 Y48.4330
G01 X44.0724 Y48.4601
G01 X44.0922 Y48.4882
G01 X44.1143 Y48.5236
G01 X44.1309 Y48.5537
G01 X44.1430 Y48.5778
G01 X44.1540 Y48.6025
G01 X44.1693 Y48.6413
G01 X44.1800 Y48.6740
G01 X44.1892 Y48.7071
G01 X44.1967 Y48.7406
G01 X44.2026 Y48.7745
G01 X44.2060 Y48.8013
G01 X44.2096 Y48.8502
G01 X44.2102 Y48.8772
G01 X44.2102 Y49.1757
G01 X44.2307 Y49.1906
G01 X44.2769 Y49.2271
G01 X44.3159 Y49.2609
G01 X44.3637 Y49.3067
G01 X44.3991 Y49.3441
G01 X44.4376 Y49.3887
G01 X44.4738 Y49.4352
G01 X44.5078 Y49.4833
G01 X44.5393 Y49.5331
G01 X44.5648 Y49.5779
G01 X44.5979 Y49.6436
G01 X44.6187 Y49.6908
G01 X44.6399 Y49.7457
G01 X44.6583 Y49.8017
G01 X44.6740 Y49.8584
G01 X44.6883 Y49.9231
G01 X44.6970 Y49.9739
G01 X44.7042 Y50.0324
G01 X44.7086 Y50.0911
G01 X44.7099 Y50.1426
G01 X44.7081 Y50.2162
G01 X44.7042 Y50.2676
G01 X44.6970 Y50.3261
G01 X44.6869 Y50.3841
G01 X44.6757 Y50.4344
G01 X44.6561 Y50.5054
G01 X44.6399 Y50.5543
G01 X44.6187 Y50.6092
G01 X44.5916 Y50.6697
G01 X44.5683 Y50.7157
G01 X44.5430 Y50.7606
G01 X44.5078 Y50.8167
G01 X44.4738 Y50.8648
G01 X44.4329 Y50.9169
G01 X44.3991 Y50.9559
G01 X44.3637 Y50.9933
G01 X44.3159 Y51.0391
G01 X44.2713 Y51.0776
G01 X44.2189 Y51.1182
G01 X44.1767 Y51.1478
G01 X44.1332 Y51.1754
G01 X44.0757 Y51.2083
G01 X44.0231 Y51.2348
G01 X43.9692 Y51.2587
G01 X43.9073 Y51.2822
G01 X43.8583 Y51.2983
G01 X43.8087 Y51.3122
G01 X43.7513 Y51.3254
G01 X43.6861 Y51.3370
G01 X43.6203 Y51.3449
G01 X43.5689 Y51.3486
G01 X43.5174 Y51.3499
G01 X43.4511 Y51.3486
G01 X43.3924 Y51.3442
G01 X43.3267 Y51.3358
G01 X43.2687 Y51.3254
G01 X43.2184 Y51.3140
G01 X43.1687 Y51.3004
G01 X43.1057 Y51.2799
G01 X43.0440 Y51.2558
G01 X42.9903 Y51.2316
G01 X42.9443 Y51.2083
G01 X42.8994 Y51.1830
G01 X42.8433 Y51.1478
G01 X42.7952 Y51.1138
G01 X42.7487 Y51.0776
G01 X42.6987 Y51.0341
G01 X42.6615 Y50.9985
G01 X42.6160 Y50.9504
G01 X42.5824 Y50.9113
G01 X42.5506 Y50.8707
G01 X42.5164 Y50.8228
G01 X42.4807 Y50.7669
G01 X42.4517 Y50.7157
G01 X42.4252 Y50.6631
G01 X42.4013 Y50.6092
G01 X42.3801 Y50.5543
G01 X42.3617 Y50.4983
G01 X42.3460 Y50.4416
G01 X42.3317 Y50.3769
G01 X42.3230 Y50.3261
G01 X42.3166 Y50.2749
G01 X42.3119 Y50.2162
G01 X42.3100 Y50.1500
G01 X42.3114 Y50.0911
G01 X42.3158 Y50.0324
G01 X42.3230 Y49.9739
G01 X42.3331 Y49.9159
G01 X42.3478 Y49.8513
G01 X42.3617 Y49.8017
G01 X42.3778 Y49.7527
G01 X42.3986 Y49.6976
G01 X42.4252 Y49.6369
G01 X42.4517 Y49.5843
G01 X42.4807 Y49.5331
G01 X42.5122 Y49.4833
G01 X42.5462 Y49.4352
G01 X42.5871 Y49.3831
G01 X42.6209 Y49.3441
G01 X42.6667 Y49.2963
G01 X42.7041 Y49.2609
G01 X42.7431 Y49.2271
G01 X42.7893 Y49.1906
G01 X42.8098 Y49.1757
G01 X42.8098 Y49.1672
G01 X39.3428 Y45.7002
G01 X27.0000 Y45.7002
G01 X26.9656 Y45.6994
G01 X26.9241 Y45.6960
G01 X26.8973 Y45.6926
G01 X26.8706 Y45.6881
G01 X26.8299 Y45.6792
G01 X26.7897 Y45.6678
G01 X26.7641 Y45.6593
G01 X26.7389 Y45.6496
G01 X26.7006 Y45.6330
G01 X26.6635 Y45.6140
G01 X26.6400 Y45.6006
G01 X26.6172 Y45.5862
G01 X26.5829 Y45.5624
G01 X26.5502 Y45.5365
G01 X26.5298 Y45.5188
G01 X26.5075 Y45.4977
G01 X22.4428 Y41.4331
G00 Z1.0000
G00 X23.3265 Y45.7002
G01 F50.00
G01 Z-0.1000
G01 F150.00
G01 X23.2866 Y45.7712
G01 X23.2472 Y45.8334
G01 X23.2048 Y45.8936
G01 X23.1595 Y45.9516
G01 X23.1114 Y46.0073
G01 X23.0607 Y46.0607
G01 X23.0073 Y46.1114
G01 X22.9516 Y46.1595
G01 X22.8936 Y46.2048
G01 X22.8334 Y46.2472
G01 X22.7712 Y46.2866
G01 X22.7071 Y46.3229
G01 X22.6413 Y46.3560
G01 X22.5740 Y46.3858
G01 X22.5053 Y46.4123
G01 X22.4354 Y46.4354
G01 X22.3645 Y46.4550
G01 X22.2926 Y46.4712
G01 X22.2201 Y46.4838
G01 X22.1470 Y46.4928
G01 X22.0736 Y46.4982
G01 X22.0000 Y46.5000
G01 X21.9264 Y46.4982
G01 X21.8530 Y46.4928
G01 X21.7799 Y46.4838
G01 X21.7074 Y46.4712
G01 X21.6355 Y46.4550
G01 X21.5646 Y46.4354
G01 X21.4947 Y46.4123
G01 X21.4260 Y46.3858
G01 X21.3587 Y46.3560
G01 X21.2929 Y46.3229
G01 X21.2288 Y46.2866
G01 X21.1666 Y46.2472
G01 X21.1064 Y46.2048
G01 X21.0484 Y46.1595
G01 X20.9927 Y46.1114
G01 X20.9393 Y46.0607
G01 X20.8886 Y46.0073
G01 X20.8405 Y45.9516
G01 X20.7952 Y45.8936
G01 X20.7528 Y45.8334
G01 X20.7134 Y45.7712
G01 X20.6771 Y45.7071
G01 X20.6440 Y45.6413
G01 X20.6142 Y45.5740
G01 X20.5877 Y45.5053
G01 X20.5646 Y45.4354
G01 X20.5450 Y45.3645
G01 X20.5288 Y45.2926
G01 X20.5162 Y45.2201
G01 X20.5072 Y45.1470
G01 X20.5018 Y45.0736
G01 X20.5000 Y45.0000
G01 X20.5018 Y44.9264
G01 X20.5072 Y44.8530
G01 X20.5162 Y44.7799
G01 X20.5288 Y44.7074
G01 X20.5450 Y44.6355
G01 X20.5646 Y44.5646
G01 X20.5877 Y44.4947
G01 X20.6142 Y44.4260
G01 X20.6440 Y44.3587
G01 X20.6771 Y44.2929
G01 X20.7134 Y44.2288
G01 X20.7488 Y44.1728
G01 X20.7952 Y44.1064
G01 X20.8452 Y44.0428
G01 X20.8886 Y43.9927
G01 X20.9342 Y43.9446
G01 X20.9927 Y43.8886
G01 X21.0542 Y43.8359
G01 X21.1064 Y43.7952
G01 X21.1606 Y43.7570
G01 X21.2352 Y43.7097
G01 X21.2929 Y43.6771
G01 X21.3521 Y43.6472
G01 X21.4260 Y43.6142
G01 X21.4947 Y43.5877
G01 X21.5576 Y43.5668
G01 X21.6355 Y43.5450
G01 X21.7146 Y43.5275
G01 X21.7799 Y43.5162
G01 X21.8530 Y43.5072
G01 X21.9338 Y43.5015
G01 X22.0000 Y43.5000
G01 X22.0736 Y43.5018
G01 X22.1543 Y43.5080
G01 X22.2201 Y43.5162
G01 X22.2854 Y43.5275
G01 X22.3645 Y43.5450
G01 X22.4424 Y43.5668
G01 X22.5053 Y43.5877
G01 X22.5672 Y43.6114
G01 X22.6413 Y43.6440
G01 X22.7135 Y43.6807
G01 X22.7712 Y43.7134
G01 X22.8272 Y43.7488
G01 X22.8936 Y43.7952
G01 X22.9572 Y43.8452
G01 X23.0073 Y43.8886
G01 X23.0554 Y43.9342
G01 X23.1114 Y43.9927
G01 X23.1641 Y44.0542
G01 X23.2048 Y44.1064
G01 X23.2430 Y44.1606
G01 X23.2866 Y44.2288
G01 X23.3265 Y44.2998
G01 X23.7587 Y44.2998
G01 X23.7894 Y44.3006
G01 X23.8163 Y44.3025
G01 X23.8650 Y44.3085
G01 X23.8988 Y44.3148
G01 X23.9251 Y44.3208
G01 X23.9512 Y44.3279
G01 X23.9909 Y44.3407
G01 X24.0229 Y44.3531
G01 X24.0544 Y44.3670
G01 X24.0915 Y44.3860
G01 X24.1150 Y44.3994
G01 X24.1378 Y44.4138
G01 X24.1721 Y44.4376
G01 X24.1992 Y44.4587
G01 X24.2197 Y44.4763
G01 X24.2501 Y44.5049
G01 X33.2350 Y53.4898
G01 X51.8813 Y53.4898
G01 X52.4298 Y52.9413
G01 X52.4298 Y49.4662
G01 X52.4178 Y49.4490
G01 X52.3994 Y49.4200
G01 X52.3825 Y49.3901
G01 X52.3703 Y49.3660
G01 X52.3504 Y49.3211
G01 X52.3407 Y49.2959
G01 X52.3322 Y49.2703
G01 X52.3191 Y49.2230
G01 X52.3133 Y49.1966
G01 X52.3074 Y49.1627
G01 X52.3025 Y49.1213
G01 X52.3006 Y49.0944
G01 X52.2998 Y49.0600
G01 X52.2998 Y28.3800
G01 X52.3006 Y28.3456
G01 X52.3025 Y28.3187
G01 X52.3074 Y28.2773
G01 X52.3133 Y28.2434
G01 X52.3191 Y28.2170
G01 X52.3322 Y28.1697
G01 X52.3407 Y28.1441
G01 X52.3504 Y28.1189
G01 X52.3703 Y28.0740
G01 X52.3825 Y28.0499
G01 X52.3994 Y28.0200
G01 X52.4178 Y27.9910
G01 X52.4298 Y27.9738
G01 X52.4298 Y26.6200
G01 X50.4997 Y24.6898
G01 X50.4812 Y24.6702
G01 X50.4587 Y24.6442
G01 X50.4376 Y24.6171
G01 X50.4138 Y24.5828
G01 X50.3994 Y24.5600
G01 X50.3791 Y24.5235
G01 X50.3670 Y24.4994
G01 X50.3560 Y24.4747
G01 X50.3433 Y24.4428
G01 X50.3279 Y24.3962
G01 X50.3208 Y24.3701
G01 X50.3119 Y24.3294
G01 X50.3074 Y24.3027
G01 X50.3032 Y24.2686
G01 X50.3006 Y24.2344
G01 X50.2998 Y24.2037
G01 X50.2998 Y21.0000
G01 X50.3011 Y20.9583
G01 X50.3032 Y20.9314
G01 X50.3074 Y20.8973
G01 X50.3133 Y20.8634
G01 X50.3191 Y20.8370
G01 X50.3322 Y20.7897
G01 X50.3407 Y20.7641
G01 X50.3531 Y20.7321
G01 X50.3670 Y20.7006
G01 X50.3791 Y20.6765
G01 X50.4033 Y20.6338
G01 X50.4178 Y20.6110
G01 X50.4376 Y20.5829
G01 X50.4587 Y20.5558
G01 X50.4763 Y20.5353
G01 X50.5049 Y20.5049
G01 X51.5075 Y19.5023
G01 X51.5298 Y19.4812
G01 X51.5502 Y19.4635
G01 X51.5829 Y19.4376
G01 X51.6172 Y19.4138
G01 X51.6400 Y19.3994
G01 X51.6699 Y19.3825
G01 X51.7006 Y19.3670
G01 X51.7320 Y19.3531
G01 X51.7641 Y19.3407
G01 X51.8038 Y19.3279
G01 X51.8370 Y19.3191
G01 X51.8634 Y19.3133
G01 X51.8900 Y19.3085
G01 X51.9314 Y19.3032
G01 X51.9656 Y19.3006
G01 X52.0000 Y19.2998
G01 X53.4161 Y19.2998
G01 X54.9334 Y17.7825
G01 X54.9334 Y16.4775
G01 X51.2061 Y12.7502
G01 X47.0237 Y12.7502
G01 X44.2102 Y15.5637
G01 X44.2102 Y16.2008
G01 X44.2482 Y16.2305
G01 X44.2859 Y16.2630
G01 X44.3275 Y16.3021
G01 X44.3722 Y16.3486
G01 X44.4047 Y16.3862
G01 X44.4446 Y16.4368
G01 X44.4775 Y16.4835
G01 X44.5081 Y16.5318
G01 X44.5362 Y16.5815
G01 X44.5619 Y16.6325
G01 X44.5878 Y16.6915
G01 X44.6080 Y16.7450
G01 X44.6235 Y16.7922
G01 X44.6369 Y16.8401
G01 X44.6512 Y16.9030
G01 X44.6610 Y16.9593
G01 X44.6680 Y17.0159
G01 X44.6725 Y17.0803
G01 X44.6736 Y17.1337
G01 X44.6725 Y17.1797
G01 X44.6686 Y17.2367
G01 X44.6610 Y17.3007
G01 X44.6526 Y17.3498
G01 X44.6387 Y17.4127
G01 X44.6235 Y17.4678
G01 X44.6056 Y17.5220
G01 X44.5850 Y17.5753
G01 X44.5619 Y17.6275
G01 X44.5362 Y17.6785
G01 X44.5081 Y17.7282
G01 X44.4733 Y17.7825
G01 X44.4402 Y17.8290
G01 X44.4095 Y17.8682
G01 X44.3770 Y17.9059
G01 X44.3328 Y17.9528
G01 X44.2968 Y17.9872
G01 X44.2424 Y18.0341
G01 X44.2032 Y18.0646
G01 X44.1565 Y18.0975
G01 X44.1082 Y18.1281
G01 X44.0650 Y18.1527
G01 X44.0075 Y18.1819
G01 X43.9485 Y18.2078
G01 X43.9020 Y18.2256
G01 X43.8478 Y18.2435
G01 X43.7856 Y18.2604
G01 X43.7370 Y18.2712
G01 X43.6880 Y18.2798
G01 X43.6167 Y18.2886
G01 X43.5671 Y18.2922
G01 X43.5100 Y18.2936
G01 X43.4456 Y18.2917
G01 X43.3959 Y18.2880
G01 X43.3466 Y18.2820
G01 X43.2758 Y18.2697
G01 X43.2273 Y18.2587
G01 X43.1793 Y18.2455
G01 X43.1180 Y18.2256
G01 X43.0579 Y18.2021
G01 X43.0125 Y18.1819
G01 X42.9680 Y18.1596
G01 X42.9118 Y18.1281
G01 X42.8635 Y18.0975
G01 X42.8228 Y18.0689
G01 X42.7718 Y18.0295
G01 X42.7232 Y17.9872
G01 X42.6872 Y17.9528
G01 X42.6478 Y17.9114
G01 X42.6059 Y17.8624
G01 X42.5754 Y17.8232
G01 X42.5425 Y17.7765
G01 X42.5082 Y17.7218
G01 X42.4838 Y17.6785
G01 X42.4581 Y17.6275
G01 X42.4322 Y17.5685
G01 X42.4144 Y17.5220
G01 X42.3965 Y17.4678
G01 X42.3796 Y17.4056
G01 X42.3688 Y17.3570
G01 X42.3590 Y17.3007
G01 X42.3514 Y17.2367
G01 X42.3478 Y17.1871
G01 X42.3464 Y17.1300
G01 X42.3478 Y17.0729
G01 X42.3528 Y17.0086
G01 X42.3590 Y16.9593
G01 X42.3674 Y16.9102
G01 X42.3796 Y16.8544
G01 X42.3965 Y16.7922
G01 X42.4144 Y16.7380
G01 X42.4350 Y16.6847
G01 X42.4613 Y16.6259
G01 X42.4838 Y16.5815
G01 X42.5082 Y16.5382
G01 X42.5385 Y16.4897
G01 X42.5754 Y16.4368
G01 X42.6105 Y16.3918
G01 X42.6478 Y16.3486
G01 X42.6925 Y16.3021
G01 X42.7341 Y16.2630
G01 X42.7718 Y16.2305
G01 X42.8098 Y16.2008
G01 X42.8098 Y15.2737
G01 X42.8106 Y15.2393
G01 X42.8132 Y15.2051
G01 X42.8185 Y15.1637
G01 X42.8233 Y15.1371
G01 X42.8291 Y15.1107
G01 X42.8400 Y15.0704
G01 X42.8533 Y15.0309
G01 X42.8631 Y15.0057
G01 X42.8740 Y14.9810
G01 X42.8925 Y14.9436
G01 X42.9133 Y14.9074
G01 X42.9278 Y14.8847
G01 X42.9433 Y14.8625
G01 X42.9735 Y14.8238
G01 X42.9912 Y14.8035
G01 X43.0149 Y14.7786
G01 X46.2386 Y11.5549
G01 X46.2635 Y11.5312
G01 X46.2952 Y11.5041
G01 X46.3166 Y11.4876
G01 X46.3386 Y11.4720
G01 X46.3737 Y11.4494
G01 X46.4101 Y11.4291
G01 X46.4343 Y11.4170
G01 X46.4590 Y11.4060
G01 X46.4978 Y11.3907
G01 X46.5375 Y11.3779
G01 X46.5635 Y11.3708
G01 X46.5899 Y11.3648
G01 X46.6309 Y11.3574
G01 X46.6724 Y11.3525
G01 X46.6993 Y11.3506
G01 X46.7263 Y11.3499
G01 X51.4998 Y11.3498
G01 X51.5305 Y11.3506
G01 X51.5648 Y11.3532
G01 X51.5989 Y11.3574
G01 X51.6255 Y11.3619
G01 X51.6734 Y11.3727
G01 X51.6994 Y11.3800
G01 X51.7320 Y11.3907
G01 X51.7641 Y11.4031
G01 X51.7888 Y11.4140
G01 X51.8327 Y11.4360
G01 X51.8561 Y11.4494
G01 X51.8851 Y11.4678
G01 X51.9132 Y11.4876
G01 X51.9403 Y11.5087
G01 X51.9664 Y11.5312
G01 X51.9912 Y11.5549
G01 X56.1287 Y15.6924
G01 X56.1474 Y15.7119
G01 X56.1795 Y15.7490
G01 X56.1960 Y15.7704
G01 X56.2198 Y15.8046
G01 X56.2342 Y15.8275
G01 X56.2511 Y15.8574
G01 X56.2666 Y15.8881
G01 X56.2805 Y15.9195
